; generated by Slic3r Prusa Edition 1.41.0+win64 on 2018-10-20 at 05:00:51

; 

; external perimeters extrusion width = 0.45mm
; perimeters extrusion width = 0.45mm
; infill extrusion width = 0.45mm
; solid infill extrusion width = 0.45mm
; top infill extrusion width = 0.40mm
; support material extrusion width = 0.35mm
; first layer extrusion width = 0.42mm

M201 X1000 Y1000 Z1000 E5000 ; sets maximum accelerations, mm/sec^2
M203 X200 Y200 Z12 E120 ; sets maximum feedrates, mm/sec
M204 P1250 R1250 T1250 ; sets acceleration (P, T) and retract acceleration (R), mm/sec^2
M205 X8.00 Y8.00 Z0.40 E1.50 ; sets the jerk limits, mm/sec
M205 S0 T0 ; sets the minimum extruding and travel feed rate, mm/sec
M107
M115 U3.3.1 ; tell printer latest fw version
M83  ; extruder relative mode
M104 S215 ; set extruder temp
M140 S60 ; set bed temp
M190 S60 ; wait for bed temp
M109 S215 ; wait for extruder temp
G28 W ; home all without mesh bed level
G80 ; mesh bed leveling
G1 Y-3.0 F1000.0 ; go outside print area
G92 E0.0
G1 X60.0 E9.0  F1000.0 ; intro line
M73 Q0 S212
M73 P0 R211
G1 X100.0 E12.5  F1000.0 ; intro line
G92 E0.0
M221 S95
M900 K30; Filament gcode
G21 ; set units to millimeters
G90 ; use absolute coordinates
M83 ; use relative distances for extrusion
;BEFORE_LAYER_CHANGE
G92 E0.0
;0.2


G1 E-0.80000 F2100.00000
G1 Z0.601 F10800.000
;AFTER_LAYER_CHANGE
;0.2
G1 X61.169 Y73.263
G1 Z0.202
G1 E0.80000 F2100.00000
M204 S1000
G1 F1680
G1 X61.584 Y73.012 E0.01521
G1 X62.030 Y72.863 E0.01475
G1 X62.498 Y72.811 E0.01475
G1 X187.504 Y72.811 E3.91947
G1 X188.200 Y72.926 E0.02213
G1 X188.827 Y73.259 E0.02225
G1 X189.312 Y73.772 E0.02213
G1 X189.609 Y74.417 E0.02225
G1 X199.658 Y116.633 E1.36064
G1 X199.685 Y135.131 E0.58002
G1 X199.571 Y135.707 E0.01839
G1 X199.307 Y136.235 E0.01851
G1 X198.914 Y136.670 E0.01839
G1 X198.416 Y136.988 E0.01851
G1 X197.970 Y137.137 E0.01475
G1 X197.502 Y137.189 E0.01475
G1 X52.485 Y137.188 E4.54690
G1 X51.873 Y137.097 E0.01942
G1 X51.314 Y136.839 E0.01930
G1 X50.849 Y136.436 E0.01930
G1 X50.512 Y135.916 E0.01942
G1 X50.312 Y135.020 E0.02878
G1 X50.344 Y116.622 E0.57688
G1 X60.381 Y74.454 E1.35907
G1 X60.553 Y74.001 E0.01521
G1 X60.819 Y73.599 E0.01510
G1 X61.125 Y73.305 E0.01333
; PURGING FINISHED
G1 F8640
G1 X61.584 Y73.012 E-0.12556
G1 X62.030 Y72.863 E-0.10865
G1 X62.498 Y72.811 E-0.10865
G1 X64.304 Y72.811 E-0.41713
G1 E-0.04000 F2100.00000
G1 Z0.801 F10800.000
G1 X73.616 Y85.244
G1 Z0.202
G1 E0.80000 F2100.00000
G1 F1680
G1 X73.616 Y94.114 E0.27813
G1 X74.371 Y94.114 E0.02365
G1 X74.371 Y85.414 E0.27281
G1 X75.125 Y85.414 E0.02365
G1 X75.125 Y94.114 E0.27281
G1 X75.879 Y94.114 E0.02365
G1 X75.879 Y85.414 E0.27281
G1 X76.633 Y85.414 E0.02365
G1 X76.633 Y94.114 E0.27281
G1 X77.387 Y94.114 E0.02365
G1 X77.387 Y85.414 E0.27281
G1 X78.141 Y85.414 E0.02365
G1 X78.141 Y94.114 E0.27281
G1 X78.896 Y94.114 E0.02365
G1 X78.896 Y85.414 E0.27281
G1 X79.650 Y85.414 E0.02365
G1 X79.650 Y94.114 E0.27281
G1 X80.404 Y94.114 E0.02365
G1 X80.404 Y85.414 E0.27281
G1 X81.158 Y85.414 E0.02365
G1 X81.158 Y94.114 E0.27281
G1 X81.912 Y94.114 E0.02365
G1 X81.912 Y85.414 E0.27281
G1 X82.666 Y85.414 E0.02365
G1 X82.666 Y94.114 E0.27281
G1 X83.421 Y94.114 E0.02365
G1 X83.421 Y85.414 E0.27281
G1 X84.175 Y85.414 E0.02365
G1 X84.175 Y94.114 E0.27281
G1 X84.929 Y94.114 E0.02365
G1 X84.929 Y85.414 E0.27281
G1 X85.683 Y85.414 E0.02365
G1 X85.683 Y94.114 E0.27281
G1 X86.437 Y94.114 E0.02365
G1 X86.437 Y85.414 E0.27281
G1 X87.191 Y85.414 E0.02365
G1 X87.191 Y94.284 E0.27813
G1 F8640
G1 X87.191 Y90.993 E-0.76000
G1 E-0.04000 F2100.00000
G1 Z0.801 F10800.000
G1 X103.029 Y94.284
G1 Z0.202
G1 E0.80000 F2100.00000
G1 F1680
G1 X103.029 Y85.414 E0.27813
G1 X103.783 Y85.414 E0.02365
G1 X103.783 Y94.114 E0.27281
G1 X104.537 Y94.114 E0.02365
G1 X104.537 Y85.414 E0.27281
G1 X105.291 Y85.414 E0.02365
G1 X105.291 Y94.114 E0.27281
G1 X106.045 Y94.114 E0.02365
G1 X106.045 Y85.414 E0.27281
G1 X106.799 Y85.414 E0.02365
G1 X106.799 Y94.114 E0.27281
G1 X107.554 Y94.114 E0.02365
G1 X107.554 Y85.414 E0.27281
G1 X108.308 Y85.414 E0.02365
G1 X108.308 Y94.114 E0.27281
G1 X109.062 Y94.114 E0.02365
G1 X109.062 Y85.414 E0.27281
G1 X109.816 Y85.414 E0.02365
G1 X109.816 Y94.114 E0.27281
G1 X110.570 Y94.114 E0.02365
G1 X110.570 Y85.414 E0.27281
G1 X111.324 Y85.414 E0.02365
G1 X111.324 Y94.114 E0.27281
G1 X112.079 Y94.114 E0.02365
G1 X112.079 Y85.414 E0.27281
G1 X112.833 Y85.414 E0.02365
G1 X112.833 Y94.114 E0.27281
G1 X113.587 Y94.114 E0.02365
G1 X113.587 Y85.414 E0.27281
G1 X114.341 Y85.414 E0.02365
G1 X114.341 Y94.114 E0.27281
G1 X115.095 Y94.114 E0.02365
G1 X115.095 Y85.414 E0.27281
G1 X115.849 Y85.414 E0.02365
G1 X115.849 Y94.114 E0.27281
G1 X116.604 Y94.114 E0.02365
G1 X116.604 Y85.414 E0.27281
G1 X117.358 Y85.414 E0.02365
G1 X117.358 Y94.284 E0.27813
G1 F8640
G1 X117.358 Y90.993 E-0.76000
G1 E-0.04000 F2100.00000
G1 Z0.801 F10800.000
G1 X133.195 Y94.284
G1 Z0.202
G1 E0.80000 F2100.00000
G1 F1680
G1 X133.195 Y85.414 E0.27813
G1 X133.949 Y85.414 E0.02365
G1 X133.949 Y94.114 E0.27281
G1 X134.703 Y94.114 E0.02365
G1 X134.703 Y85.414 E0.27281
G1 X135.457 Y85.414 E0.02365
G1 X135.457 Y94.114 E0.27281
G1 X136.212 Y94.114 E0.02365
G1 X136.212 Y85.414 E0.27281
G1 X136.966 Y85.414 E0.02365
G1 X136.966 Y94.114 E0.27281
G1 X137.720 Y94.114 E0.02365
G1 X137.720 Y85.414 E0.27281
G1 X138.474 Y85.414 E0.02365
G1 X138.474 Y94.114 E0.27281
G1 X139.228 Y94.114 E0.02365
G1 X139.228 Y85.414 E0.27281
G1 X139.982 Y85.414 E0.02365
G1 X139.982 Y94.114 E0.27281
G1 X140.737 Y94.114 E0.02365
G1 X140.737 Y85.414 E0.27281
G1 X141.491 Y85.414 E0.02365
G1 X141.491 Y94.114 E0.27281
G1 X142.245 Y94.114 E0.02365
G1 X142.245 Y85.414 E0.27281
G1 X142.999 Y85.414 E0.02365
G1 X142.999 Y94.114 E0.27281
G1 X143.753 Y94.114 E0.02365
G1 X143.753 Y85.414 E0.27281
G1 X144.507 Y85.414 E0.02365
G1 X144.507 Y94.114 E0.27281
G1 X145.262 Y94.114 E0.02365
G1 X145.262 Y85.414 E0.27281
G1 X146.016 Y85.414 E0.02365
G1 X146.016 Y94.114 E0.27281
G1 X146.770 Y94.114 E0.02365
G1 X146.770 Y85.414 E0.27281
G1 X147.524 Y85.414 E0.02365
G1 X147.524 Y94.284 E0.27813
G1 F8640
G1 X147.524 Y90.993 E-0.76000
G1 E-0.04000 F2100.00000
G1 Z0.801 F10800.000
G1 X162.607 Y94.284
G1 Z0.202
G1 E0.80000 F2100.00000
G1 F1680
G1 X162.607 Y85.414 E0.27813
G1 X163.361 Y85.414 E0.02365
G1 X163.361 Y94.114 E0.27281
G1 X164.116 Y94.114 E0.02365
G1 X164.116 Y85.414 E0.27281
G1 X164.870 Y85.414 E0.02365
G1 X164.870 Y94.114 E0.27281
G1 X165.624 Y94.114 E0.02365
G1 X165.624 Y85.414 E0.27281
G1 X166.378 Y85.414 E0.02365
G1 X166.378 Y94.114 E0.27281
G1 X167.132 Y94.114 E0.02365
G1 X167.132 Y85.414 E0.27281
G1 X167.886 Y85.414 E0.02365
G1 X167.886 Y94.114 E0.27281
G1 X168.640 Y94.114 E0.02365
G1 X168.640 Y85.414 E0.27281
G1 X169.395 Y85.414 E0.02365
G1 X169.395 Y94.114 E0.27281
G1 X170.149 Y94.114 E0.02365
G1 X170.149 Y85.414 E0.27281
G1 X170.903 Y85.414 E0.02365
G1 X170.903 Y94.114 E0.27281
G1 X171.657 Y94.114 E0.02365
G1 X171.657 Y85.414 E0.27281
G1 X172.411 Y85.414 E0.02365
G1 X172.411 Y94.114 E0.27281
G1 X173.165 Y94.114 E0.02365
G1 X173.165 Y85.414 E0.27281
G1 X173.920 Y85.414 E0.02365
G1 X173.920 Y94.114 E0.27281
G1 X174.674 Y94.114 E0.02365
G1 X174.674 Y85.414 E0.27281
G1 X175.428 Y85.414 E0.02365
G1 X175.428 Y94.114 E0.27281
G1 X176.182 Y94.114 E0.02365
G1 X176.182 Y85.414 E0.27281
G1 X176.936 Y85.414 E0.02365
G1 X176.936 Y94.284 E0.27813
G1 F8640
G1 X176.936 Y90.993 E-0.76000
G1 E-0.04000 F2100.00000
G1 Z0.801 F10800.000
G1 X173.151 Y124.980
G1 Z0.202
G1 E0.80000 F2100.00000
G1 F1680
G1 X173.652 Y125.134 E0.01643
G1 X174.120 Y125.369 E0.01643
G1 X174.541 Y125.681 E0.01643
G1 X174.904 Y126.059 E0.01643
G1 X175.197 Y126.493 E0.01643
G1 X175.413 Y126.971 E0.01643
G1 X175.545 Y127.478 E0.01643
G1 X175.589 Y128.000 E0.01643
G1 X175.545 Y128.522 E0.01643
G1 X175.412 Y129.031 E0.01648
G1 X175.188 Y129.520 E0.01687
G1 X174.904 Y129.941 E0.01593
G1 X174.541 Y130.319 E0.01643
G1 X174.120 Y130.631 E0.01643
G1 X173.652 Y130.866 E0.01643
G1 X173.151 Y131.020 E0.01643
G1 X172.631 Y131.086 E0.01643
G1 X172.108 Y131.064 E0.01643
G1 X171.595 Y130.954 E0.01643
G1 X171.109 Y130.758 E0.01643
G1 X170.663 Y130.484 E0.01643
G1 X170.270 Y130.138 E0.01643
G1 X169.941 Y129.730 E0.01643
G1 X169.685 Y129.272 E0.01643
G1 X169.510 Y128.778 E0.01643
G1 X169.422 Y128.262 E0.01643
G1 X169.422 Y127.738 E0.01643
G1 X169.510 Y127.222 E0.01643
G1 X169.685 Y126.728 E0.01643
G1 X169.941 Y126.270 E0.01643
G1 X170.270 Y125.862 E0.01643
G1 X170.663 Y125.516 E0.01643
G1 X171.109 Y125.242 E0.01643
G1 X171.597 Y125.046 E0.01648
G1 X172.123 Y124.935 E0.01687
G1 X172.631 Y124.914 E0.01593
G1 X173.091 Y124.973 E0.01455
G1 X173.043 Y125.347 F10800.000
G1 F1680
G1 X173.511 Y125.485 E0.01528
G1 X173.921 Y125.692 E0.01442
G1 X174.291 Y125.965 E0.01442
G1 X174.609 Y126.297 E0.01442
G1 X174.867 Y126.678 E0.01442
G1 X175.056 Y127.097 E0.01442
G1 X175.172 Y127.542 E0.01442
G1 X175.211 Y128.000 E0.01442
G1 X175.172 Y128.458 E0.01442
G1 X175.056 Y128.904 E0.01443
G1 X174.858 Y129.334 E0.01485
G1 X174.609 Y129.703 E0.01395
G1 X174.291 Y130.035 E0.01442
G1 X173.921 Y130.308 E0.01442
G1 X173.511 Y130.515 E0.01442
G1 X173.071 Y130.650 E0.01442
G1 X172.615 Y130.708 E0.01442
G1 X172.156 Y130.689 E0.01442
G1 X171.706 Y130.592 E0.01442
G1 X171.280 Y130.421 E0.01442
G1 X170.888 Y130.179 E0.01442
G1 X170.543 Y129.876 E0.01442
G1 X170.254 Y129.518 E0.01442
G1 X170.030 Y129.117 E0.01442
G1 X169.877 Y128.683 E0.01442
G1 X169.799 Y128.230 E0.01442
G1 X169.799 Y127.770 E0.01442
G1 X169.877 Y127.317 E0.01442
G1 X170.030 Y126.883 E0.01442
G1 X170.254 Y126.482 E0.01442
G1 X170.543 Y126.124 E0.01442
G1 X170.888 Y125.821 E0.01442
G1 X171.280 Y125.579 E0.01442
G1 X171.707 Y125.408 E0.01443
G1 X172.170 Y125.311 E0.01485
G1 X172.615 Y125.292 E0.01395
G1 X172.984 Y125.339 E0.01166
G1 X173.310 Y125.048 F10800.000
G1 F8640
G1 X173.511 Y125.485 E-0.12621
G1 X173.921 Y125.692 E-0.10616
G1 X174.291 Y125.965 E-0.10616
G1 X174.609 Y126.297 E-0.10616
G1 X174.867 Y126.678 E-0.10616
G1 X175.056 Y127.097 E-0.10617
G1 X175.168 Y127.528 E-0.10297
G1 E-0.04000 F2100.00000
G1 Z0.801 F10800.000
G1 X80.589 Y128.000
G1 Z0.202
G1 E0.80000 F2100.00000
G1 F1680
G1 X80.545 Y128.522 E0.01643
G1 X80.413 Y129.029 E0.01643
G1 X80.197 Y129.507 E0.01643
G1 X79.904 Y129.941 E0.01643
G1 X79.541 Y130.319 E0.01643
G1 X79.120 Y130.631 E0.01643
G1 X78.652 Y130.866 E0.01643
G1 X78.151 Y131.020 E0.01643
G1 X77.631 Y131.086 E0.01643
G1 X77.108 Y131.064 E0.01643
G1 X76.595 Y130.954 E0.01643
G1 X76.109 Y130.758 E0.01643
G1 X75.663 Y130.484 E0.01643
G1 X75.270 Y130.138 E0.01643
G1 X74.941 Y129.730 E0.01643
G1 X74.685 Y129.272 E0.01643
G1 X74.510 Y128.778 E0.01643
G1 X74.422 Y128.262 E0.01643
G1 X74.422 Y127.736 E0.01648
G1 X74.516 Y127.207 E0.01687
G1 X74.685 Y126.728 E0.01593
G1 X74.941 Y126.270 E0.01643
G1 X75.270 Y125.862 E0.01643
G1 X75.663 Y125.516 E0.01643
G1 X76.109 Y125.242 E0.01643
G1 X76.597 Y125.046 E0.01648
G1 X77.123 Y124.935 E0.01687
G1 X77.631 Y124.914 E0.01593
G1 X78.151 Y124.980 E0.01643
G1 X78.652 Y125.134 E0.01643
G1 X79.120 Y125.369 E0.01643
G1 X79.541 Y125.681 E0.01643
G1 X79.905 Y126.060 E0.01648
G1 X80.203 Y126.508 E0.01687
G1 X80.413 Y126.971 E0.01593
G1 X80.545 Y127.478 E0.01643
G1 X80.584 Y127.940 E0.01455
G1 X80.208 Y127.972 F10800.000
G1 F1680
G1 X80.172 Y128.458 E0.01528
G1 X80.056 Y128.903 E0.01442
G1 X79.867 Y129.322 E0.01442
G1 X79.609 Y129.703 E0.01442
G1 X79.291 Y130.035 E0.01442
G1 X78.921 Y130.308 E0.01442
G1 X78.511 Y130.515 E0.01442
G1 X78.071 Y130.650 E0.01442
G1 X77.615 Y130.708 E0.01442
G1 X77.156 Y130.689 E0.01442
G1 X76.706 Y130.592 E0.01442
G1 X76.280 Y130.421 E0.01442
G1 X75.888 Y130.179 E0.01442
G1 X75.543 Y129.876 E0.01442
G1 X75.254 Y129.518 E0.01442
G1 X75.030 Y129.117 E0.01442
G1 X74.877 Y128.683 E0.01442
G1 X74.799 Y128.230 E0.01442
G1 X74.799 Y127.770 E0.01443
G1 X74.882 Y127.303 E0.01485
G1 X75.030 Y126.883 E0.01395
G1 X75.254 Y126.482 E0.01442
G1 X75.543 Y126.124 E0.01442
G1 X75.888 Y125.821 E0.01442
G1 X76.280 Y125.579 E0.01442
G1 X76.707 Y125.408 E0.01443
G1 X77.170 Y125.311 E0.01485
G1 X77.615 Y125.292 E0.01395
G1 X78.071 Y125.350 E0.01442
G1 X78.511 Y125.485 E0.01442
G1 X78.921 Y125.692 E0.01442
G1 X79.291 Y125.965 E0.01442
G1 X79.609 Y126.297 E0.01443
G1 X79.873 Y126.691 E0.01485
G1 X80.056 Y127.097 E0.01395
G1 X80.172 Y127.542 E0.01442
G1 X80.203 Y127.912 E0.01166
G1 X80.556 Y128.170 F10800.000
G1 F8640
G1 X80.172 Y128.458 E-0.12622
G1 X80.056 Y128.903 E-0.10616
G1 X79.867 Y129.322 E-0.10616
G1 X79.609 Y129.703 E-0.10616
G1 X79.291 Y130.035 E-0.10616
G1 X78.921 Y130.308 E-0.10616
G1 X78.523 Y130.509 E-0.10296
G1 E-0.04000 F2100.00000
G1 Z0.801 F10800.000
G1 X71.913 Y84.413
G1 Z0.202
G1 E0.80000 F2100.00000
G1 F1680
G1 X178.087 Y84.413 E3.32902
G1 X178.087 Y112.587 E0.88338
G1 X71.913 Y112.587 E3.32902
M73 Q0 S211
M73 P0 R210
G1 X71.913 Y84.473 E0.88150
G1 X72.290 Y84.790 F10800.000
G1 F1680
G1 X177.710 Y84.790 E3.30537
G1 X177.710 Y112.210 E0.85973
G1 X72.290 Y112.210 E3.30537
G1 X72.290 Y84.850 E0.85785
G1 X72.120 Y84.428 F10800.000
G1 F8640
G1 X75.581 Y84.848 E-0.76000
G1 E-0.04000 F2100.00000
G1 Z0.801 F10800.000
G1 X186.913 Y117.587
G1 Z0.202
G1 E0.80000 F2100.00000
G1 F1680
G1 X196.913 Y117.587 E0.31354
G1 X196.913 Y134.413 E0.52756
G1 X53.087 Y134.413 E4.50956
G1 X53.087 Y117.587 E0.52756
G1 X63.087 Y117.587 E0.31354
G1 X63.087 Y75.587 E1.31688
G1 X186.913 Y75.587 E3.88247
G1 X186.913 Y117.527 E1.31500
G1 X187.290 Y117.210 F10800.000
G1 F1680
G1 X197.290 Y117.210 E0.31354
G1 X197.290 Y134.790 E0.55121
G1 X52.710 Y134.790 E4.53320
G1 X52.710 Y117.210 E0.55121
G1 X62.710 Y117.210 E0.31354
G1 X62.710 Y75.210 E1.31688
G1 X187.290 Y75.210 E3.90612
G1 X187.290 Y117.150 E1.31500
G1 X187.451 Y117.576 F10800.000
G1 F8640
G1 X190.581 Y117.170 E-0.76000
G1 E-0.04000 F2100.00000
G1 Z0.801 F10800.000
G1 X196.800 Y118.509
G1 Z0.202
G1 E0.80000 F2100.00000
G1 F1680
G1 X196.160 Y117.870 E0.02840
G1 X195.626 Y117.870 E0.01677
G1 X196.630 Y118.874 E0.04459
G1 X196.630 Y119.408 E0.01677
G1 X195.092 Y117.870 E0.06831
G1 X194.558 Y117.870 E0.01677
G1 X196.630 Y119.942 E0.09203
G1 X196.630 Y120.476 E0.01677
G1 X194.024 Y117.870 E0.11575
G1 X193.490 Y117.870 E0.01677
G1 X196.630 Y121.010 E0.13947
G1 X196.630 Y121.544 E0.01677
G1 X192.956 Y117.870 E0.16318
G1 X192.422 Y117.870 E0.01677
G1 X196.630 Y122.078 E0.18690
G1 X196.630 Y122.613 E0.01677
G1 X191.887 Y117.870 E0.21062
G1 X191.353 Y117.870 E0.01677
G1 X196.630 Y123.147 E0.23434
G1 X196.630 Y123.681 E0.01677
G1 X190.819 Y117.870 E0.25806
G1 X190.285 Y117.870 E0.01677
G1 X196.630 Y124.215 E0.28178
G1 X196.630 Y124.749 E0.01677
G1 X189.751 Y117.870 E0.30550
G1 X189.217 Y117.870 E0.01677
G1 X196.630 Y125.283 E0.32922
G1 X196.630 Y125.817 E0.01677
G1 X188.683 Y117.870 E0.35294
G1 X188.149 Y117.870 E0.01677
G1 X196.630 Y126.351 E0.37666
G1 X196.630 Y126.885 E0.01677
G1 X187.615 Y117.870 E0.40038
G1 X187.081 Y117.870 E0.01677
G1 X196.800 Y127.589 E0.43163
G1 F8640
G1 X194.472 Y125.262 E-0.76000
G1 E-0.04000 F2100.00000
G1 Z0.801 F10800.000
G1 X182.681 Y134.300
G1 Z0.202
G1 E0.80000 F2100.00000
G1 F1680
G1 X175.826 Y127.445 E0.30443
G1 X175.871 Y128.024 E0.01825
G1 X181.977 Y134.130 E0.27117
G1 X181.443 Y134.130 E0.01677
G1 X175.829 Y128.516 E0.24931
G1 X175.726 Y128.948 E0.01392
G1 X180.909 Y134.130 E0.23016
G1 X180.375 Y134.130 E0.01677
G1 X175.583 Y129.338 E0.21282
G1 X175.409 Y129.698 E0.01256
G1 X179.841 Y134.130 E0.19682
G1 X179.307 Y134.130 E0.01677
G1 X175.193 Y130.017 E0.18267
G1 X175.124 Y130.119 E0.00387
G1 X174.947 Y130.304 E0.00806
G1 X178.772 Y134.130 E0.16990
G1 X178.238 Y134.130 E0.01677
G1 X174.678 Y130.570 E0.15813
G1 X174.371 Y130.797 E0.01199
G1 X177.704 Y134.130 E0.14804
G1 X177.170 Y134.130 E0.01677
G1 X174.032 Y130.992 E0.13938
G1 X173.758 Y131.130 E0.00964
G1 X173.664 Y131.158 E0.00307
G1 X176.636 Y134.130 E0.13198
G1 X176.102 Y134.130 E0.01677
G1 X173.255 Y131.284 E0.12642
G1 X172.789 Y131.351 E0.01480
G1 X175.568 Y134.130 E0.12341
G1 X175.034 Y134.130 E0.01677
G1 X172.257 Y131.354 E0.12331
G1 X172.072 Y131.346 E0.00583
