; generated by Slic3r Prusa Edition 1.41.0+win64 on 2018-11-04 at 10:07:29

; 

; external perimeters extrusion width = 0.45mm
; perimeters extrusion width = 0.45mm
; infill extrusion width = 0.45mm
; solid infill extrusion width = 0.45mm
; top infill extrusion width = 0.40mm
; first layer extrusion width = 0.42mm

M201 X1000 Y1000 Z1000 E5000 ; sets maximum accelerations, mm/sec^2
M203 X200 Y200 Z12 E120 ; sets maximum feedrates, mm/sec
M204 P1250 R1250 T1250 ; sets acceleration (P, T) and retract acceleration (R), mm/sec^2
M205 X8.00 Y8.00 Z0.40 E1.50 ; sets the jerk limits, mm/sec
M205 S0 T0 ; sets the minimum extruding and travel feed rate, mm/sec
M107
M115 U3.4.1 ; tell printer latest fw version
M83  ; extruder relative mode
M104 S215 ; set extruder temp
M140 S60 ; set bed temp
M190 S60 ; wait for bed temp
M109 S215 ; wait for extruder temp
G28 W ; home all without mesh bed level
G80 ; mesh bed leveling
G1 Y-3.0 F1000.0 ; go outside print area
G92 E0.0
G1 X60.0 E9.0  F1000.0 ; intro line
M73 Q0 S45
M73 P0 R45
G1 X100.0 E12.5  F1000.0 ; intro line
G92 E0.0
M221 S95
M900 K30; Filament gcode
G21 ; set units to millimeters
G90 ; use absolute coordinates
M83 ; use relative distances for extrusion
;BEFORE_LAYER_CHANGE
G92 E0.0
;0.2


G1 Z0.200 F10800.000
;AFTER_LAYER_CHANGE
;0.2
G1 E-0.80000 F2100.00000
G1 Z0.800 F10800.000
G1 X58.520 Y60.972
G1 Z0.200
G1 E0.80000 F2100.00000
M204 S1000
G1 F1920
G1 X62.286 Y58.142 E0.14773
G1 X66.591 Y56.330 E0.14646
G1 X70.631 Y55.367 E0.13020
G1 X71.540 Y55.272 E0.02866
G1 X75.789 Y55.383 E0.13326
G1 X80.372 Y56.281 E0.14644
G1 X84.565 Y58.244 E0.14516
G1 X88.392 Y60.922 E0.14645
G1 X91.448 Y64.441 E0.14613
G1 X93.840 Y68.410 E0.14532
G1 X95.210 Y72.870 E0.14628
G1 X95.770 Y77.135 E0.13487
G1 X95.764 Y78.008 E0.02738
G1 X95.229 Y82.121 E0.13004
G1 X93.890 Y86.559 E0.14533
G1 X91.475 Y90.604 E0.14772
G1 X88.729 Y93.821 E0.13261
G1 X88.037 Y94.448 E0.02930
G1 X84.645 Y96.791 E0.12925
G1 X80.779 Y98.642 E0.13438
G1 X79.886 Y98.933 E0.02946
G1 X75.702 Y99.708 E0.13342
G1 X71.535 Y99.810 E0.13069
G1 X70.601 Y99.708 E0.02946
G1 X66.445 Y98.704 E0.13406
G1 X62.636 Y97.116 E0.12939
G1 X61.820 Y96.639 E0.02962
G1 X58.474 Y94.068 E0.13230
G1 X55.268 Y90.609 E0.14788
G1 X53.036 Y86.541 E0.14549
G1 X51.659 Y82.629 E0.13004
G1 X51.466 Y81.694 E0.02994
G1 X51.137 Y77.497 E0.13198
G1 X51.553 Y72.840 E0.14659
G1 X53.069 Y68.466 E0.14517
G1 X55.380 Y64.319 E0.14884
G1 X58.479 Y61.016 E0.14200
G1 X58.770 Y61.285 F10800.000
G1 F1920
G1 X58.929 Y61.114 E0.00733
G1 X61.271 Y59.412 E0.09079
G1 X61.430 Y59.216 E0.00790
G1 X61.851 Y58.847 E0.01755
G1 X62.853 Y58.249 E0.03657
G1 X63.522 Y58.001 E0.02239
G1 X63.806 Y57.954 E0.00902
G1 X66.863 Y56.639 E0.10435
G1 X69.696 Y56.037 E0.09080
G1 X69.922 Y55.923 E0.00793
G1 X70.483 Y55.752 E0.01839
G1 X72.136 Y55.633 E0.05197
G1 X72.609 Y55.736 E0.01518
G1 X75.888 Y55.774 E0.10283
G1 X78.761 Y56.381 E0.09206
G1 X79.014 Y56.368 E0.00793
G1 X79.569 Y56.434 E0.01753
G1 X80.685 Y56.778 E0.03662
G1 X81.318 Y57.110 E0.02241
G1 X81.541 Y57.287 E0.00893
G1 X84.528 Y58.660 E0.10308
G1 X86.906 Y60.383 E0.09206
G1 X87.142 Y60.474 E0.00793
G1 X87.623 Y60.759 E0.01753
G1 X88.502 Y61.528 E0.03662
G1 X88.945 Y62.088 E0.02240
G1 X89.075 Y62.337 E0.00880
G1 X91.132 Y64.649 E0.09700
G1 X92.717 Y67.350 E0.09821
G1 X92.915 Y67.552 E0.00885
G1 X93.311 Y68.146 E0.02238
G1 X93.769 Y69.218 E0.03657
G1 X93.893 Y69.764 E0.01755
G1 X93.907 Y70.015 E0.00789
G1 X94.801 Y72.769 E0.09079
G1 X95.192 Y76.074 E0.10435
G1 X95.292 Y76.344 E0.00902
G1 X95.413 Y77.048 E0.02239
G1 X95.395 Y78.214 E0.03657
G1 X95.286 Y78.763 E0.01755
G1 X95.197 Y78.998 E0.00789
G1 X94.894 Y81.878 E0.09079
G1 X93.906 Y85.056 E0.10435
G1 X93.888 Y85.343 E0.00902
G1 X93.712 Y86.035 E0.02239
G1 X93.222 Y87.093 E0.03657
G1 X92.899 Y87.551 E0.01755
G1 X92.721 Y87.729 E0.00790
G1 X91.273 Y90.237 E0.09079
G1 X89.080 Y92.736 E0.10425
G1 X88.965 Y92.965 E0.00804
G1 X88.653 Y93.389 E0.01652
G1 X87.632 Y94.316 E0.04322
G1 X87.144 Y94.607 E0.01782
G1 X86.909 Y94.698 E0.00792
G1 X84.566 Y96.400 E0.09079
G1 X81.546 Y97.791 E0.10426
G1 X81.347 Y97.954 E0.00806
G1 X80.923 Y98.200 E0.01537
G1 X79.525 Y98.657 E0.04612
G1 X78.999 Y98.714 E0.01657
G1 X78.749 Y98.700 E0.00786
G1 X75.490 Y99.349 E0.10419
G1 X72.594 Y99.349 E0.09079
G1 X72.350 Y99.414 E0.00792
G1 X71.784 Y99.465 E0.01781
G1 X70.377 Y99.308 E0.04440
G1 X69.913 Y99.156 E0.01532
G1 X69.684 Y99.038 E0.00806
G1 X66.441 Y98.305 E0.10425
G1 X63.795 Y97.128 E0.09079
G1 X63.546 Y97.087 E0.00793
G1 X63.003 Y96.902 E0.01797
G1 X61.729 Y96.143 E0.04652
G1 X61.404 Y95.839 E0.01394
G1 X61.260 Y95.657 E0.00728
G1 X58.598 Y93.671 E0.10412
G1 X56.661 Y91.519 E0.09079
G1 X56.450 Y91.381 E0.00789
G1 X56.039 Y91.001 E0.01755
G1 X55.340 Y90.068 E0.03657
G1 X55.023 Y89.428 E0.02239
G1 X54.946 Y89.151 E0.00902
G1 X53.319 Y86.248 E0.10435
G1 X52.424 Y83.494 E0.09079
G1 X52.287 Y83.281 E0.00793
G1 X52.062 Y82.754 E0.01797
G1 X51.774 Y81.299 E0.04652
G1 X51.782 Y80.854 E0.01394
G1 X51.821 Y80.625 E0.00728
G1 X51.516 Y77.319 E0.10412
G1 X51.819 Y74.439 E0.09079
G1 X51.780 Y74.190 E0.00790
G1 X51.787 Y73.630 E0.01755
G1 X52.013 Y72.486 E0.03657
G1 X52.277 Y71.823 E0.02239
G1 X52.431 Y71.580 E0.00902
G1 X53.500 Y68.428 E0.10435
G1 X54.948 Y65.921 E0.09079
G1 X55.014 Y65.678 E0.00790
G1 X55.248 Y65.169 E0.01755
G1 X55.920 Y64.216 E0.03657
G1 X56.431 Y63.717 E0.02239
G1 X56.670 Y63.558 E0.00902
G1 X58.729 Y61.329 E0.09514
G1 X59.004 Y61.583 F10800.000
G1 F1920
G1 X59.166 Y61.408 E0.00747
G1 X61.536 Y59.686 E0.09185
G1 X61.693 Y59.488 E0.00792
G1 X62.087 Y59.142 E0.01643
G1 X63.029 Y58.583 E0.03438
G1 X63.633 Y58.362 E0.02013
G1 X63.910 Y58.320 E0.00880
G1 X66.960 Y57.004 E0.10415
G1 X69.826 Y56.395 E0.09186
G1 X70.052 Y56.277 E0.00801
G1 X70.534 Y56.126 E0.01583
G1 X72.084 Y56.008 E0.04872
G1 X72.567 Y56.112 E0.01551
G1 X75.829 Y56.147 E0.10228
G1 X78.734 Y56.761 E0.09312
G1 X78.990 Y56.745 E0.00802
G1 X79.475 Y56.799 E0.01532
G1 X80.557 Y57.133 E0.03548
G1 X81.124 Y57.434 E0.02012
G1 X81.339 Y57.609 E0.00872
G1 X84.322 Y58.976 E0.10289
G1 X86.727 Y60.719 E0.09312
G1 X86.967 Y60.808 E0.00802
G1 X87.388 Y61.055 E0.01532
G1 X88.241 Y61.800 E0.03548
G1 X88.636 Y62.305 E0.02012
G1 X88.760 Y62.550 E0.00862
G1 X90.837 Y64.885 E0.09799
G1 X92.417 Y67.584 E0.09805
G1 X92.613 Y67.779 E0.00867
G1 X92.972 Y68.311 E0.02013
G1 X93.405 Y69.318 E0.03438
G1 X93.521 Y69.829 E0.01643
G1 X93.532 Y70.082 E0.00792
G1 X94.437 Y72.868 E0.09185
G1 X94.823 Y76.167 E0.10416
G1 X94.925 Y76.429 E0.00880
G1 X95.035 Y77.061 E0.02013
G1 X95.022 Y78.157 E0.03437
G1 X94.920 Y78.671 E0.01643
G1 X94.827 Y78.906 E0.00792
G1 X94.521 Y81.820 E0.09185
G1 X93.531 Y84.991 E0.10416
G1 X93.518 Y85.271 E0.00880
G1 X93.362 Y85.894 E0.02013
G1 X92.904 Y86.890 E0.03438
G1 X92.601 Y87.318 E0.01643
G1 X92.421 Y87.495 E0.00792
G1 X90.956 Y90.032 E0.09185
G1 X88.764 Y92.525 E0.10410
G1 X88.649 Y92.758 E0.00814
G1 X88.384 Y93.125 E0.01419
G1 X87.422 Y94.002 E0.04081
G1 X86.967 Y94.274 E0.01664
G1 X86.730 Y94.362 E0.00793
G1 X84.360 Y96.084 E0.09185
G1 X81.342 Y97.470 E0.10411
G1 X81.143 Y97.636 E0.00814
G1 X80.750 Y97.864 E0.01422
G1 X79.464 Y98.284 E0.04243
G1 X78.976 Y98.337 E0.01540
G1 X78.725 Y98.320 E0.00789
G1 X75.471 Y98.972 E0.10406
G1 X72.542 Y98.972 E0.09185
G1 X72.298 Y99.040 E0.00793
G1 X71.769 Y99.088 E0.01664
G1 X70.476 Y98.943 E0.04081
G1 X70.046 Y98.802 E0.01419
G1 X69.816 Y98.681 E0.00814
G1 X66.577 Y97.953 E0.10410
G1 X63.901 Y96.762 E0.09185
G1 X63.650 Y96.725 E0.00794
G1 X63.144 Y96.551 E0.01678
G1 X61.972 Y95.853 E0.04278
G1 X61.673 Y95.574 E0.01281
G1 X61.527 Y95.386 E0.00749
G1 X58.866 Y93.405 E0.10401
G1 X56.906 Y91.228 E0.09185
G1 X56.693 Y91.092 E0.00792
G1 X56.308 Y90.736 E0.01643
G1 X55.653 Y89.857 E0.03438
G1 X55.371 Y89.281 E0.02013
G1 X55.299 Y89.009 E0.00880
G1 X53.672 Y86.113 E0.10415
G1 X52.767 Y83.327 E0.09185
G1 X52.627 Y83.116 E0.00794
G1 X52.417 Y82.624 E0.01678
G1 X52.151 Y81.286 E0.04278
G1 X52.159 Y80.877 E0.01281
G1 X52.201 Y80.642 E0.00749
G1 X51.893 Y77.339 E0.10401
G1 X52.199 Y74.426 E0.09185
G1 X52.157 Y74.177 E0.00792
G1 X52.164 Y73.653 E0.01643
G1 X52.379 Y72.578 E0.03438
G1 X52.619 Y71.982 E0.02013
G1 X52.773 Y71.748 E0.00880
G1 X53.836 Y68.601 E0.10415
G1 X55.301 Y66.064 E0.09185
G1 X55.364 Y65.819 E0.00792
G1 X55.583 Y65.343 E0.01643
G1 X56.217 Y64.448 E0.03438
G1 X56.678 Y64.002 E0.02013
G1 X56.914 Y63.850 E0.00880
G1 X58.963 Y61.627 E0.09481
G1 X59.239 Y61.880 F10800.000
G1 F1920
G1 X59.402 Y61.702 E0.00759
G1 X61.802 Y59.958 E0.09300
G1 X61.958 Y59.757 E0.00798
G1 X62.295 Y59.457 E0.01415
G1 X63.206 Y58.916 E0.03321
G1 X63.740 Y58.724 E0.01779
G1 X64.011 Y58.687 E0.00859
G1 X67.057 Y57.369 E0.10405
G1 X69.958 Y56.752 E0.09300
G1 X70.184 Y56.631 E0.00803
G1 X70.627 Y56.492 E0.01457
G1 X72.031 Y56.382 E0.04416
G1 X72.525 Y56.489 E0.01585
G1 X75.769 Y56.520 E0.10173
G1 X78.711 Y57.141 E0.09426
G1 X78.967 Y57.122 E0.00805
G1 X79.415 Y57.172 E0.01415
G1 X80.427 Y57.487 E0.03321
G1 X80.926 Y57.756 E0.01779
G1 X81.134 Y57.931 E0.00852
G1 X84.116 Y59.292 E0.10278
G1 X86.551 Y61.057 E0.09426
G1 X86.793 Y61.143 E0.00806
G1 X87.182 Y61.371 E0.01416
G1 X87.978 Y62.071 E0.03321
G1 X88.325 Y62.519 E0.01778
G1 X88.443 Y62.761 E0.00845
G1 X90.521 Y65.092 E0.09792
G1 X92.119 Y67.821 E0.09913
G1 X92.313 Y68.009 E0.00848
G1 X92.633 Y68.478 E0.01779
G1 X93.052 Y69.450 E0.03321
G1 X93.149 Y69.891 E0.01415
G1 X93.156 Y70.146 E0.00798
G1 X94.073 Y72.966 E0.09299
G1 X94.454 Y76.263 E0.10405
G1 X94.557 Y76.517 E0.00859
G1 X94.658 Y77.075 E0.01779
G1 X94.645 Y78.134 E0.03321
G1 X94.554 Y78.576 E0.01415
G1 X94.458 Y78.812 E0.00798
G1 X94.148 Y81.762 E0.09299
G1 X93.156 Y84.928 E0.10405
G1 X93.147 Y85.202 E0.00859
G1 X93.011 Y85.753 E0.01779
G1 X92.569 Y86.716 E0.03321
G1 X92.306 Y87.083 E0.01415
G1 X92.122 Y87.259 E0.00798
G1 X90.639 Y89.827 E0.09299
G1 X88.445 Y92.316 E0.10403
G1 X88.333 Y92.552 E0.00819
G1 X88.090 Y92.887 E0.01299
G1 X87.184 Y93.709 E0.03834
G1 X86.793 Y93.939 E0.01423
G1 X86.553 Y94.025 E0.00799
G1 X84.153 Y95.768 E0.09300
G1 X81.137 Y97.150 E0.10403
G1 X80.938 Y97.319 E0.00819
G1 X80.579 Y97.527 E0.01301
G1 X79.368 Y97.919 E0.03989
G1 X78.957 Y97.960 E0.01295
G1 X78.703 Y97.940 E0.00799
G1 X75.452 Y98.595 E0.10399
G1 X72.486 Y98.595 E0.09299
G1 X72.242 Y98.667 E0.00799
G1 X71.790 Y98.711 E0.01423
G1 X70.574 Y98.579 E0.03834
G1 X70.181 Y98.450 E0.01299
G1 X69.951 Y98.325 E0.00819
G1 X66.713 Y97.601 E0.10403
G1 X64.004 Y96.395 E0.09299
G1 X63.751 Y96.361 E0.00799
G1 X63.318 Y96.216 E0.01432
G1 X62.214 Y95.564 E0.04020
G1 X61.944 Y95.311 E0.01161
G1 X61.796 Y95.116 E0.00767
G1 X59.134 Y93.138 E0.10398
G1 X57.149 Y90.934 E0.09299
G1 X56.932 Y90.801 E0.00798
G1 X56.599 Y90.496 E0.01415
G1 X55.966 Y89.647 E0.03321
G1 X55.720 Y89.136 E0.01779
G1 X55.654 Y88.870 E0.00859
G1 X54.025 Y85.979 E0.10405
G1 X53.108 Y83.158 E0.09299
G1 X52.965 Y82.947 E0.00799
G1 X52.782 Y82.529 E0.01432
G1 X52.528 Y81.272 E0.04020
G1 X52.536 Y80.902 E0.01161
G1 X52.582 Y80.661 E0.00767
G1 X52.270 Y77.360 E0.10397
G1 X52.580 Y74.410 E0.09299
G1 X52.534 Y74.160 E0.00798
G1 X52.537 Y73.709 E0.01415
G1 X52.745 Y72.670 E0.03321
G1 X52.960 Y72.145 E0.01779
G1 X53.113 Y71.918 E0.00859
G1 X54.172 Y68.773 E0.10405
G1 X55.655 Y66.204 E0.09299
G1 X55.715 Y65.957 E0.00798
G1 X55.902 Y65.546 E0.01415
G1 X56.514 Y64.681 E0.03321
G1 X56.923 Y64.289 E0.01779
G1 X57.156 Y64.144 E0.00859
G1 X59.198 Y61.924 E0.09457
G1 X59.473 Y62.177 F10800.000
G1 F1920
G1 X59.639 Y61.995 E0.00771
G1 X62.071 Y60.229 E0.09424
G1 X62.223 Y60.025 E0.00798
G1 X62.532 Y59.751 E0.01292
G1 X63.381 Y59.251 E0.03091
G1 X63.844 Y59.087 E0.01540
G1 X64.110 Y59.055 E0.00840
G1 X67.154 Y57.734 E0.10404
G1 X70.094 Y57.109 E0.09424
G1 X70.317 Y56.985 E0.00800
G1 X70.720 Y56.858 E0.01325
G1 X71.987 Y56.757 E0.03987
G1 X72.317 Y56.820 E0.01054
G1 X72.451 Y56.865 E0.00441
G1 X75.710 Y56.893 E0.10220
G1 X78.690 Y57.522 E0.09549
G1 X78.945 Y57.499 E0.00805
G1 X79.355 Y57.545 E0.01292
G1 X80.295 Y57.841 E0.03091
G1 X80.726 Y58.076 E0.01539
G1 X80.927 Y58.250 E0.00834
G1 X83.910 Y59.609 E0.10278
G1 X86.377 Y61.396 E0.09550
G1 X86.620 Y61.479 E0.00805
G1 X86.975 Y61.687 E0.01292
G1 X87.714 Y62.340 E0.03091
G1 X88.012 Y62.730 E0.01539
G1 X88.124 Y62.969 E0.00828
G1 X90.227 Y65.329 E0.09912
G1 X91.822 Y68.060 E0.09916
G1 X92.016 Y68.241 E0.00832
G1 X92.294 Y68.645 E0.01539
G1 X92.687 Y69.549 E0.03091
G1 X92.776 Y69.952 E0.01292
G1 X92.779 Y70.207 E0.00798
G1 X93.708 Y73.065 E0.09424
G1 X94.086 Y76.362 E0.10405
G1 X94.191 Y76.608 E0.00840
G1 X94.281 Y77.091 E0.01539
G1 X94.272 Y78.077 E0.03091
G1 X94.189 Y78.480 E0.01292
G1 X94.089 Y78.714 E0.00798
G1 X93.775 Y81.703 E0.09424
G1 X92.779 Y84.869 E0.10405
G1 X92.775 Y85.137 E0.00840
G1 X92.660 Y85.614 E0.01540
G1 X92.252 Y86.511 E0.03091
G1 X92.012 Y86.846 E0.01292
G1 X91.825 Y87.019 E0.00798
G1 X90.322 Y89.622 E0.09423
G1 X88.125 Y92.109 E0.10405
G1 X88.016 Y92.347 E0.00821
G1 X87.796 Y92.650 E0.01176
G1 X86.977 Y93.394 E0.03468
G1 X86.620 Y93.603 E0.01298
G1 X86.379 Y93.685 E0.00798
G1 X83.947 Y95.452 E0.09424
G1 X80.928 Y96.830 E0.10405
G1 X80.732 Y97.003 E0.00821
G1 X80.407 Y97.191 E0.01176
G1 X79.311 Y97.546 E0.03613
G1 X78.940 Y97.583 E0.01170
G1 X78.685 Y97.559 E0.00803
G1 X75.433 Y98.218 E0.10402
G1 X72.428 Y98.218 E0.09424
G1 X72.184 Y98.294 E0.00798
G1 X71.773 Y98.334 E0.01298
G1 X70.673 Y98.214 E0.03468
G1 X70.317 Y98.098 E0.01176
G1 X70.088 Y97.969 E0.00821
G1 X66.849 Y97.249 E0.10405
G1 X64.103 Y96.027 E0.09423
G1 X63.851 Y95.996 E0.00798
G1 X63.456 Y95.865 E0.01304
G1 X62.457 Y95.274 E0.03639
G1 X62.215 Y95.048 E0.01038
G1 X62.067 Y94.847 E0.00783
G1 X59.401 Y92.872 E0.10402
G1 X57.390 Y90.638 E0.09424
G1 X57.171 Y90.508 E0.00798
G1 X56.867 Y90.230 E0.01292
G1 X56.281 Y89.438 E0.03091
G1 X56.070 Y88.994 E0.01539
G1 X56.010 Y88.733 E0.00840
G1 X54.378 Y85.844 E0.10404
G1 X53.449 Y82.986 E0.09424
G1 X53.302 Y82.778 E0.00798
G1 X53.136 Y82.396 E0.01304
G1 X52.906 Y81.259 E0.03639
G1 X52.912 Y80.928 E0.01038
G1 X52.962 Y80.683 E0.00783
G1 X52.647 Y77.381 E0.10402
G1 X52.961 Y74.392 E0.09424
G1 X52.911 Y74.142 E0.00798
G1 X52.914 Y73.730 E0.01292
G1 X53.111 Y72.764 E0.03091
G1 X53.299 Y72.310 E0.01539
G1 X53.453 Y72.091 E0.00840
G1 X54.508 Y68.945 E0.10405
G1 X56.011 Y66.342 E0.09423
G1 X56.067 Y66.094 E0.00798
G1 X56.237 Y65.718 E0.01292
G1 X56.810 Y64.916 E0.03091
G1 X57.166 Y64.578 E0.01539
G1 X57.396 Y64.440 E0.00840
G1 X59.433 Y62.221 E0.09446
G1 X59.708 Y62.473 F10800.000
G1 F1920
G1 X59.877 Y62.289 E0.00781
G1 X62.343 Y60.497 E0.09558
G1 X62.493 Y60.290 E0.00804
G1 X62.740 Y60.066 E0.01045
G1 X63.555 Y59.586 E0.02967
G1 X63.944 Y59.452 E0.01289
G1 X64.205 Y59.425 E0.00823
G1 X67.251 Y58.099 E0.10416
G1 X70.233 Y57.465 E0.09558
G1 X70.455 Y57.336 E0.00805
G1 X70.775 Y57.232 E0.01055
G1 X71.942 Y57.132 E0.03674
G1 X72.230 Y57.187 E0.00919
G1 X72.382 Y57.242 E0.00504
G1 X75.651 Y57.266 E0.10250
G1 X78.672 Y57.904 E0.09684
G1 X78.929 Y57.876 E0.00809
G1 X79.261 Y57.910 E0.01045
G1 X80.163 Y58.195 E0.02967
G1 X80.523 Y58.394 E0.01289
G1 X80.716 Y58.569 E0.00817
G1 X83.705 Y59.925 E0.10291
G1 X86.205 Y61.738 E0.09684
G1 X86.451 Y61.817 E0.00809
G1 X86.740 Y61.983 E0.01046
G1 X87.449 Y62.610 E0.02967
G1 X87.697 Y62.938 E0.01289
G1 X87.802 Y63.175 E0.00814
G1 X89.911 Y65.536 E0.09926
G1 X91.527 Y68.303 E0.10048
G1 X91.721 Y68.477 E0.00817
G1 X91.956 Y68.814 E0.01289
G1 X92.334 Y69.681 E0.02967
G1 X92.402 Y70.008 E0.01045
G1 X92.401 Y70.264 E0.00804
G1 X93.344 Y73.163 E0.09558
G1 X93.718 Y76.464 E0.10416
G1 X93.825 Y76.704 E0.00823
G1 X93.904 Y77.107 E0.01289
G1 X93.895 Y78.053 E0.02967
G1 X93.825 Y78.379 E0.01045
G1 X93.720 Y78.613 E0.00804
G1 X93.402 Y81.645 E0.09558
G1 X92.401 Y84.813 E0.10416
G1 X92.402 Y85.075 E0.00823
G1 X92.309 Y85.476 E0.01289
G1 X91.917 Y86.337 E0.02967
G1 X91.720 Y86.606 E0.01045
G1 X91.529 Y86.777 E0.00804
G1 X90.005 Y89.417 E0.09558
G1 X87.803 Y91.904 E0.10417
G1 X87.697 Y92.143 E0.00819
G1 X87.502 Y92.413 E0.01044
G1 X86.740 Y93.099 E0.03216
G1 X86.451 Y93.265 E0.01044
