; generated by Slic3r Prusa Edition 1.41.0+win64 on 2018-11-04 at 10:09:46

; 

; external perimeters extrusion width = 0.45mm
; perimeters extrusion width = 0.45mm
; infill extrusion width = 0.45mm
; solid infill extrusion width = 0.45mm
; top infill extrusion width = 0.40mm
; first layer extrusion width = 0.42mm

M201 X1000 Y1000 Z1000 E5000 ; sets maximum accelerations, mm/sec^2
M203 X200 Y200 Z12 E120 ; sets maximum feedrates, mm/sec
M204 P1250 R1250 T1250 ; sets acceleration (P, T) and retract acceleration (R), mm/sec^2
M205 X8.00 Y8.00 Z0.40 E1.50 ; sets the jerk limits, mm/sec
M205 S0 T0 ; sets the minimum extruding and travel feed rate, mm/sec
M107
M115 U3.4.1 ; tell printer latest fw version
M83  ; extruder relative mode
M104 S215 ; set extruder temp
M140 S60 ; set bed temp
M190 S60 ; wait for bed temp
M109 S215 ; wait for extruder temp
G28 W ; home all without mesh bed level
G80 ; mesh bed leveling
G1 Y-3.0 F1000.0 ; go outside print area
G92 E0.0
G1 X60.0 E9.0  F1000.0 ; intro line
M73 Q0 S69
M73 P0 R68
G1 X100.0 E12.5  F1000.0 ; intro line
G92 E0.0
M221 S95
M900 K30; Filament gcode
G21 ; set units to millimeters
G90 ; use absolute coordinates
M83 ; use relative distances for extrusion
;BEFORE_LAYER_CHANGE
G92 E0.0
;0.2


G1 Z0.200 F10800.000
;AFTER_LAYER_CHANGE
;0.2
G1 E-0.80000 F2100.00000
G1 Z0.800 F10800.000
G1 X45.090 Y55.041
G1 Z0.200
G1 E0.80000 F2100.00000
M204 S1000
G1 F1500
G1 X50.157 Y51.359 E0.19639
G1 X56.126 Y48.665 E0.20535
G1 X62.251 Y47.359 E0.19638
G1 X68.470 Y47.305 E0.19499
G1 X69.174 Y47.376 E0.02220
G1 X74.938 Y48.618 E0.18485
G1 X75.583 Y48.846 E0.02145
G1 X80.941 Y51.248 E0.18412
G1 X86.031 Y54.938 E0.19711
G1 X90.235 Y59.527 E0.19513
G1 X90.650 Y60.094 E0.02205
G1 X93.577 Y65.196 E0.18442
G1 X95.561 Y71.119 E0.19586
G1 X95.709 Y71.797 E0.02176
G1 X96.291 Y77.341 E0.17477
G1 X96.293 Y78.346 E0.03151
G1 X95.647 Y84.271 E0.18688
G1 X93.847 Y89.861 E0.18412
G1 X93.579 Y90.505 E0.02189
G1 X90.452 Y95.910 E0.19579
G1 X86.034 Y100.764 E0.20580
G1 X80.978 Y104.436 E0.19594
G1 X75.256 Y106.984 E0.19638
G1 X68.857 Y108.379 E0.20535
G1 X62.608 Y108.384 E0.19594
G1 X61.920 Y108.294 E0.02174
G1 X56.166 Y107.054 E0.18455
G1 X50.455 Y104.517 E0.19594
G1 X49.859 Y104.154 E0.02188
G1 X45.118 Y100.689 E0.18412
G1 X41.127 Y96.293 E0.18616
G1 X40.525 Y95.465 E0.03210
G1 X37.736 Y90.634 E0.17492
G1 X37.458 Y90.003 E0.02161
G1 X35.580 Y84.045 E0.19587
G1 X34.950 Y78.197 E0.18441
G1 X34.950 Y77.513 E0.02147
G1 X35.655 Y71.310 E0.19572
G1 X37.595 Y65.350 E0.19652
G1 X40.899 Y59.695 E0.20536
G1 X45.049 Y55.086 E0.19449
G1 X45.328 Y55.336 F10800.000
G1 F1500
G1 X50.345 Y51.686 E0.19455
G1 X56.245 Y49.023 E0.20295
G1 X62.293 Y47.733 E0.19391
G1 X68.470 Y47.682 E0.19366
G1 X69.101 Y47.746 E0.01989
G1 X74.824 Y48.978 E0.18356
G1 X80.760 Y51.579 E0.20319
G1 X85.780 Y55.220 E0.19446
G1 X89.954 Y59.779 E0.19380
G1 X90.326 Y60.287 E0.01975
G1 X93.236 Y65.356 E0.18328
G1 X95.202 Y71.235 E0.19435
G1 X95.334 Y71.842 E0.01947
G1 X95.916 Y77.379 E0.17458
G1 X95.918 Y78.310 E0.02917
G1 X95.279 Y84.188 E0.18539
G1 X93.238 Y90.346 E0.20342
G1 X90.147 Y95.689 E0.19354
G1 X85.782 Y100.483 E0.20328
G1 X80.788 Y104.110 E0.19354
G1 X75.139 Y106.625 E0.19386
G1 X68.815 Y108.004 E0.20296
G1 X62.639 Y108.008 E0.19363
G1 X56.280 Y106.694 E0.20360
G1 X50.640 Y104.189 E0.19349
G1 X45.367 Y100.407 E0.20346
G1 X41.411 Y96.044 E0.18465
G1 X40.850 Y95.275 E0.02986
G1 X38.066 Y90.451 E0.17463
G1 X37.817 Y89.887 E0.01933
G1 X35.951 Y83.973 E0.19445
G1 X35.325 Y78.160 E0.18332
G1 X35.325 Y77.547 E0.01920
G1 X36.023 Y71.390 E0.19431
G1 X37.938 Y65.507 E0.19395
G1 X41.204 Y59.917 E0.20301
G1 X45.288 Y55.381 E0.19138
; PURGING FINISHED
G1 F8640
G1 X47.946 Y53.439 E-0.76000
G1 E-0.04000 F2100.00000
G1 Z0.800 F10800.000
G1 X47.617 Y57.848
G1 Z0.200
G1 E0.80000 F2100.00000
G1 F1500
G1 X52.026 Y54.644 E0.17089
G1 X52.209 Y54.607 E0.00584
G1 X52.332 Y54.468 E0.00584
G1 X57.311 Y52.251 E0.17089
G1 X62.642 Y51.118 E0.17089
G1 X62.824 Y51.158 E0.00584
G1 X62.993 Y51.081 E0.00584
G1 X68.443 Y51.081 E0.17089
G1 X73.774 Y52.214 E0.17089
G1 X73.924 Y52.325 E0.00584
G1 X74.110 Y52.323 E0.00584
G1 X79.089 Y54.540 E0.17089
G1 X83.498 Y57.743 E0.17089
G1 X83.590 Y57.905 E0.00584
G1 X83.761 Y57.980 E0.00584
G1 X87.408 Y62.030 E0.17089
G1 X90.133 Y66.750 E0.17089
G1 X90.151 Y66.935 E0.00584
G1 X90.276 Y67.072 E0.00584
G1 X91.961 Y72.256 E0.17089
G1 X92.530 Y77.676 E0.17089
G1 X92.471 Y77.853 E0.00584
G1 X92.530 Y78.029 E0.00584
G1 X91.961 Y83.449 E0.17089
G1 X90.276 Y88.633 E0.17089
G1 X90.151 Y88.770 E0.00584
G1 X90.133 Y88.955 E0.00584
G1 X87.408 Y93.675 E0.17089
G1 X83.761 Y97.726 E0.17089
G1 X83.590 Y97.800 E0.00584
G1 X83.498 Y97.962 E0.00584
G1 X79.089 Y101.165 E0.17089
G1 X74.110 Y103.382 E0.17089
G1 X73.924 Y103.381 E0.00584
G1 X73.774 Y103.491 E0.00584
G1 X68.443 Y104.625 E0.17089
G1 X62.993 Y104.625 E0.17089
G1 X62.824 Y104.547 E0.00584
G1 X62.642 Y104.588 E0.00584
G1 X57.311 Y103.454 E0.17089
G1 X52.332 Y101.238 E0.17089
G1 X52.209 Y101.098 E0.00584
G1 X52.026 Y101.061 E0.00584
G1 X47.617 Y97.858 E0.17089
G1 X43.970 Y93.807 E0.17089
G1 X43.914 Y93.630 E0.00584
G1 X43.762 Y93.522 E0.00584
G1 X41.037 Y88.802 E0.17089
G1 X39.353 Y83.618 E0.17089
G1 X39.374 Y83.433 E0.00584
G1 X39.280 Y83.273 E0.00584
G1 X38.710 Y77.853 E0.17089
G1 X39.280 Y72.432 E0.17089
G1 X39.374 Y72.272 E0.00584
G1 X39.353 Y72.087 E0.00584
G1 X41.037 Y66.904 E0.17089
G1 X43.762 Y62.183 E0.17089
G1 X43.914 Y62.075 E0.00584
G1 X43.970 Y61.898 E0.00584
G1 X47.577 Y57.892 E0.16900
G1 F8640
G1 X50.235 Y55.951 E-0.76000
G1 E-0.04000 F2100.00000
G1 Z0.800 F10800.000
G1 X78.886 Y54.573
G1 Z0.200
G1 E0.80000 F2100.00000
G1 F1500
G1 X88.554 Y64.241 E0.42884
G1 F8640
G1 X86.226 Y61.913 E-0.76000
G1 E-0.04000 F2100.00000
G1 Z0.800 F10800.000
G1 X87.825 Y62.978
G1 Z0.200
G1 E0.80000 F2100.00000
G1 F1500
G1 X80.686 Y55.840 E0.31665
G1 F8640
G1 X83.014 Y58.167 E-0.76000
G1 E-0.04000 F2100.00000
G1 Z0.800 F10800.000
G1 X89.282 Y65.503
G1 Z0.200
G1 E0.80000 F2100.00000
G1 F1500
G1 X78.259 Y54.480 E0.48897
G1 X77.298 Y54.052 E0.03302
G1 X90.011 Y66.765 E0.56395
G1 X90.337 Y67.624 F10800.000
G1 F1500
G1 X76.336 Y53.624 E0.62106
G1 X75.374 Y53.195 E0.03302
G1 X90.329 Y68.150 E0.66338
G1 X90.586 Y68.940 E0.02606
G1 X74.413 Y52.767 E0.71742
G1 X74.051 Y52.606 E0.01241
G1 X73.832 Y52.608 E0.00688
G1 X73.656 Y52.478 E0.00688
G1 X73.572 Y52.460 E0.00268
G1 X90.843 Y69.731 E0.76611
G1 X91.100 Y70.521 E0.02606
G1 X72.895 Y52.316 E0.80755
G1 X72.217 Y52.172 E0.02172
G1 X91.356 Y71.311 E0.84899
G1 X91.613 Y72.101 E0.02606
G1 X71.540 Y52.028 E0.89044
G1 X70.862 Y51.884 E0.02172
G1 X91.728 Y72.750 E0.92559
G1 X91.791 Y73.346 E0.01880
G1 X70.185 Y51.740 E0.95842
G1 X69.507 Y51.596 E0.02172
G1 X91.854 Y73.942 E0.99126
G1 X91.916 Y74.538 E0.01880
G1 X68.830 Y51.452 E1.02409
G1 X68.414 Y51.363 E0.01334
G1 X68.208 Y51.363 E0.00646
G1 X91.979 Y75.135 E1.05445
G1 X92.041 Y75.731 E0.01880
G1 X67.674 Y51.363 E1.08090
G1 X67.141 Y51.363 E0.01673
G1 X92.104 Y76.327 E1.10734
G1 X92.167 Y76.923 E0.01880
G1 X66.607 Y51.363 E1.13378
G1 X66.074 Y51.363 E0.01673
G1 X92.229 Y77.519 E1.16023
G1 X92.243 Y77.645 E0.00396
G1 X92.173 Y77.853 E0.00688
G1 X92.242 Y78.065 E0.00701
G1 X65.540 Y51.363 E1.18446
G1 X65.007 Y51.363 E0.01673
G1 X92.191 Y78.548 E1.20587
G1 X92.141 Y79.031 E0.01523
G1 X64.473 Y51.363 E1.22728
G1 X63.940 Y51.363 E0.01673
G1 X92.090 Y79.513 E1.24870
G1 X92.039 Y79.996 E0.01523
G1 X63.406 Y51.363 E1.27011
G1 X63.055 Y51.363 E0.01104
G1 X62.930 Y51.420 E0.00430
G1 X91.988 Y80.479 E1.28900
G1 X91.938 Y80.962 E0.01523
G1 X62.428 Y51.452 E1.30900
M73 Q1 S68
M73 P1 R67
G1 X61.988 Y51.546 E0.01411
G1 X91.887 Y81.444 E1.32627
G1 X91.836 Y81.927 E0.01523
G1 X61.548 Y51.639 E1.34353
G1 X61.108 Y51.733 E0.01411
G1 X91.786 Y82.410 E1.36080
G1 X91.735 Y82.893 E0.01523
G1 X60.668 Y51.826 E1.37806
G1 X60.228 Y51.920 E0.01411
G1 X91.684 Y83.375 E1.39533
G1 X91.556 Y83.780 E0.01333
G1 X59.788 Y52.013 E1.40915
G1 X59.348 Y52.107 E0.01411
G1 X91.425 Y84.183 E1.42287
G1 X91.294 Y84.586 E0.01328
G1 X58.909 Y52.200 E1.43658
G1 X58.469 Y52.294 E0.01411
G1 X91.163 Y84.988 E1.45029
G1 X91.032 Y85.391 E0.01328
G1 X58.029 Y52.387 E1.46400
G1 X57.589 Y52.481 E0.01411
G1 X90.902 Y85.794 E1.47772
G1 X90.771 Y86.196 E0.01328
G1 X57.189 Y52.615 E1.48964
G1 X56.820 Y52.779 E0.01267
G1 X90.640 Y86.599 E1.50021
G1 X90.509 Y87.002 E0.01328
G1 X56.451 Y52.943 E1.51078
G1 X56.082 Y53.108 E0.01267
G1 X90.378 Y87.404 E1.52135
G1 X90.247 Y87.807 E0.01328
G1 X55.712 Y53.272 E1.53192
G1 X55.343 Y53.436 E0.01267
G1 X90.117 Y88.210 E1.54249
G1 X90.026 Y88.487 E0.00915
G1 X89.947 Y88.574 E0.00368
G1 X54.974 Y53.601 E1.55135
G1 X54.605 Y53.765 E0.01267
G1 X89.802 Y88.962 E1.56130
G1 X89.607 Y89.300 E0.01225
G1 X54.236 Y53.929 E1.56901
G1 X53.867 Y54.094 E0.01267
G1 X89.412 Y89.639 E1.57673
G1 X89.217 Y89.977 E0.01225
G1 X53.498 Y54.258 E1.58444
G1 X53.129 Y54.422 E0.01267
G1 X89.021 Y90.315 E1.59215
G1 X88.826 Y90.653 E0.01225
G1 X52.759 Y54.587 E1.59986
G1 X52.503 Y54.701 E0.00880
G1 X52.427 Y54.787 E0.00362
G1 X88.631 Y90.992 E1.60597
G1 X88.435 Y91.330 E0.01225
G1 X52.069 Y54.963 E1.61319
G1 X51.760 Y55.187 E0.01198
G1 X88.240 Y91.668 E1.61823
G1 X88.045 Y92.006 E0.01225
G1 X51.451 Y55.412 E1.62328
G1 X51.142 Y55.636 E0.01198
G1 X87.850 Y92.344 E1.62832
G1 X87.654 Y92.683 E0.01225
G1 X50.833 Y55.861 E1.63337
G1 X50.524 Y56.085 E0.01198
G1 X87.459 Y93.021 E1.63841
M73 Q3 S67
M73 P3 R66
G1 X87.264 Y93.359 E0.01225
G1 X50.215 Y56.310 E1.64345
G1 X49.906 Y56.534 E0.01198
G1 X87.036 Y93.665 E1.64707
G1 X86.784 Y93.946 E0.01185
G1 X49.597 Y56.759 E1.64957
G1 X49.288 Y56.983 E0.01198
G1 X86.531 Y94.227 E1.65206
G1 X86.278 Y94.507 E0.01185
G1 X48.979 Y57.208 E1.65456
G1 X48.670 Y57.432 E0.01198
G1 X86.025 Y94.788 E1.65705
G1 X85.773 Y95.069 E0.01185
G1 X48.361 Y57.657 E1.65954
G1 X48.052 Y57.881 E0.01198
G1 X85.520 Y95.349 E1.66204
G1 X85.267 Y95.630 E0.01185
G1 X47.754 Y58.117 E1.66401
G1 X47.502 Y58.398 E0.01185
G1 X85.014 Y95.911 E1.66401
G1 X84.762 Y96.192 E0.01185
G1 X47.249 Y58.679 E1.66401
G1 X46.996 Y58.960 E0.01185
G1 X84.509 Y96.472 E1.66401
G1 X84.256 Y96.753 E0.01185
G1 X46.743 Y59.240 E1.66401
G1 X46.491 Y59.521 E0.01185
G1 X84.003 Y97.034 E1.66401
G1 X83.751 Y97.314 E0.01185
G1 X46.238 Y59.802 E1.66401
G1 X45.985 Y60.082 E0.01185
G1 X83.454 Y97.551 E1.66205
G1 X83.391 Y97.578 E0.00216
G1 X83.283 Y97.769 E0.00688
G1 X83.199 Y97.830 E0.00324
G1 X45.732 Y60.363 E1.66197
G1 X45.480 Y60.644 E0.01185
G1 X82.890 Y98.054 E1.65948
G1 X82.581 Y98.279 E0.01198
G1 X45.227 Y60.925 E1.65698
G1 X44.974 Y61.205 E0.01185
G1 X82.272 Y98.503 E1.65449
G1 X81.963 Y98.728 E0.01198
G1 X44.721 Y61.486 E1.65200
G1 X44.469 Y61.767 E0.01185
G1 X81.654 Y98.952 E1.64950
G1 X81.345 Y99.177 E0.01198
G1 X44.219 Y62.050 E1.64689
G1 X44.155 Y62.251 E0.00660
G1 X43.998 Y62.363 E0.00607
G1 X81.036 Y99.401 E1.64297
G1 X80.727 Y99.626 E0.01198
G1 X43.795 Y62.693 E1.63828
G1 X43.599 Y63.031 E0.01225
G1 X80.418 Y99.850 E1.63323
G1 X80.109 Y100.075 E0.01198
G1 X43.404 Y63.370 E1.62819
G1 X43.209 Y63.708 E0.01225
G1 X79.800 Y100.299 E1.62314
G1 X79.491 Y100.524 E0.01198
G1 X43.014 Y64.046 E1.61810
M73 Q4 S66
M73 P4 R65
G1 X42.818 Y64.384 E0.01225
G1 X79.182 Y100.748 E1.61305
G1 X78.947 Y100.919 E0.00912
G1 X78.859 Y100.958 E0.00302
G1 X42.623 Y64.723 E1.60737
G1 X42.428 Y65.061 E0.01225
G1 X78.490 Y101.123 E1.59966
G1 X78.121 Y101.287 E0.01267
G1 X42.233 Y65.399 E1.59195
G1 X42.037 Y65.737 E0.01225
G1 X77.752 Y101.451 E1.58424
G1 X77.382 Y101.616 E0.01267
G1 X41.842 Y66.075 E1.57652
G1 X41.647 Y66.414 E0.01225
G1 X77.013 Y101.780 E1.56881
G1 X76.644 Y101.944 E0.01267
G1 X41.452 Y66.752 E1.56110
G1 X41.297 Y67.019 E0.00968
G1 X41.270 Y67.103 E0.00278
G1 X76.275 Y102.109 E1.55279
G1 X75.906 Y102.273 E0.01267
G1 X41.139 Y67.506 E1.54222
G1 X41.008 Y67.909 E0.01328
G1 X75.537 Y102.437 E1.53165
G1 X75.168 Y102.602 E0.01267
G1 X40.877 Y68.311 E1.52108
G1 X40.746 Y68.714 E0.01328
G1 X74.799 Y102.766 E1.51051
G1 X74.429 Y102.931 E0.01267
G1 X40.616 Y69.117 E1.49993
G1 X40.485 Y69.519 E0.01328
G1 X74.060 Y103.095 E1.48936
G1 X73.832 Y103.097 E0.00716
G1 X73.658 Y103.226 E0.00679
G1 X40.354 Y69.922 E1.47731
G1 X40.223 Y70.325 E0.01328
G1 X73.219 Y103.320 E1.46364
G1 X72.779 Y103.414 E0.01411
G1 X40.092 Y70.727 E1.44993
G1 X39.961 Y71.130 E0.01328
G1 X72.339 Y103.507 E1.43622
G1 X71.899 Y103.601 E0.01411
G1 X39.831 Y71.533 E1.42251
G1 X39.700 Y71.935 E0.01328
G1 X71.459 Y103.694 E1.40879
G1 X71.019 Y103.788 E0.01411
G1 X39.629 Y72.397 E1.39244
G1 X39.555 Y72.523 E0.00457
G1 X39.523 Y72.825 E0.00953
G1 X70.579 Y103.881 E1.37761
G1 X70.139 Y103.975 E0.01411
G1 X39.472 Y73.308 E1.36035
G1 X39.421 Y73.791 E0.01523
G1 X69.699 Y104.068 E1.34308
G1 X69.259 Y104.162 E0.01411
G1 X39.371 Y74.273 E1.32582
G1 X39.320 Y74.756 E0.01523
G1 X68.819 Y104.256 E1.30855
G1 X68.372 Y104.342 E0.01429
G1 X39.269 Y75.239 E1.29096
G1 X39.218 Y75.722 E0.01523
G1 X67.838 Y104.342 E1.26955
G1 X67.305 Y104.342 E0.01673
G1 X39.168 Y76.204 E1.24814
G1 X39.117 Y76.687 E0.01523
G1 X66.772 Y104.342 E1.22672
G1 X66.238 Y104.342 E0.01673
G1 X39.066 Y77.170 E1.20531
M73 Q6 S65
M73 P6 R64
G1 X39.015 Y77.653 E0.01523
G1 X65.705 Y104.342 E1.18389
G1 X65.171 Y104.342 E0.01673
G1 X39.031 Y78.202 E1.15953
G1 X39.094 Y78.798 E0.01880
G1 X64.638 Y104.342 E1.13309
G1 X64.104 Y104.342 E0.01673
G1 X39.156 Y79.394 E1.10665
G1 X39.219 Y79.990 E0.01880
G1 X63.571 Y104.342 E1.08020
G1 X63.055 Y104.342 E0.01619
G1 X63.023 Y104.327 E0.00110
G1 X39.282 Y80.586 E1.05312
G1 X39.344 Y81.182 E0.01880
G1 X62.412 Y104.250 E1.02323
G1 X61.734 Y104.106 E0.02172
G1 X39.407 Y81.779 E0.99039
G1 X39.470 Y82.375 E0.01880
G1 X61.057 Y103.962 E0.95756
G1 X60.379 Y103.817 E0.02172
G1 X39.532 Y82.971 E0.92473
G1 X39.555 Y83.182 E0.00667
G1 X39.666 Y83.371 E0.00688
G1 X39.641 Y83.589 E0.00688
G1 X39.653 Y83.624 E0.00116
G1 X59.702 Y103.673 E0.88935
G1 X59.024 Y103.529 E0.02172
G1 X39.909 Y84.415 E0.84791
G1 X40.166 Y85.205 E0.02606
G1 X58.347 Y103.385 E0.80646
G1 X57.669 Y103.241 E0.02172
G1 X40.423 Y85.995 E0.76502
G1 X40.680 Y86.785 E0.02606
G1 X56.821 Y102.927 E0.71601
G1 X55.859 Y102.499 E0.03302
G1 X40.936 Y87.576 E0.66196
G1 X41.193 Y88.366 E0.02606
G1 X54.898 Y102.070 E0.60791
G1 X53.936 Y101.642 E0.03302
G1 X41.267 Y88.973 E0.56198
G1 F8640
G1 X43.595 Y91.301 E-0.76000
G1 E-0.04000 F2100.00000
G1 Z0.800 F10800.000
G1 X41.996 Y90.236
G1 Z0.200
G1 E0.80000 F2100.00000
G1 F1500
G1 X53.309 Y101.549 E0.50185
G1 F8640
G1 X50.982 Y99.222 E-0.76000
G1 E-0.04000 F2100.00000
G1 Z0.800 F10800.000
G1 X52.210 Y100.983
G1 Z0.200
G1 E0.80000 F2100.00000
G1 F1500
G1 X42.725 Y91.498 E0.42076
G1 F8640
G1 X45.052 Y93.825 E-0.76000
G1 E-0.04000 F2100.00000
G1 Z0.800 F10800.000
G1 X43.453 Y92.760
G1 Z0.200
G1 E0.80000 F2100.00000
G1 F1500
G1 X50.521 Y99.828 E0.31353
M106 S255
;BEFORE_LAYER_CHANGE
G92 E0.0
;0.4


G1 Z0.400 F10800.000
;AFTER_LAYER_CHANGE
;0.4
M104 S210 ; set temperature
; PURGING FINISHED
G1 X50.311 Y100.117
M204 S800
G1 F2100
G1 X47.452 Y98.040 E0.11961
G1 X43.978 Y94.182 E0.17574
G1 X43.825 Y93.695 E0.01729
G1 X43.409 Y93.398 E0.01729
G1 X40.813 Y88.902 E0.17574
G1 X39.208 Y83.964 E0.17574
G1 X39.266 Y83.456 E0.01729
G1 X39.007 Y83.016 E0.01729
G1 X38.464 Y77.853 E0.17574
G1 X39.007 Y72.689 E0.17574
G1 X39.266 Y72.249 E0.01729
G1 X39.208 Y71.741 E0.01729
G1 X40.813 Y66.803 E0.17574
G1 X43.409 Y62.307 E0.17574
G1 X43.825 Y62.010 E0.01729
G1 X43.978 Y61.523 E0.01729
G1 X47.452 Y57.665 E0.17574
G1 X51.653 Y54.613 E0.17574
G1 X52.153 Y54.511 E0.01729
G1 X52.492 Y54.129 E0.01729
G1 X57.235 Y52.017 E0.17574
G1 X62.313 Y50.937 E0.17574
G1 X62.812 Y51.048 E0.01729
G1 X63.277 Y50.836 E0.01729
G1 X68.469 Y50.836 E0.17574
G1 X73.548 Y51.915 E0.17574
G1 X73.958 Y52.219 E0.01729
G1 X74.469 Y52.215 E0.01729
G1 X79.212 Y54.327 E0.17574
G1 X83.413 Y57.378 E0.17574
G1 X83.664 Y57.823 E0.01729
G1 X84.133 Y58.027 E0.01729
G1 X87.607 Y61.885 E0.17574
G1 X90.203 Y66.382 E0.17574
G1 X90.252 Y66.890 E0.01729
G1 X90.597 Y67.267 E0.01729
G1 X92.201 Y72.205 E0.17574
