; generated by Slic3r Prusa Edition 1.41.0+win64 on 2018-11-01 at 13:56:01

; 

; external perimeters extrusion width = 0.45mm
; perimeters extrusion width = 0.45mm
; infill extrusion width = 0.45mm
; solid infill extrusion width = 0.45mm
; top infill extrusion width = 0.40mm
; first layer extrusion width = 0.42mm

M201 X1000 Y1000 Z1000 E5000 ; sets maximum accelerations, mm/sec^2
M203 X200 Y200 Z12 E120 ; sets maximum feedrates, mm/sec
M204 P1250 R1250 T1250 ; sets acceleration (P, T) and retract acceleration (R), mm/sec^2
M205 X8.00 Y8.00 Z0.40 E1.50 ; sets the jerk limits, mm/sec
M205 S0 T0 ; sets the minimum extruding and travel feed rate, mm/sec
M107
M115 U3.4.1 ; tell printer latest fw version
M83  ; extruder relative mode
M104 S230 ; set extruder temp
M140 S85 ; set bed temp
M190 S85 ; wait for bed temp
M109 S230 ; wait for extruder temp
G28 W ; home all without mesh bed level
G80 ; mesh bed leveling
G1 Y-3.0 F1000.0 ; go outside print area
G92 E0.0
G1 X60.0 E9.0  F1000.0 ; intro line
M73 Q0 S15
M73 P0 R15
G1 X100.0 E12.5  F1000.0 ; intro line
G92 E0.0
M221 S95
M900 K45; Filament gcode
G21 ; set units to millimeters
G90 ; use absolute coordinates
M83 ; use relative distances for extrusion
;BEFORE_LAYER_CHANGE
G92 E0.0
;0.2


G1 E-0.80000 F2100.00000
G1 Z0.600 F10800.000
;AFTER_LAYER_CHANGE
;0.2
G1 X106.786 Y65.217
G1 Z0.200
G1 E0.80000 F2100.00000
M204 S1000
G1 F1800
G1 X107.833 Y63.717 E0.05735
G1 X109.832 Y61.386 E0.09627
G1 X111.072 Y60.182 E0.05419
G1 X113.385 Y58.281 E0.09387
G1 X114.831 Y57.279 E0.05518
G1 X117.457 Y55.752 E0.09526
G1 X120.169 Y54.534 E0.09320
G1 X121.842 Y53.955 E0.05551
G1 X122.738 Y53.831 E0.02834
G1 X130.132 Y53.831 E0.23184
G1 X131.858 Y54.013 E0.05441
G1 X133.456 Y54.357 E0.05127
G1 X134.791 Y54.764 E0.04375
G1 X136.081 Y55.264 E0.04337
G1 X137.611 Y55.988 E0.05309
G1 X140.077 Y57.489 E0.09051
G1 X141.404 Y58.479 E0.05189
G1 X142.663 Y59.562 E0.05210
G1 X144.716 Y61.675 E0.09234
G1 X145.799 Y63.024 E0.05424
G1 X147.406 Y65.465 E0.09163
G1 X148.192 Y66.958 E0.05292
G1 X148.850 Y68.486 E0.05216
G1 X149.344 Y69.917 E0.04745
G1 X149.712 Y71.326 E0.04567
G1 X149.999 Y72.939 E0.05137
G1 X150.144 Y74.685 E0.05492
G1 X150.112 Y76.396 E0.05364
G1 X149.927 Y77.992 E0.05038
G1 X149.604 Y79.477 E0.04767
G1 X149.047 Y81.207 E0.05696
G1 X148.271 Y82.933 E0.05935
G1 X146.917 Y85.302 E0.08554
G1 X145.982 Y86.698 E0.05269
G1 X144.971 Y88.027 E0.05237
G1 X134.397 Y100.745 E0.51858
G1 X133.568 Y101.625 E0.03787
G1 X132.864 Y102.219 E0.02889
G1 X131.818 Y102.915 E0.03939
G1 X130.642 Y103.493 E0.04109
G1 X129.450 Y103.903 E0.03952
G1 X128.599 Y104.103 E0.02743
G1 X127.381 Y104.265 E0.03850
G1 X126.066 Y104.271 E0.04123
G1 X124.666 Y104.041 E0.04450
G1 X122.937 Y103.430 E0.05750
G1 X121.301 Y102.485 E0.05923
G1 X120.140 Y101.541 E0.04691
G1 X119.259 Y100.599 E0.04043
G1 X108.508 Y87.925 E0.52112
G1 X107.471 Y86.598 E0.05279
G1 X106.319 Y84.851 E0.06564
G1 X105.467 Y83.261 E0.05654
G1 X104.615 Y81.215 E0.06951
G1 X104.130 Y79.596 E0.05297
G1 X103.789 Y77.838 E0.05614
G1 X103.634 Y76.095 E0.05489
G1 X103.659 Y74.316 E0.05578
G1 X103.874 Y72.532 E0.05633
G1 X104.190 Y71.056 E0.04735
G1 X104.659 Y69.521 E0.05031
G1 X105.338 Y67.852 E0.05651
G1 X106.012 Y66.513 E0.04701
G1 X106.755 Y65.268 E0.04544
; PURGING FINISHED
G1 F8640
G1 X107.833 Y63.717 E-0.43618
G1 X108.746 Y62.653 E-0.32382
G1 E-0.04000 F2100.00000
G1 Z0.800 F10800.000
G1 X131.936 Y91.460
G1 Z0.200
G1 E0.80000 F2100.00000
G1 F1800
G1 X131.456 Y90.897 E0.02319
G1 X131.072 Y90.507 E0.01716
G1 X130.672 Y90.161 E0.01660
G1 X130.260 Y89.855 E0.01608
G1 X129.836 Y89.589 E0.01569
G1 X129.403 Y89.363 E0.01531
G1 X128.964 Y89.176 E0.01499
G1 X128.518 Y89.026 E0.01474
G1 X128.068 Y88.914 E0.01455
G1 X127.615 Y88.838 E0.01440
G1 X127.163 Y88.797 E0.01422
G1 X126.712 Y88.789 E0.01416
G1 X126.263 Y88.817 E0.01410
G1 X125.820 Y88.879 E0.01403
G1 X125.384 Y88.972 E0.01398
G1 X124.956 Y89.097 E0.01398
G1 X124.538 Y89.253 E0.01399
G1 X124.133 Y89.440 E0.01398
G1 X123.743 Y89.656 E0.01397
G1 X123.369 Y89.901 E0.01403
G1 X123.011 Y90.174 E0.01411
G1 X122.674 Y90.474 E0.01416
G1 X122.359 Y90.802 E0.01425
G1 X122.066 Y91.154 E0.01436
G1 X121.686 Y91.694 E0.02069
G1 X120.107 Y90.809 E0.05675
G1 X119.062 Y90.152 E0.03870
G1 X118.237 Y89.574 E0.03158
G1 X117.828 Y89.264 E0.01609
G1 X117.035 Y88.612 E0.03219
G1 X116.648 Y88.264 E0.01632
G1 X115.922 Y87.544 E0.03205
G1 X115.560 Y87.146 E0.01689
G1 X114.905 Y86.333 E0.03274
G1 X114.322 Y85.464 E0.03281
G1 X114.060 Y85.004 E0.01660
G1 X113.820 Y84.532 E0.01660
G1 X113.604 Y84.045 E0.01669
G1 X113.414 Y83.543 E0.01684
G1 X113.250 Y83.026 E0.01702
G1 X113.114 Y82.491 E0.01729
G1 X112.990 Y81.743 E0.02377
G1 X112.962 Y81.032 E0.02232
G1 X113.020 Y80.362 E0.02108
G1 X113.162 Y79.732 E0.02024
G1 X113.379 Y79.146 E0.01961
G1 X113.665 Y78.605 E0.01917
G1 X114.014 Y78.109 E0.01901
G1 X114.418 Y77.660 E0.01894
G1 X114.871 Y77.257 E0.01901
G1 X115.365 Y76.903 E0.01908
G1 X115.896 Y76.594 E0.01925
G1 X116.456 Y76.333 E0.01939
G1 X117.040 Y76.118 E0.01950
G1 X117.640 Y75.950 E0.01954
G1 X118.251 Y75.830 E0.01953
G1 X118.884 Y75.757 E0.01999
G1 X119.483 Y75.733 E0.01880
G1 X120.093 Y75.757 E0.01913
G1 X120.691 Y75.831 E0.01889
G1 X121.269 Y75.955 E0.01856
G1 X121.823 Y76.128 E0.01818
G1 X122.346 Y76.354 E0.01786
G1 X122.833 Y76.632 E0.01758
G1 X123.275 Y76.963 E0.01734
G1 X123.666 Y77.347 E0.01716
G1 X123.815 Y77.532 E0.00746
G1 X124.055 Y77.930 E0.01458
G1 X124.251 Y78.381 E0.01543
G1 X124.467 Y79.120 E0.02413
G1 X124.617 Y79.927 E0.02572
G1 X124.920 Y82.639 E0.08557
G1 X126.449 Y77.659 E0.16333
G1 X127.239 Y77.768 E0.02499
G1 X128.581 Y82.901 E0.16637
G1 X128.682 Y82.296 E0.01924
G1 X129.006 Y79.989 E0.07303
G1 X129.124 Y79.297 E0.02201
G1 X129.359 Y78.294 E0.03232
G1 X129.509 Y77.846 E0.01479
G1 X129.684 Y77.456 E0.01343
G1 X129.894 Y77.126 E0.01224
G1 X130.257 Y76.729 E0.01689
G1 X130.681 Y76.394 E0.01694
G1 X131.155 Y76.119 E0.01717
G1 X131.673 Y75.904 E0.01758
G1 X132.224 Y75.747 E0.01797
G1 X132.820 Y75.643 E0.01897
G1 X133.407 Y75.597 E0.01847
G1 X134.024 Y75.603 E0.01934
G1 X134.651 Y75.661 E0.01975
G1 X135.279 Y75.771 E0.01998
G1 X135.902 Y75.930 E0.02018
G1 X136.515 Y76.141 E0.02030
G1 X137.108 Y76.399 E0.02029
G1 X137.678 Y76.706 E0.02030
G1 X138.216 Y77.062 E0.02024
G1 X138.715 Y77.465 E0.02011
G1 X139.168 Y77.916 E0.02004
G1 X139.570 Y78.412 E0.02001
G1 X139.910 Y78.955 E0.02009
G1 X140.182 Y79.544 E0.02033
G1 X140.378 Y80.176 E0.02075
G1 X140.490 Y80.849 E0.02139
G1 X140.512 Y81.563 E0.02240
G1 X140.439 Y82.313 E0.02364
G1 X140.261 Y83.099 E0.02529
G1 X139.951 Y83.996 E0.02973
G1 X139.552 Y84.852 E0.02963
G1 X139.318 Y85.272 E0.01507
G1 X138.801 Y86.070 E0.02982
G1 X138.216 Y86.832 E0.03011
G1 X137.571 Y87.553 E0.03034
G1 X136.875 Y88.233 E0.03050
G1 X136.136 Y88.870 E0.03060
G1 X135.362 Y89.464 E0.03060
G1 X134.560 Y90.014 E0.03047
G1 X133.742 Y90.518 E0.03014
G1 X132.911 Y90.978 E0.02978
G1 X131.990 Y91.433 E0.03221
G1 X131.613 Y91.696 F10800.000
G1 F8640
G1 X131.456 Y90.897 E-0.17467
G1 X131.072 Y90.507 E-0.12637
G1 X130.672 Y90.161 E-0.12227
G1 X130.260 Y89.855 E-0.11844
G1 X129.836 Y89.589 E-0.11552
G1 X129.442 Y89.383 E-0.10273
G1 E-0.04000 F2100.00000
G1 Z0.800 F10800.000
G1 X131.042 Y91.971
G1 Z0.200
G1 E0.80000 F2100.00000
G1 F1800
G1 X131.328 Y92.505 E0.01900
G1 X131.459 Y92.812 E0.01048
G1 X131.650 Y93.411 E0.01971
G1 X131.769 Y94.038 E0.02000
G1 X131.802 Y94.385 E0.01094
G1 X131.802 Y95.034 E0.02035
G1 X131.718 Y95.702 E0.02110
G1 X131.565 Y96.307 E0.01957
G1 X131.453 Y96.623 E0.01051
G1 X131.193 Y97.186 E0.01944
G1 X130.871 Y97.708 E0.01923
G1 X130.674 Y97.969 E0.01026
G1 X130.268 Y98.420 E0.01904
G1 X129.803 Y98.823 E0.01928
G1 X129.299 Y99.160 E0.01900
G1 X129.019 Y99.311 E0.00997
G1 X128.729 Y99.445 E0.01003
G1 X128.159 Y99.642 E0.01891
G1 X127.833 Y99.721 E0.01050
G1 X127.209 Y99.805 E0.01975
G1 X126.570 Y99.805 E0.02005
G1 X126.241 Y99.771 E0.01036
G1 X125.918 Y99.717 E0.01028
G1 X125.330 Y99.555 E0.01912
G1 X125.023 Y99.437 E0.01031
G1 X124.486 Y99.169 E0.01880
G1 X124.209 Y98.996 E0.01024
G1 X123.727 Y98.629 E0.01900
G1 X123.295 Y98.205 E0.01900
G1 X123.082 Y97.955 E0.01028
G1 X122.732 Y97.456 E0.01913
G1 X122.435 Y96.905 E0.01959
G1 X122.210 Y96.325 E0.01953
G1 X122.117 Y96.000 E0.01059
G1 X122.000 Y95.380 E0.01979
G1 X121.968 Y95.034 E0.01088
G1 X121.968 Y94.385 E0.02035
G1 X122.000 Y94.039 E0.01092
G1 X122.117 Y93.419 E0.01975
G1 X122.210 Y93.095 E0.01058
G1 X122.432 Y92.522 E0.01929
G1 X122.737 Y91.956 E0.02015
G1 X123.083 Y91.463 E0.01888
G1 X123.295 Y91.214 E0.01025
G1 X123.727 Y90.791 E0.01897
G1 X124.217 Y90.418 E0.01930
G1 X124.741 Y90.113 E0.01903
G1 X125.040 Y89.975 E0.01030
G1 X125.620 Y89.773 E0.01927
G1 X126.232 Y89.649 E0.01956
G1 X126.894 Y89.604 E0.02083
G1 X127.528 Y89.647 E0.01992
G1 X128.140 Y89.771 E0.01958
G1 X128.746 Y89.982 E0.02011
G1 X129.283 Y90.250 E0.01882
G1 X129.560 Y90.424 E0.01026
G1 X130.041 Y90.791 E0.01896
G1 X130.481 Y91.221 E0.01930
G1 X130.861 Y91.697 E0.01911
G1 X131.009 Y91.920 E0.00839
G1 X130.694 Y92.128 F10800.000
G1 F1800
G1 X130.988 Y92.668 E0.01927
G1 X131.105 Y92.943 E0.00939
G1 X131.284 Y93.504 E0.01844
G1 X131.395 Y94.091 E0.01874
G1 X131.425 Y94.403 E0.00983
G1 X131.425 Y95.017 E0.01924
G1 X131.348 Y95.626 E0.01927
G1 X131.203 Y96.198 E0.01848
G1 X131.103 Y96.481 E0.00942
G1 X130.860 Y97.007 E0.01818
G1 X130.559 Y97.495 E0.01797
G1 X130.383 Y97.729 E0.00919
G1 X130.003 Y98.151 E0.01779
G1 X129.574 Y98.523 E0.01782
G1 X129.104 Y98.837 E0.01770
G1 X128.851 Y98.973 E0.00903
G1 X128.588 Y99.094 E0.00907
G1 X128.053 Y99.280 E0.01777
G1 X127.763 Y99.350 E0.00933
G1 X127.184 Y99.428 E0.01834
G1 X126.589 Y99.428 E0.01865
G1 X126.291 Y99.397 E0.00937
G1 X125.999 Y99.348 E0.00929
G1 X125.448 Y99.196 E0.01794
G1 X125.175 Y99.092 E0.00916
G1 X124.671 Y98.840 E0.01767
G1 X124.424 Y98.686 E0.00913
G1 X123.974 Y98.343 E0.01772
G1 X123.571 Y97.947 E0.01772
G1 X123.381 Y97.724 E0.00919
G1 X123.053 Y97.257 E0.01788
G1 X122.779 Y96.747 E0.01816
G1 X122.568 Y96.204 E0.01827
G1 X122.484 Y95.913 E0.00950
G1 X122.374 Y95.327 E0.01868
G1 X122.345 Y95.017 E0.00978
G1 X122.345 Y94.403 E0.01924
G1 X122.374 Y94.091 E0.00982
G1 X122.484 Y93.507 E0.01864
G1 X122.568 Y93.216 E0.00950
G1 X122.777 Y92.674 E0.01821
G1 X123.055 Y92.159 E0.01836
G1 X123.381 Y91.694 E0.01780
G1 X123.571 Y91.472 E0.00917
G1 X123.974 Y91.076 E0.01772
G1 X124.426 Y90.732 E0.01782
G1 X124.915 Y90.448 E0.01773
G1 X125.181 Y90.325 E0.00917
G1 X125.720 Y90.137 E0.01790
G1 X126.288 Y90.023 E0.01817
G1 X126.593 Y89.992 E0.00961
G1 X126.888 Y89.981 E0.00926
G1 X127.478 Y90.022 E0.01853
G1 X128.046 Y90.137 E0.01818
G1 X128.324 Y90.225 E0.00914
G1 X128.594 Y90.328 E0.00908
G1 X129.099 Y90.580 E0.01767
G1 X129.346 Y90.734 E0.00913
G1 X129.794 Y91.076 E0.01768
G1 X130.201 Y91.474 E0.01785
G1 X130.556 Y91.919 E0.01785
G1 X130.661 Y92.078 E0.00598
G1 X131.094 Y92.119 F10800.000
G1 F8640
G1 X130.988 Y92.668 E-0.15569
G1 X131.105 Y92.943 E-0.06912
G1 X131.284 Y93.504 E-0.13577
G1 X131.395 Y94.091 E-0.13799
G1 X131.425 Y94.403 E-0.07240
G1 X131.425 Y95.017 E-0.14166
G1 X131.399 Y95.220 E-0.04737
G1 E-0.04000 F2100.00000
G1 Z0.800 F10800.000
G1 X131.810 Y92.091
G1 Z0.200
G1 E0.80000 F2100.00000
G1 F1800
G1 X132.069 Y93.193 E0.03547
G1 X132.163 Y93.756 E0.01790
G1 X132.214 Y94.291 E0.01686
G1 X132.226 Y94.801 E0.01599
G1 X132.200 Y95.283 E0.01513
G1 X132.138 Y95.740 E0.01445
G1 X132.044 Y96.171 E0.01383
G1 X131.918 Y96.576 E0.01332
G1 X131.764 Y96.959 E0.01295
G1 X131.583 Y97.319 E0.01262
G1 X131.376 Y97.655 E0.01237
G1 X131.144 Y97.970 E0.01227
G1 X130.899 Y98.253 E0.01175
G1 X130.616 Y98.532 E0.01244
G1 X130.322 Y98.781 E0.01208
G1 X130.011 Y99.007 E0.01206
G1 X129.682 Y99.211 E0.01214
G1 X129.340 Y99.393 E0.01214
G1 X128.625 Y99.686 E0.02421
G1 X127.863 Y99.890 E0.02476
G1 X127.081 Y99.999 E0.02473
G1 X126.707 Y100.017 E0.01176
G1 X126.403 Y100.008 E0.00951
G1 X125.758 Y99.907 E0.02047
G1 X125.421 Y99.815 E0.01099
G1 X124.728 Y99.547 E0.02327
G1 X124.383 Y99.374 E0.01212
G1 X124.041 Y99.175 E0.01239
G1 X123.387 Y98.706 E0.02524
G1 X123.082 Y98.437 E0.01276
G1 X122.791 Y98.147 E0.01288
G1 X122.523 Y97.837 E0.01285
G1 X122.278 Y97.506 E0.01290
G1 X122.057 Y97.159 E0.01289
G1 X121.866 Y96.794 E0.01292
G1 X121.706 Y96.412 E0.01300
G1 X121.578 Y96.013 E0.01313
G1 X121.486 Y95.599 E0.01332
G1 X121.432 Y95.169 E0.01359
G1 X121.419 Y94.721 E0.01403
G1 X121.450 Y94.256 E0.01462
G1 X121.526 Y93.775 E0.01529
G1 X121.654 Y93.275 E0.01618
G1 X122.037 Y92.186 E0.03618
G1 X121.848 Y92.117 E0.00631
G1 X122.366 Y91.384 E0.02815
G1 X122.640 Y91.053 E0.01347
G1 X122.936 Y90.746 E0.01336
G1 X123.251 Y90.465 E0.01326
G1 X123.587 Y90.209 E0.01323
G1 X123.938 Y89.979 E0.01316
G1 X124.304 Y89.777 E0.01311
G1 X124.683 Y89.601 E0.01312
G1 X125.075 Y89.455 E0.01311
G1 X125.476 Y89.337 E0.01311
G1 X125.885 Y89.250 E0.01311
G1 X126.301 Y89.193 E0.01316
G1 X126.721 Y89.167 E0.01319
G1 X127.143 Y89.173 E0.01326
G1 X127.567 Y89.212 E0.01333
G1 X127.991 Y89.283 E0.01349
G1 X128.412 Y89.388 E0.01361
G1 X128.830 Y89.528 E0.01380
G1 X129.242 Y89.704 E0.01406
G1 X129.648 Y89.916 E0.01437
G1 X130.047 Y90.167 E0.01476
G1 X130.436 Y90.455 E0.01518
G1 X130.814 Y90.783 E0.01568
G1 X131.178 Y91.152 E0.01627
G1 X131.840 Y91.928 E0.03198
G1 X133.086 Y91.312 E0.04358
G1 X133.932 Y90.844 E0.03032
G1 X134.766 Y90.330 E0.03071
G1 X135.583 Y89.769 E0.03108
G1 X136.374 Y89.162 E0.03125
G1 X137.130 Y88.511 E0.03130
G1 X137.844 Y87.814 E0.03127
G1 X138.507 Y87.073 E0.03118
G1 X139.110 Y86.288 E0.03102
G1 X139.642 Y85.467 E0.03069
G1 X139.888 Y85.023 E0.01590
G1 X140.301 Y84.137 E0.03066
G1 X140.624 Y83.203 E0.03099
G1 X140.812 Y82.373 E0.02667
G1 X140.890 Y81.575 E0.02514
G1 X140.866 Y80.812 E0.02395
G1 X140.746 Y80.088 E0.02299
G1 X140.535 Y79.408 E0.02234
G1 X140.242 Y78.775 E0.02187
G1 X139.877 Y78.193 E0.02155
G1 X139.449 Y77.663 E0.02137
G1 X138.967 Y77.184 E0.02129
G1 X138.439 Y76.757 E0.02129
G1 X137.871 Y76.382 E0.02134
G1 X137.273 Y76.060 E0.02132
G1 X136.651 Y75.789 E0.02125
G1 X136.010 Y75.569 E0.02125
G1 X135.358 Y75.402 E0.02110
G1 X134.701 Y75.287 E0.02091
G1 X134.043 Y75.226 E0.02071
G1 X133.394 Y75.219 E0.02035
G1 X132.773 Y75.269 E0.01955
G1 X132.140 Y75.379 E0.02015
G1 X131.548 Y75.548 E0.01928
G1 X130.988 Y75.781 E0.01903
G1 X130.469 Y76.081 E0.01880
G1 X130.000 Y76.452 E0.01874
G1 X129.593 Y76.896 E0.01889
G1 X129.351 Y77.276 E0.01414
G1 X129.157 Y77.709 E0.01487
G1 X128.996 Y78.191 E0.01593
G1 X128.755 Y79.223 E0.03323
G1 X128.633 Y79.931 E0.02255
G1 X128.480 Y81.024 E0.03461
G1 X127.540 Y77.428 E0.11654
G1 X126.182 Y77.242 E0.04295
G1 X125.092 Y80.792 E0.11643
G1 X124.990 Y79.871 E0.02904
G1 X124.834 Y79.033 E0.02675
G1 X124.607 Y78.253 E0.02546
G1 X124.391 Y77.757 E0.01697
G1 X124.124 Y77.316 E0.01616
G1 X123.946 Y77.093 E0.00893
G1 X123.522 Y76.677 E0.01865
G1 X123.040 Y76.316 E0.01886
G1 X122.515 Y76.016 E0.01897
G1 X121.954 Y75.774 E0.01914
G1 X121.366 Y75.590 E0.01934
G1 X120.753 Y75.458 E0.01963
G1 X120.124 Y75.381 E0.01990
G1 X119.483 Y75.355 E0.02008
G1 X118.855 Y75.380 E0.01972
G1 X118.193 Y75.457 E0.02089
G1 X117.553 Y75.583 E0.02046
G1 X116.924 Y75.759 E0.02048
G1 X116.311 Y75.984 E0.02046
G1 X115.721 Y76.260 E0.02042
G1 X115.160 Y76.586 E0.02034
G1 X114.635 Y76.962 E0.02026
G1 X114.151 Y77.392 E0.02029
G1 X113.718 Y77.874 E0.02032
G1 X113.343 Y78.408 E0.02045
G1 X113.034 Y78.991 E0.02070
G1 X112.799 Y79.625 E0.02119
G1 X112.647 Y80.304 E0.02183
G1 X112.584 Y81.023 E0.02262
G1 X112.614 Y81.782 E0.02381
G1 X112.745 Y82.569 E0.02501
G1 X112.887 Y83.129 E0.01814
G1 X113.057 Y83.667 E0.01769
G1 X113.255 Y84.189 E0.01750
G1 X113.479 Y84.694 E0.01733
G1 X113.728 Y85.183 E0.01720
G1 X114.002 Y85.662 E0.01732
G1 X114.601 Y86.556 E0.03375
G1 X115.273 Y87.391 E0.03360
G1 X115.650 Y87.805 E0.01755
G1 X116.389 Y88.539 E0.03265
G1 X116.789 Y88.898 E0.01688
G1 X117.595 Y89.560 E0.03268
G1 X118.015 Y89.879 E0.01654
G1 X118.853 Y90.466 E0.03209
G1 X119.914 Y91.134 E0.03929
G1 X121.341 Y91.933 E0.05127
G1 X120.296 Y91.552 E0.03486
