; generated by Slic3r Prusa Edition 1.41.0+win64 on 2018-11-01 at 13:55:28

; 

; external perimeters extrusion width = 0.45mm
; perimeters extrusion width = 0.45mm
; infill extrusion width = 0.45mm
; solid infill extrusion width = 0.45mm
; top infill extrusion width = 0.40mm
; first layer extrusion width = 0.42mm

M201 X1000 Y1000 Z1000 E5000 ; sets maximum accelerations, mm/sec^2
M203 X200 Y200 Z12 E120 ; sets maximum feedrates, mm/sec
M204 P1250 R1250 T1250 ; sets acceleration (P, T) and retract acceleration (R), mm/sec^2
M205 X8.00 Y8.00 Z0.40 E1.50 ; sets the jerk limits, mm/sec
M205 S0 T0 ; sets the minimum extruding and travel feed rate, mm/sec
M107
M115 U3.4.1 ; tell printer latest fw version
M83  ; extruder relative mode
M104 S230 ; set extruder temp
M140 S85 ; set bed temp
M190 S85 ; wait for bed temp
M109 S230 ; wait for extruder temp
G28 W ; home all without mesh bed level
G80 ; mesh bed leveling
G1 Y-3.0 F1000.0 ; go outside print area
G92 E0.0
G1 X60.0 E9.0  F1000.0 ; intro line
M73 Q0 S29
M73 P0 R28
G1 X100.0 E12.5  F1000.0 ; intro line
G92 E0.0
M221 S95
M900 K45; Filament gcode
G21 ; set units to millimeters
G90 ; use absolute coordinates
M83 ; use relative distances for extrusion
;BEFORE_LAYER_CHANGE
G92 E0.0
;0.2


G1 E-0.80000 F2100.00000
G1 Z0.600 F10800.000
;AFTER_LAYER_CHANGE
;0.2
G1 X105.785 Y63.257
G1 Z0.200
G1 E0.80000 F2100.00000
M204 S1000
G1 F1800
G1 X106.741 Y61.941 E0.05099
G1 X108.630 Y59.810 E0.08930
G1 X109.813 Y58.713 E0.05056
G1 X112.076 Y56.977 E0.08946
G1 X114.557 Y55.496 E0.09056
G1 X116.091 Y54.753 E0.05348
G1 X117.890 Y54.028 E0.06080
G1 X119.438 Y53.601 E0.05035
G1 X123.306 Y52.965 E0.12291
G1 X125.384 Y52.791 E0.06537
G1 X127.373 Y52.880 E0.06244
G1 X129.997 Y53.320 E0.08340
G1 X132.391 Y53.993 E0.07798
G1 X134.374 Y54.719 E0.06621
G1 X136.296 Y55.604 E0.06634
G1 X138.194 Y56.715 E0.06897
G1 X140.018 Y58.030 E0.07049
G1 X141.742 Y59.537 E0.07179
G1 X143.363 Y61.256 E0.07408
G1 X144.835 Y63.160 E0.07546
G1 X146.124 Y65.230 E0.07646
G1 X147.172 Y67.386 E0.07516
G1 X148.069 Y69.900 E0.08370
G1 X148.622 Y72.295 E0.07708
G1 X148.951 Y75.351 E0.09636
G1 X148.903 Y78.037 E0.08423
G1 X148.541 Y80.742 E0.08558
G1 X147.809 Y83.624 E0.09324
G1 X147.166 Y85.413 E0.05961
G1 X146.275 Y87.383 E0.06776
G1 X144.948 Y89.622 E0.08162
G1 X144.063 Y90.845 E0.04732
G1 X142.309 Y92.852 E0.08361
G1 X140.377 Y94.616 E0.08201
G1 X129.426 Y103.399 E0.44016
G1 X128.463 Y104.010 E0.03574
G1 X127.478 Y104.411 E0.03336
G1 X126.881 Y104.566 E0.01932
G1 X125.685 Y104.721 E0.03783
G1 X124.599 Y104.686 E0.03407
G1 X123.533 Y104.487 E0.03399
G1 X122.530 Y104.134 E0.03334
G1 X121.484 Y103.553 E0.03750
G1 X110.356 Y94.356 E0.45268
G1 X108.916 Y93.035 E0.06125
G1 X107.548 Y91.565 E0.06297
G1 X106.333 Y90.034 E0.06129
G1 X105.216 Y88.373 E0.06277
G1 X104.241 Y86.639 E0.06238
G1 X103.374 Y84.744 E0.06533
G1 X102.592 Y82.399 E0.07750
G1 X102.167 Y80.532 E0.06005
G1 X101.875 Y78.530 E0.06342
G1 X101.749 Y76.452 E0.06528
G1 X101.820 Y74.374 E0.06519
G1 X102.124 Y72.274 E0.06654
G1 X102.815 Y69.560 E0.08779
G1 X103.618 Y67.301 E0.07518
G1 X104.321 Y65.770 E0.05283
G1 X105.755 Y63.309 E0.08931
; PURGING FINISHED
G1 F8640
G1 X106.741 Y61.941 E-0.38932
G1 X107.806 Y60.740 E-0.37068
G1 E-0.04000 F2100.00000
G1 Z0.800 F10800.000
G1 X124.329 Y96.401
G1 Z0.200
G1 E0.80000 F2100.00000
G1 F1800
G1 X124.563 Y96.292 E0.00809
G1 X124.812 Y96.213 E0.00820
G1 X125.071 Y96.164 E0.00827
G1 X125.336 Y96.147 E0.00831
G1 X125.613 Y96.163 E0.00869
G1 X125.872 Y96.213 E0.00828
G1 X126.121 Y96.292 E0.00820
G1 X126.356 Y96.401 E0.00809
G1 X126.573 Y96.533 E0.00798
G1 X126.774 Y96.691 E0.00801
G1 X126.954 Y96.871 E0.00799
G1 X127.112 Y97.072 E0.00801
G1 X127.245 Y97.289 E0.00798
G1 X127.353 Y97.524 E0.00809
G1 X127.432 Y97.772 E0.00816
G1 X127.482 Y98.032 E0.00832
G1 X127.498 Y98.302 E0.00848
G1 X127.482 Y98.572 E0.00848
G1 X127.432 Y98.833 E0.00832
G1 X127.353 Y99.081 E0.00816
G1 X127.245 Y99.316 E0.00812
G1 X127.112 Y99.534 E0.00800
G1 X126.954 Y99.733 E0.00798
G1 X126.774 Y99.913 E0.00798
G1 X126.573 Y100.071 E0.00799
G1 X126.356 Y100.205 E0.00800
G1 X126.121 Y100.314 E0.00811
G1 X125.872 Y100.393 E0.00822
G1 X125.612 Y100.441 E0.00826
G1 X125.343 Y100.458 E0.00847
G1 X125.072 Y100.441 E0.00851
G1 X124.813 Y100.393 E0.00827
G1 X124.563 Y100.314 E0.00822
G1 X124.328 Y100.205 E0.00811
G1 X124.111 Y100.071 E0.00800
G1 X123.911 Y99.913 E0.00799
G1 X123.731 Y99.733 E0.00798
G1 X123.573 Y99.534 E0.00798
G1 X123.440 Y99.316 E0.00800
G1 X123.332 Y99.081 E0.00812
G1 X123.253 Y98.832 E0.00817
G1 X123.204 Y98.572 E0.00829
G1 X123.186 Y98.302 E0.00849
G1 X123.204 Y98.032 E0.00849
G1 X123.253 Y97.772 E0.00829
G1 X123.332 Y97.524 E0.00818
G1 X123.440 Y97.289 E0.00809
G1 X123.569 Y97.078 E0.00778
G1 X123.730 Y96.872 E0.00820
G1 X123.911 Y96.691 E0.00800
G1 X124.112 Y96.533 E0.00801
G1 X124.278 Y96.432 E0.00610
G1 X124.337 Y96.143 F10800.000
G1 F8640
G1 X124.563 Y96.292 E-0.07338
G1 X124.812 Y96.213 E-0.06038
G1 X125.071 Y96.164 E-0.06092
G1 X125.336 Y96.147 E-0.06120
G1 X125.613 Y96.163 E-0.06399
G1 X125.872 Y96.213 E-0.06100
G1 X126.121 Y96.292 E-0.06038
G1 X126.356 Y96.401 E-0.05960
G1 X126.573 Y96.533 E-0.05879
G1 X126.774 Y96.691 E-0.05898
G1 X126.954 Y96.871 E-0.05885
G1 X127.112 Y97.072 E-0.05898
G1 X127.165 Y97.159 E-0.02357
G1 E-0.04000 F2100.00000
G1 Z0.800 F10800.000
G1 X125.048 Y94.999
G1 Z0.200
G1 E0.80000 F2100.00000
G1 F1800
G1 X122.612 Y94.864 E0.07650
G1 X121.508 Y94.733 E0.03487
G1 X120.974 Y94.641 E0.01699
G1 X120.492 Y94.532 E0.01549
G1 X119.832 Y94.315 E0.02178
G1 X119.198 Y94.014 E0.02201
G1 X118.814 Y93.794 E0.01386
G1 X119.684 Y91.694 E0.07125
G1 X120.019 Y91.054 E0.02266
G1 X120.211 Y90.763 E0.01093
G1 X120.420 Y90.506 E0.01039
G1 X120.651 Y90.286 E0.01001
G1 X120.912 Y90.116 E0.00976
G1 X121.195 Y90.012 E0.00946
G1 X121.503 Y89.964 E0.00977
G1 X121.825 Y89.946 E0.01012
G1 X122.540 Y89.983 E0.02247
G1 X122.923 Y90.037 E0.01212
G1 X123.666 Y90.197 E0.02384
G1 X124.334 Y90.424 E0.02210
G1 X124.624 Y90.564 E0.01010
G1 X124.868 Y90.719 E0.00907
G1 X125.065 Y90.901 E0.00840
G1 X125.201 Y91.136 E0.00853
G1 X125.050 Y94.939 E0.11933
G1 X125.033 Y95.398 F10800.000
G1 F8640
G1 X122.612 Y94.864 E-0.56329
G1 X121.766 Y94.764 E-0.19671
G1 E-0.04000 F2100.00000
G1 Z0.800 F10800.000
G1 X120.333 Y90.067
G1 Z0.200
G1 E0.80000 F2100.00000
G1 F1800
G1 X120.141 Y90.250 E0.00832
G1 X120.142 Y90.070 E0.00567
G1 X120.273 Y90.068 E0.00410
G1 X120.525 Y89.688 F10800.000
G1 F1800
G1 X121.978 Y85.708 E0.13285
G1 X122.306 Y85.630 E0.01058
G1 X122.579 Y85.604 E0.00861
G1 X123.147 Y85.620 E0.01780
G1 X124.059 Y85.763 E0.02894
G1 X124.862 Y85.979 E0.02607
G1 X125.245 Y86.132 E0.01293
G1 X125.475 Y86.269 E0.00840
G1 X125.256 Y90.650 E0.13755
G1 X124.698 Y90.197 E0.02253
G1 X124.459 Y90.046 E0.00886
G1 X124.207 Y89.926 E0.00877
G1 X123.938 Y89.833 E0.00891
G1 X123.654 Y89.762 E0.00917
G1 X123.358 Y89.714 E0.00942
G1 X122.707 Y89.664 E0.02046
G1 X120.585 Y89.688 E0.06654
G1 X120.136 Y89.595 F10800.000
G1 F8640
G1 X121.673 Y86.581 E-0.76000
G1 E-0.04000 F2100.00000
G1 Z0.800 F10800.000
G1 X122.244 Y85.210
G1 Z0.200
G1 E0.80000 F2100.00000
G1 F1800
G1 X122.244 Y84.947 E0.00823
G1 X122.410 Y84.479 E0.01559
G1 X122.744 Y83.642 E0.02825
G1 X123.505 Y81.854 E0.06091
G1 X123.972 Y81.877 E0.01466
G1 X124.684 Y81.983 E0.02259
G1 X125.128 Y82.128 E0.01464
G1 X125.358 Y82.281 E0.00867
G1 X125.469 Y82.434 E0.00593
G1 X125.469 Y85.786 E0.10509
G1 X124.996 Y85.786 E0.01483
G1 X124.625 Y85.613 E0.01284
G1 X124.292 Y85.521 E0.01084
G1 X122.981 Y85.355 E0.04143
G1 X122.303 Y85.222 E0.02167
G1 X121.982 Y85.197 F10800.000
G1 F8640
G1 X122.244 Y84.947 E-0.06474
G1 X122.410 Y84.479 E-0.11482
G1 X122.744 Y83.642 E-0.20803
G1 X123.375 Y82.158 E-0.37241
G1 E-0.04000 F2100.00000
G1 Z0.800 F10800.000
G1 X123.147 Y81.774
G1 Z0.200
G1 E0.80000 F2100.00000
G1 F1800
G1 X122.943 Y82.497 E0.02355
G1 X122.463 Y83.807 E0.04375
G1 X122.168 Y84.486 E0.02322
G1 X121.957 Y84.882 E0.01407
G1 X121.709 Y85.211 E0.01291
G1 X121.268 Y84.691 E0.02136
G1 X120.987 Y84.438 E0.01187
G1 X120.684 Y84.218 E0.01173
G1 X119.797 Y83.645 E0.03312
G1 X119.372 Y83.323 E0.01672
G1 X120.875 Y81.597 E0.07173
G1 X121.278 Y81.183 E0.01813
G1 X121.674 Y80.837 E0.01648
G1 X121.933 Y80.837 E0.00813
G1 X123.100 Y81.737 E0.04620
G1 X123.520 Y81.920 F10800.000
G1 X123.100 Y81.472
G1 F1800
G1 X123.026 Y81.472 E0.00231
G1 X121.875 Y80.524 E0.04675
G1 X123.979 Y78.371 E0.09437
G1 X124.384 Y78.777 E0.01800
G1 X123.410 Y81.472 E0.08986
G1 X123.160 Y81.472 E0.00785
G1 X123.089 Y81.545 F10800.000
G1 X123.647 Y81.472
G1 F1800
G1 X123.647 Y81.340 E0.00413
G1 X123.797 Y80.811 E0.01725
G1 X124.146 Y79.742 E0.03525
G1 X124.452 Y79.073 E0.02309
G1 X124.707 Y78.708 E0.01394
G1 X124.972 Y78.454 E0.01153
G1 X125.412 Y78.783 E0.01723
G1 X125.473 Y81.957 E0.09954
G1 X124.905 Y81.957 E0.01783
G1 X123.647 Y81.581 E0.04117
G1 X123.647 Y81.532 E0.00153
G1 X123.516 Y81.456 F10800.000
G1 F8640
G1 X123.647 Y81.340 E-0.04430
G1 X123.797 Y80.811 E-0.12707
G1 X124.146 Y79.742 E-0.25961
G1 X124.452 Y79.073 E-0.17007
G1 X124.707 Y78.708 E-0.10267
G1 X124.883 Y78.539 E-0.05629
G1 E-0.04000 F2100.00000
G1 Z0.800 F10800.000
G1 X125.868 Y78.466
G1 Z0.200
G1 E0.80000 F2100.00000
G1 F1800
G1 X126.248 Y78.817 E0.01623
G1 X126.399 Y79.017 E0.00786
G1 X126.671 Y79.502 E0.01743
G1 X127.069 Y80.470 E0.03282
G1 X127.423 Y81.584 E0.03664
G1 X125.705 Y81.889 E0.05473
G1 X125.624 Y79.809 E0.06524
G1 X125.645 Y79.320 E0.01535
G1 X125.707 Y78.918 E0.01278
G1 X125.848 Y78.522 E0.01315
G1 X126.088 Y78.132 F10800.000
G1 X126.454 Y78.415
G1 F1800
G1 X127.011 Y78.162 E0.01919
G1 X127.602 Y78.610 E0.02325
G1 X128.237 Y79.226 E0.02774
G1 X128.738 Y79.815 E0.02425
G1 X129.082 Y80.276 E0.01802
G1 X129.082 Y80.639 E0.01136
G1 X128.365 Y80.988 E0.02502
G1 X127.651 Y81.262 E0.02397
G1 X127.355 Y80.562 E0.02385
G1 X126.897 Y79.681 E0.03113
G1 X126.661 Y79.174 E0.01753
G1 X126.526 Y78.772 E0.01331
G1 X126.466 Y78.474 E0.00952
G1 X126.308 Y78.043 F10800.000
G1 F8640
G1 X127.011 Y78.162 E-0.14512
G1 X127.602 Y78.610 E-0.17121
G1 X128.237 Y79.226 E-0.20431
G1 X128.738 Y79.815 E-0.17857
G1 X128.895 Y80.026 E-0.06079
G1 E-0.04000 F2100.00000
G1 Z0.800 F10800.000
G1 X127.657 Y81.941
G1 Z0.200
G1 E0.80000 F2100.00000
G1 F1800
G1 X128.785 Y85.173 E0.10730
G1 X127.828 Y85.257 E0.03011
G1 X127.224 Y85.367 E0.01925
G1 X126.394 Y85.571 E0.02682
G1 X125.741 Y85.769 E0.02139
G1 X125.639 Y82.215 E0.11148
G1 X126.342 Y81.972 E0.02334
G1 X126.692 Y81.901 E0.01118
G1 X127.207 Y81.880 E0.01616
G1 X127.598 Y81.933 E0.01239
G1 X128.049 Y81.858 F10800.000
G1 X127.873 Y81.855
G1 F1800
G1 X127.834 Y81.718 E0.00447
G1 X128.744 Y81.100 E0.03446
G1 X129.002 Y80.971 E0.00906
G1 X129.281 Y80.862 E0.00938
G1 X129.643 Y80.753 E0.01187
G1 X131.824 Y83.296 E0.10503
G1 X131.391 Y83.601 E0.01661
G1 X130.607 Y84.065 E0.02855
G1 X129.685 Y84.543 E0.03257
G1 X129.008 Y84.814 E0.02285
G1 X128.237 Y82.987 E0.06217
G1 X128.072 Y82.549 E0.01468
G1 X127.890 Y81.912 E0.02077
G1 X127.735 Y81.821 F10800.000
G1 F8640
G1 X127.834 Y81.718 E-0.04674
G1 X128.744 Y81.100 E-0.25380
G1 X129.002 Y80.971 E-0.06670
G1 X129.281 Y80.862 E-0.06911
G1 X129.643 Y80.753 E-0.08743
G1 X130.309 Y81.530 E-0.23622
G1 E-0.04000 F2100.00000
G1 Z0.800 F10800.000
G1 X132.106 Y83.601
G1 Z0.200
G1 E0.80000 F2100.00000
G1 F1800
G1 X135.092 Y86.773 E0.13658
G1 X134.516 Y86.804 E0.01809
G1 X134.280 Y86.853 E0.00755
G1 X133.927 Y87.001 E0.01202
G1 X132.947 Y87.593 E0.03590
G1 X132.599 Y87.849 E0.01354
G1 X131.352 Y88.983 E0.05285
G1 X130.836 Y89.327 E0.01943
G1 X129.156 Y85.317 E0.13631
G1 X130.002 Y84.724 E0.03239
G1 X130.663 Y84.315 E0.02438
G1 X131.244 Y83.992 E0.02084
G1 X131.684 Y83.778 E0.01535
G1 X132.051 Y83.624 E0.01246
G1 X132.426 Y83.361 F10800.000
G1 F8640
G1 X134.338 Y85.992 E-0.76000
G1 E-0.04000 F2100.00000
G1 Z0.800 F10800.000
G1 X129.146 Y85.797
G1 Z0.200
G1 E0.80000 F2100.00000
G1 F1800
G1 X129.817 Y87.673 E0.06247
G1 X130.138 Y88.703 E0.03383
G1 X130.364 Y89.583 E0.02851
G1 X129.597 Y89.489 E0.02424
G1 X129.192 Y89.464 E0.01274
G1 X128.834 Y89.465 E0.01122
G1 X128.211 Y89.536 E0.01964
G1 X127.676 Y89.675 E0.01734
G1 X126.312 Y90.186 E0.04568
G1 X125.707 Y90.373 E0.01985
G1 X125.734 Y87.982 E0.07498
G1 X125.828 Y86.032 E0.06119
G1 X127.322 Y85.638 E0.04845
G1 X127.816 Y85.559 E0.01568
G1 X128.326 Y85.555 E0.01599
G1 X128.578 Y85.593 E0.00801
G1 X128.830 Y85.661 E0.00816
G1 X129.091 Y85.773 E0.00891
G1 X129.543 Y85.751 F10800.000
G1 F8640
G1 X129.817 Y87.673 E-0.46958
G1 X130.138 Y88.703 E-0.24916
G1 X130.182 Y88.876 E-0.04127
G1 E-0.04000 F2100.00000
G1 Z0.800 F10800.000
G1 X130.211 Y89.907
G1 Z0.200
G1 E0.80000 F2100.00000
G1 F1800
G1 X130.435 Y90.136 E0.01006
G1 X130.610 Y90.368 E0.00910
G1 X130.921 Y90.914 E0.01971
G1 X131.199 Y91.548 E0.02172
G1 X131.549 Y92.528 E0.03261
G1 X131.948 Y93.835 E0.04285
G1 X130.997 Y94.205 E0.03200
G1 X130.577 Y94.340 E0.01382
G1 X129.707 Y94.573 E0.02824
G1 X129.249 Y94.671 E0.01469
G1 X128.311 Y94.831 E0.02983
G1 X127.826 Y94.892 E0.01533
G1 X126.846 Y94.976 E0.03083
G1 X125.642 Y95.014 E0.03779
G1 X125.642 Y91.040 E0.12461
G1 X125.912 Y90.781 E0.01174
G1 X126.175 Y90.594 E0.01010
G1 X126.474 Y90.430 E0.01069
G1 X126.802 Y90.286 E0.01125
G1 X127.159 Y90.161 E0.01185
G1 X127.911 Y89.972 E0.02433
G1 X128.691 Y89.863 E0.02468
G1 X129.093 Y89.840 E0.01262
G1 X129.808 Y89.856 E0.02245
G1 X130.151 Y89.899 E0.01082
G1 X130.493 Y89.754 F10800.000
G1 X130.899 Y89.851
G1 F1800
G1 X131.367 Y89.263 E0.02355
G1 X131.880 Y88.686 E0.02421
G1 X132.492 Y88.110 E0.02636
G1 X132.837 Y87.841 E0.01370
G1 X133.200 Y87.604 E0.01362
G1 X133.583 Y87.403 E0.01355
G1 X133.986 Y87.250 E0.01350
G1 X134.406 Y87.160 E0.01348
G1 X134.830 Y87.141 E0.01331
G1 X135.303 Y87.207 E0.01498
G1 X135.601 Y87.377 E0.01074
G1 X135.820 Y87.551 E0.00877
G1 X135.989 Y87.744 E0.00807
G1 X136.108 Y87.951 E0.00747
G1 X136.183 Y88.165 E0.00711
G1 X136.220 Y88.381 E0.00688
G1 X136.227 Y88.599 E0.00682
G1 X136.113 Y89.571 E0.03070
G1 X136.156 Y89.589 E0.00146
G1 X136.765 Y88.979 E0.02703
G1 X137.060 Y88.979 E0.00928
G1 X137.872 Y89.978 E0.04036
G1 X137.872 Y90.322 E0.01080
G1 X135.907 Y91.709 E0.07539
G1 X134.731 Y92.503 E0.04449
G1 X133.902 Y92.986 E0.03007
G1 X133.465 Y93.208 E0.01537
G1 X132.370 Y93.671 E0.03730
G1 X131.567 Y91.692 E0.06696
G1 X130.920 Y89.907 E0.05953
G1 X130.635 Y89.551 F10800.000
G1 F8640
G1 X131.367 Y89.263 E-0.18107
G1 X131.880 Y88.686 E-0.17830
G1 X132.492 Y88.110 E-0.19412
G1 X132.837 Y87.841 E-0.10088
G1 X133.200 Y87.604 E-0.10027
G1 X133.221 Y87.593 E-0.00536
G1 E-0.04000 F2100.00000
G1 Z0.800 F10800.000
G1 X137.080 Y88.580
G1 Z0.200
G1 E0.80000 F2100.00000
G1 F1800
G1 X139.049 Y86.001 E0.10176
G1 X140.218 Y83.894 E0.07554
G1 X141.906 Y84.770 E0.05962
G1 X141.761 Y85.218 E0.01474
G1 X141.597 Y85.575 E0.01234
G1 X141.110 Y86.417 E0.03048
G1 X140.802 Y86.884 E0.01756
G1 X140.122 Y87.827 E0.03645
G1 X139.416 Y88.687 E0.03488
G1 X139.077 Y89.051 E0.01560
G1 X138.761 Y89.352 E0.01368
G1 X138.470 Y89.577 E0.01155
G1 X138.085 Y89.769 E0.01348
G1 X137.118 Y88.626 E0.04692
G1 X136.759 Y88.341 F10800.000
G1 F8640
G1 X139.049 Y86.001 E-0.75247
G1 X139.065 Y85.972 E-0.00753
G1 E-0.04000 F2100.00000
G1 Z0.800 F10800.000
G1 X140.200 Y83.703
G1 Z0.200
G1 E0.80000 F2100.00000
G1 F1800
G1 X140.898 Y81.700 E0.06651
G1 X141.177 Y80.730 E0.03165
G1 X141.641 Y78.118 E0.08319
G1 X142.311 Y78.203 E0.02119
G1 X143.052 Y78.237 E0.02323
G1 X143.412 Y78.287 E0.01143
G1 X143.811 Y78.416 E0.01315
G1 X143.781 Y78.973 E0.01748
G1 X143.661 Y79.893 E0.02908
G1 X143.458 Y80.913 E0.03262
G1 X143.190 Y81.946 E0.03345
G1 X143.037 Y82.445 E0.01638
G1 X142.710 Y83.342 E0.02991
G1 X142.536 Y83.727 E0.01325
G1 X142.358 Y84.055 E0.01171
G1 X142.091 Y84.439 E0.01467
G1 X140.256 Y83.725 E0.06172
G1 X139.816 Y83.594 F10800.000
G1 F8640
G1 X140.898 Y81.700 E-0.49048
G1 X141.177 Y80.730 E-0.23311
G1 X141.204 Y80.575 E-0.03641
G1 E-0.04000 F2100.00000
G1 Z0.800 F10800.000
G1 X141.534 Y77.542
G1 Z0.200
G1 E0.80000 F2100.00000
G1 F1800
