; generated by Slic3r Prusa Edition 1.41.0+win64 on 2018-10-16 at 05:30:22

; 

; external perimeters extrusion width = 0.45mm
; perimeters extrusion width = 0.45mm
; infill extrusion width = 0.45mm
; solid infill extrusion width = 0.45mm
; top infill extrusion width = 0.40mm
; support material extrusion width = 0.35mm
; first layer extrusion width = 0.42mm

M201 X1000 Y1000 Z1000 E5000 ; sets maximum accelerations, mm/sec^2
M203 X200 Y200 Z12 E120 ; sets maximum feedrates, mm/sec
M204 P1250 R1250 T1250 ; sets acceleration (P, T) and retract acceleration (R), mm/sec^2
M205 X8.00 Y8.00 Z0.40 E1.50 ; sets the jerk limits, mm/sec
M205 S0 T0 ; sets the minimum extruding and travel feed rate, mm/sec
M107
M115 U3.3.1 ; tell printer latest fw version
M83  ; extruder relative mode
M104 S215 ; set extruder temp
M140 S60 ; set bed temp
M190 S60 ; wait for bed temp
M109 S215 ; wait for extruder temp
G28 W ; home all without mesh bed level
G80 ; mesh bed leveling
G1 Y-3.0 F1000.0 ; go outside print area
G92 E0.0
G1 X60.0 E9.0  F1000.0 ; intro line
M73 Q0 S83
M73 P0 R82
G1 X100.0 E12.5  F1000.0 ; intro line
G92 E0.0
M221 S95
M900 K30; Filament gcode
G21 ; set units to millimeters
G90 ; use absolute coordinates
M83 ; use relative distances for extrusion
;BEFORE_LAYER_CHANGE
G92 E0.0
;0.2


G1 E-0.80000 F2100.00000
G1 Z0.601 F10800.000
;AFTER_LAYER_CHANGE
;0.2
G1 X180.270 Y151.784
G1 Z0.202
G1 E0.80000 F2100.00000
M204 S1000
G1 F1200
G1 X179.908 Y152.427 E0.02315
G1 X179.571 Y152.761 E0.01487
G1 X179.170 Y153.015 E0.01487
G1 X178.725 Y153.176 E0.01487
G1 X178.251 Y153.237 E0.01498
G1 X155.572 Y153.238 E0.71106
G1 X147.796 Y153.054 E0.24390
G1 X86.818 Y143.734 E1.93413
G1 X81.836 Y142.399 E0.16172
G1 X80.647 Y141.833 E0.04127
G1 X79.631 Y141.101 E0.03926
G1 X78.600 Y140.008 E0.04712
G1 X77.977 Y139.037 E0.03616
G1 X77.664 Y138.373 E0.02303
G1 X77.256 Y136.994 E0.04509
G1 X77.134 Y135.874 E0.03533
G1 X77.148 Y135.119 E0.02365
G1 X81.577 Y94.977 E1.26628
G1 X81.897 Y93.470 E0.04829
G1 X82.141 Y92.701 E0.02529
G1 X82.669 Y91.604 E0.03818
G1 X83.149 Y90.893 E0.02691
G1 X83.885 Y90.067 E0.03469
G1 X84.384 Y89.631 E0.02076
G1 X85.492 Y88.905 E0.04155
G1 X125.494 Y66.809 E1.43284
G1 X126.698 Y66.386 E0.04004
G1 X128.368 Y66.163 E0.05281
G1 X140.454 Y66.161 E0.37895
G1 X141.238 Y66.294 E0.02493
G1 X141.936 Y66.679 E0.02500
G1 X179.592 Y97.113 E1.51808
G1 X179.941 Y97.471 E0.01567
G1 X180.199 Y97.899 E0.01567
G1 X180.397 Y98.798 E0.02889
G1 X180.397 Y151.060 E1.63862
G1 X180.280 Y151.725 E0.02116
G1 F8640
G1 X179.908 Y152.427 E-0.18362
G1 X179.571 Y152.761 E-0.10949
G1 X179.170 Y153.015 E-0.10949
G1 X178.725 Y153.176 E-0.10949
G1 X178.251 Y153.237 E-0.11033
G1 X177.655 Y153.237 E-0.13757
G1 E-0.04000 F2100.00000
G1 Z0.801 F10800.000
G1 X140.598 Y71.120
G1 Z0.202
G1 E0.80000 F2100.00000
G1 F1200
G1 X141.036 Y71.452 E0.01725
G1 X141.452 Y71.993 E0.02140
G1 X141.886 Y72.415 E0.01898
G1 X142.185 Y72.885 E0.01745
G1 X142.331 Y73.416 E0.01727
G1 X142.319 Y73.969 E0.01734
G1 X142.150 Y74.490 E0.01717
G1 X141.787 Y74.993 E0.01948
G1 X141.223 Y75.383 E0.02147
G1 X140.511 Y75.546 E0.02291
G1 X130.791 Y75.546 E0.30478
G1 X130.463 Y75.560 E0.01029
G1 X129.900 Y75.660 E0.01792
G1 X129.359 Y75.857 E0.01806
G1 X128.864 Y76.142 E0.01791
G1 X128.633 Y76.320 E0.00916
G1 X128.394 Y76.539 E0.01016
G1 X109.643 Y95.289 E0.83142
G1 X109.424 Y95.529 E0.01017
G1 X109.246 Y95.760 E0.00916
G1 X108.963 Y96.251 E0.01778
G1 X108.851 Y96.521 E0.00916
G1 X108.753 Y96.831 E0.01017
G1 X106.677 Y104.545 E0.25049
G1 X106.577 Y104.723 E0.00642
G1 X106.251 Y105.074 E0.01500
G1 X105.728 Y105.377 E0.01896
G1 X105.263 Y105.483 E0.01496
G1 X104.978 Y105.469 E0.00892
G1 X103.443 Y105.058 E0.04983
G1 X101.480 Y112.386 E0.23789
G1 X101.349 Y112.639 E0.00892
G1 X101.024 Y112.989 E0.01497
G1 X100.443 Y113.315 E0.02091
G1 X100.248 Y113.370 E0.00633
G1 X99.895 Y113.399 E0.01113
G1 X97.307 Y112.729 E0.08382
G1 X97.054 Y112.598 E0.00894
G1 X96.704 Y112.274 E0.01496
G1 X96.402 Y111.750 E0.01896
G1 X96.296 Y111.285 E0.01496
G1 X96.309 Y111.001 E0.00892
G1 X99.516 Y99.034 E0.38846
G1 X96.153 Y98.133 E0.10915
G1 X95.620 Y98.432 E0.01916
G1 X94.967 Y98.608 E0.02122
G1 X94.470 Y98.617 E0.01558
G1 X93.639 Y98.534 E0.02619
G1 X92.902 Y98.501 E0.02313
G1 X92.164 Y98.508 E0.02313
G1 X91.428 Y98.557 E0.02313
G1 X90.590 Y98.659 E0.02648
G1 X91.597 Y116.787 E0.56926
G1 X87.136 Y133.615 E0.54585
G1 X90.532 Y134.525 E0.11024
G1 X90.701 Y134.407 E0.00649
G1 X91.038 Y134.250 E0.01165
G1 X91.479 Y134.139 E0.01426
G1 X92.134 Y134.139 E0.02053
G1 X92.525 Y134.238 E0.01265
G1 X92.911 Y134.399 E0.01312
G1 X93.373 Y134.675 E0.01686
G1 X93.768 Y135.012 E0.01630
G1 X94.119 Y135.430 E0.01712
G1 X94.407 Y135.932 E0.01814
G1 X94.584 Y136.416 E0.01614
G1 X94.684 Y136.953 E0.01715
G1 X94.691 Y137.497 E0.01706
G1 X94.606 Y138.031 E0.01695
G1 X94.311 Y139.014 E0.03218
G1 X94.085 Y139.543 E0.01802
G1 X93.817 Y140.046 E0.01789
G1 X93.416 Y140.650 E0.02271
G1 X93.059 Y141.089 E0.01776
G1 X92.665 Y141.498 E0.01781
G1 X92.114 Y141.968 E0.02270
G1 X91.634 Y142.305 E0.01840
G1 X91.114 Y142.603 E0.01878
G1 X90.585 Y142.847 E0.01828
G1 X90.033 Y143.045 E0.01837
G1 X89.330 Y143.223 E0.02273
G1 X88.768 Y143.309 E0.01785
G1 X88.186 Y143.346 E0.01828
G1 X87.567 Y143.331 E0.01942
G1 X86.951 Y143.258 E0.01945
G1 X86.327 Y143.124 E0.02001
G1 X82.568 Y142.117 E0.12201
G1 X81.979 Y141.927 E0.01942
G1 X81.423 Y141.691 E0.01893
G1 X80.894 Y141.408 E0.01880
G1 X80.390 Y141.076 E0.01893
G1 X79.920 Y140.703 E0.01883
G1 X79.433 Y140.234 E0.02117
G1 X79.000 Y139.723 E0.02101
G1 X78.674 Y139.257 E0.01783
G1 X78.390 Y138.769 E0.01770
G1 X78.114 Y138.175 E0.02054
G1 X77.896 Y137.555 E0.02060
G1 X77.755 Y136.990 E0.01825
G1 X77.663 Y136.412 E0.01837
G1 X77.622 Y135.758 E0.02053
G1 X77.642 Y135.118 E0.02007
G1 X77.717 Y134.521 E0.01889
G1 X77.844 Y133.934 E0.01882
G1 X81.285 Y121.094 E0.41680
G1 X81.584 Y119.902 E0.03852
G1 X81.842 Y118.715 E0.03810
G1 X82.063 Y117.520 E0.03810
G1 X82.245 Y116.318 E0.03810
G1 X82.390 Y115.111 E0.03811
G1 X82.496 Y113.901 E0.03809
G1 X82.563 Y112.688 E0.03809
G1 X82.592 Y111.473 E0.03811
G1 X82.582 Y110.258 E0.03810
G1 X82.534 Y109.030 E0.03852
G1 X81.917 Y97.923 E0.34879
G1 X81.896 Y97.174 E0.02350
G1 X81.917 Y96.431 E0.02328
G1 X81.977 Y95.691 E0.02329
G1 X82.078 Y94.953 E0.02336
G1 X82.210 Y94.260 E0.02211
G1 X82.379 Y93.568 E0.02234
G1 X82.575 Y92.946 E0.02046
G1 X82.821 Y92.362 E0.01987
G1 X83.114 Y91.816 E0.01943
G1 X83.455 Y91.301 E0.01937
G1 X83.832 Y90.831 E0.01887
G1 X84.300 Y90.350 E0.02105
G1 X84.812 Y89.920 E0.02097
G1 X85.307 Y89.577 E0.01886
G1 X85.795 Y89.299 E0.01762
G1 X86.308 Y89.062 E0.01772
G1 X86.917 Y88.844 E0.02029
G1 X87.537 Y88.688 E0.02003
G1 X88.168 Y88.592 E0.02003
G1 X88.815 Y88.556 E0.02031
G1 X89.382 Y88.576 E0.01778
G1 X89.939 Y88.643 E0.01758
G1 X90.574 Y88.778 E0.02035
G1 X98.948 Y91.022 E0.27184
G1 X99.294 Y91.097 E0.01111
G1 X99.606 Y91.135 E0.00985
G1 X99.920 Y91.142 E0.00985
G1 X100.234 Y91.120 E0.00985
G1 X100.544 Y91.068 E0.00985
G1 X100.847 Y90.986 E0.00985
G1 X101.141 Y90.877 E0.00985
G1 X101.424 Y90.739 E0.00985
G1 X101.692 Y90.576 E0.00985
G1 X101.944 Y90.388 E0.00985
G1 X102.206 Y90.149 E0.01111
G1 X123.752 Y68.603 E0.95541
G1 X124.213 Y68.185 E0.01949
G1 X124.638 Y67.862 E0.01674
G1 X125.090 Y67.572 E0.01685
G1 X125.685 Y67.262 E0.02101
G1 X126.178 Y67.059 E0.01674
G1 X126.690 Y66.896 E0.01683
G1 X127.311 Y66.755 E0.01997
G1 X127.940 Y66.674 E0.01989
G1 X128.462 Y66.652 E0.01639
G1 X140.495 Y66.652 E0.37727
G1 X140.868 Y66.700 E0.01181
G1 X141.265 Y66.837 E0.01317
G1 X141.681 Y67.107 E0.01553
G1 X141.944 Y67.381 E0.01192
G1 X142.151 Y67.711 E0.01222
G1 X142.314 Y68.206 E0.01632
G1 X142.337 Y68.726 E0.01633
G1 X142.225 Y69.209 E0.01556
G1 X141.926 Y69.740 E0.01911
G1 X141.445 Y70.213 E0.02115
G1 X141.156 Y70.616 E0.01555
G1 X140.642 Y71.080 E0.02170
G1 F8640
G1 X141.036 Y71.452 E-0.12516
G1 X141.452 Y71.993 E-0.15757
G1 X141.886 Y72.415 E-0.13978
G1 X142.185 Y72.885 E-0.12851
G1 X142.331 Y73.416 E-0.12722
G1 X142.323 Y73.770 E-0.08176
G1 E-0.04000 F2100.00000
G1 Z0.801 F10800.000
G1 X139.621 Y70.946
G1 Z0.202
G1 E0.80000 F2100.00000
G1 F1200
G1 X139.628 Y71.260 E0.00986
G1 X140.125 Y71.340 E0.01580
G1 X140.404 Y71.452 E0.00939
G1 X140.755 Y71.705 E0.01359
G1 X141.171 Y72.247 E0.02139
G1 X141.584 Y72.642 E0.01794
G1 X141.830 Y73.015 E0.01399
G1 X141.960 Y73.487 E0.01535
G1 X141.943 Y73.925 E0.01375
G1 X141.803 Y74.339 E0.01370
G1 X141.504 Y74.742 E0.01573
G1 X141.085 Y75.028 E0.01593
G1 X140.489 Y75.169 E0.01921
G1 X130.783 Y75.169 E0.30433
G1 X130.434 Y75.184 E0.01093
G1 X130.116 Y75.226 E0.01006
G1 X129.803 Y75.296 E0.01006
G1 X129.497 Y75.392 E0.01006
G1 X129.200 Y75.515 E0.01008
G1 X128.915 Y75.663 E0.01006
G1 X128.645 Y75.836 E0.01006
G1 X128.390 Y76.031 E0.01006
G1 X128.133 Y76.267 E0.01093
G1 X109.371 Y95.028 E0.83194
G1 X109.135 Y95.286 E0.01095
G1 X108.940 Y95.540 E0.01006
G1 X108.767 Y95.811 E0.01006
G1 X108.619 Y96.096 E0.01006
G1 X108.496 Y96.392 E0.01006
G1 X108.391 Y96.725 E0.01094
G1 X106.334 Y104.388 E0.24877
G1 X106.279 Y104.492 E0.00369
G1 X106.035 Y104.763 E0.01144
G1 X105.567 Y105.034 E0.01697
G1 X105.212 Y105.108 E0.01136
G1 X105.058 Y105.100 E0.00484
G1 X103.177 Y104.596 E0.06106
G1 X101.120 Y112.271 E0.24913
G1 X101.050 Y112.408 E0.00484
G1 X100.809 Y112.678 E0.01134
G1 X100.312 Y112.961 E0.01795
G1 X100.196 Y112.996 E0.00379
G1 X99.896 Y113.021 E0.00943
G1 X97.422 Y112.369 E0.08022
G1 X97.285 Y112.300 E0.00483
G1 X97.015 Y112.058 E0.01136
G1 X96.744 Y111.589 E0.01697
G1 X96.670 Y111.235 E0.01136
G1 X96.678 Y111.080 E0.00484
G1 X99.978 Y98.767 E0.39970
G1 X96.043 Y97.713 E0.12773
G1 X95.844 Y97.877 E0.00809
G1 X95.496 Y98.075 E0.01257
G1 X94.934 Y98.231 E0.01828
G1 X94.496 Y98.241 E0.01374
G1 X93.666 Y98.157 E0.02615
G1 X92.908 Y98.123 E0.02378
G1 X92.150 Y98.131 E0.02378
G1 X91.393 Y98.182 E0.02378
G1 X90.643 Y98.273 E0.02369
G1 X90.196 Y98.358 E0.01427
G1 X91.219 Y116.779 E0.57846
G1 X86.674 Y133.882 E0.55488
G1 X90.614 Y134.938 E0.12786
G1 X90.881 Y134.739 E0.01043
G1 X91.180 Y134.600 E0.01036
G1 X91.546 Y134.510 E0.01181
G1 X92.066 Y134.511 E0.01632
G1 X92.394 Y134.592 E0.01059
G1 X92.753 Y134.741 E0.01221
G1 X93.164 Y134.989 E0.01503
G1 X93.510 Y135.287 E0.01432
G1 X93.818 Y135.658 E0.01515
G1 X94.059 Y136.077 E0.01512
G1 X94.224 Y136.529 E0.01512
G1 X94.310 Y137.004 E0.01511
G1 X94.314 Y137.484 E0.01506
G1 X94.242 Y137.935 E0.01432
G1 X93.960 Y138.876 E0.03081
G1 X93.748 Y139.373 E0.01692
G1 X93.488 Y139.861 E0.01735
G1 X93.117 Y140.419 E0.02102
G1 X92.782 Y140.834 E0.01671
G1 X92.400 Y141.230 E0.01726
G1 X91.891 Y141.665 E0.02100
G1 X91.438 Y141.982 E0.01733
G1 X90.948 Y142.264 E0.01772
G1 X90.434 Y142.501 E0.01775
G1 X89.915 Y142.687 E0.01730
G1 X89.265 Y142.852 E0.02102
G1 X88.719 Y142.934 E0.01730
G1 X88.171 Y142.969 E0.01723
G1 X87.586 Y142.954 E0.01835
G1 X87.005 Y142.884 E0.01835
G1 X86.420 Y142.758 E0.01875
G1 X82.670 Y141.754 E0.12172
G1 X82.118 Y141.577 E0.01818
G1 X81.579 Y141.347 E0.01838
G1 X81.080 Y141.080 E0.01773
G1 X80.605 Y140.766 E0.01786
G1 X80.162 Y140.413 E0.01777
G1 X79.715 Y139.983 E0.01946
G1 X79.304 Y139.499 E0.01991
G1 X78.995 Y139.061 E0.01679
G1 X78.720 Y138.587 E0.01716
G1 X78.460 Y138.025 E0.01944
G1 X78.260 Y137.455 E0.01892
G1 X78.123 Y136.907 E0.01771
G1 X78.037 Y136.362 E0.01731
G1 X77.998 Y135.744 E0.01942
G1 X78.018 Y135.140 E0.01895
G1 X78.090 Y134.577 E0.01780
G1 X78.210 Y134.028 E0.01762
G1 X81.650 Y121.188 E0.41676
G1 X81.951 Y119.988 E0.03881
G1 X82.212 Y118.789 E0.03848
G1 X82.435 Y117.582 E0.03848
G1 X82.619 Y116.369 E0.03848
G1 X82.765 Y115.150 E0.03849
G1 X82.872 Y113.928 E0.03847
G1 X82.940 Y112.703 E0.03847
G1 X82.969 Y111.476 E0.03849
G1 X82.959 Y110.249 E0.03848
G1 X82.910 Y109.012 E0.03881
G1 X82.294 Y97.905 E0.34880
G1 X82.274 Y97.179 E0.02277
G1 X82.293 Y96.457 E0.02264
G1 X82.351 Y95.737 E0.02265
G1 X82.449 Y95.019 E0.02273
G1 X82.579 Y94.336 E0.02179
G1 X82.744 Y93.664 E0.02168
G1 X82.932 Y93.068 E0.01961
G1 X83.165 Y92.517 E0.01875
G1 X83.442 Y92.002 E0.01832
G1 X83.765 Y91.517 E0.01828
G1 X84.120 Y91.075 E0.01779
G1 X84.550 Y90.632 E0.01935
G1 X85.034 Y90.224 E0.01985
G1 X85.501 Y89.901 E0.01780
G1 X85.974 Y89.631 E0.01709
G1 X86.458 Y89.408 E0.01670
G1 X87.019 Y89.208 E0.01868
G1 X87.603 Y89.060 E0.01891
G1 X88.199 Y88.968 E0.01889
G1 X88.811 Y88.933 E0.01923
G1 X89.345 Y88.951 E0.01675
G1 X89.885 Y89.017 E0.01706
G1 X90.481 Y89.144 E0.01910
G1 X98.859 Y91.389 E0.27197
G1 X99.232 Y91.470 E0.01195
G1 X99.579 Y91.511 E0.01098
G1 X99.929 Y91.520 E0.01098
G1 X100.278 Y91.495 E0.01098
G1 X100.624 Y91.437 E0.01098
G1 X100.962 Y91.346 E0.01098
G1 X101.290 Y91.224 E0.01098
G1 X101.605 Y91.071 E0.01098
G1 X101.904 Y90.888 E0.01098
G1 X102.184 Y90.679 E0.01098
G1 X102.466 Y90.422 E0.01195
G1 X124.016 Y68.873 E0.95555
G1 X124.448 Y68.481 E0.01830
G1 X124.860 Y68.167 E0.01624
G1 X125.286 Y67.894 E0.01586
G1 X125.836 Y67.608 E0.01943
G1 X126.315 Y67.411 E0.01623
G1 X126.796 Y67.258 E0.01585
G1 X127.368 Y67.128 E0.01838
G1 X127.964 Y67.051 E0.01884
G1 X128.466 Y67.029 E0.01576
G1 X140.482 Y67.029 E0.37675
G1 X140.798 Y67.071 E0.01001
G1 X141.117 Y67.184 E0.01061
G1 X141.424 Y67.384 E0.01148
G1 X141.657 Y67.627 E0.01057
G1 X141.818 Y67.889 E0.00964
G1 X141.940 Y68.253 E0.01203
G1 X141.963 Y68.673 E0.01319
G1 X141.881 Y69.054 E0.01222
G1 X141.641 Y69.492 E0.01564
G1 X141.156 Y69.969 E0.02132
G1 X140.881 Y70.358 E0.01495
G1 X140.605 Y70.620 E0.01194
G1 X140.243 Y70.819 E0.01293
G1 X139.680 Y70.934 E0.01802
G1 F8640
G1 X139.628 Y71.260 E-0.07631
G1 X140.125 Y71.340 E-0.11632
G1 X140.404 Y71.452 E-0.06916
G1 X140.755 Y71.705 E-0.10010
G1 X141.171 Y72.247 E-0.15756
G1 X141.584 Y72.642 E-0.13213
G1 X141.830 Y73.015 E-0.10301
G1 X141.836 Y73.037 E-0.00541
G1 E-0.04000 F2100.00000
G1 Z0.801 F10800.000
G1 X134.648 Y70.542
G1 Z0.202
G1 E0.80000 F2100.00000
G1 F1200
G1 X134.648 Y71.657 E0.03495
G1 X139.716 Y71.657 E0.15890
G1 X140.007 Y71.699 E0.00923
G1 X140.240 Y71.792 E0.00785
G1 X140.507 Y71.990 E0.01043
G1 X140.888 Y72.499 E0.01994
G1 X141.282 Y72.869 E0.01693
G1 X141.497 Y73.194 E0.01222
G1 X141.587 Y73.548 E0.01146
G1 X141.569 Y73.874 E0.01023
G1 X141.460 Y74.182 E0.01024
G1 X141.227 Y74.484 E0.01197
G1 X140.909 Y74.693 E0.01193
G1 X140.469 Y74.792 E0.01414
G1 X130.774 Y74.792 E0.30397
G1 X130.401 Y74.808 E0.01171
G1 X130.051 Y74.854 E0.01109
G1 X129.705 Y74.931 E0.01109
G1 X129.368 Y75.037 E0.01109
G1 X129.040 Y75.173 E0.01111
G1 X128.726 Y75.336 E0.01109
G1 X128.428 Y75.526 E0.01109
G1 X128.147 Y75.742 E0.01109
G1 X127.872 Y75.994 E0.01170
G1 X109.098 Y94.768 E0.83245
G1 X108.846 Y95.043 E0.01172
G1 X108.631 Y95.324 E0.01109
G1 X108.440 Y95.622 E0.01109
G1 X108.277 Y95.936 E0.01109
G1 X108.142 Y96.263 E0.01109
G1 X108.029 Y96.620 E0.01172
G1 X105.973 Y104.270 E0.24839
G1 X105.817 Y104.454 E0.00757
G1 X105.408 Y104.690 E0.01477
G1 X105.171 Y104.733 E0.00757
G1 X102.910 Y104.134 E0.07334
G1 X100.760 Y112.156 E0.26040
G1 X100.590 Y112.369 E0.00856
G1 X100.170 Y112.612 E0.01522
G1 X99.898 Y112.642 E0.00856
G1 X97.537 Y112.010 E0.07664
G1 X97.324 Y111.839 E0.00856
G1 X97.088 Y111.431 E0.01477
G1 X97.045 Y111.193 E0.00757
G1 X100.439 Y98.500 E0.41197
G1 X95.945 Y97.296 E0.14589
G1 X95.640 Y97.559 E0.01263
G1 X95.330 Y97.736 E0.01120
G1 X94.901 Y97.855 E0.01394
G1 X94.522 Y97.864 E0.01191
G1 X93.693 Y97.781 E0.02610
G1 X92.915 Y97.746 E0.02444
G1 X92.135 Y97.754 E0.02444
G1 X91.358 Y97.806 E0.02444
G1 X90.585 Y97.900 E0.02441
G1 X89.801 Y98.049 E0.02502
G1 X90.841 Y116.770 E0.58788
G1 X86.213 Y134.149 E0.56390
G1 X90.698 Y135.351 E0.14558
G1 X91.060 Y135.071 E0.01434
G1 X91.323 Y134.949 E0.00909
G1 X91.572 Y134.887 E0.00805
G1 X92.002 Y134.883 E0.01346
G1 X92.265 Y134.947 E0.00850
G1 X92.573 Y135.073 E0.01044
G1 X92.931 Y135.286 E0.01304
G1 X93.251 Y135.562 E0.01326
G1 X93.516 Y135.884 E0.01310
G1 X93.722 Y136.248 E0.01310
G1 X93.864 Y136.641 E0.01309
G1 X93.936 Y137.052 E0.01309
G1 X93.937 Y137.469 E0.01307
G1 X93.877 Y137.839 E0.01175
G1 X93.608 Y138.738 E0.02944
