; generated by Slic3r Prusa Edition 1.41.0+win64 on 2018-10-23 at 10:37:56

; 

; external perimeters extrusion width = 0.45mm
; perimeters extrusion width = 0.45mm
; infill extrusion width = 0.45mm
; solid infill extrusion width = 0.45mm
; top infill extrusion width = 0.40mm
; support material extrusion width = 0.35mm
; first layer extrusion width = 0.42mm

M201 X1000 Y1000 Z1000 E5000 ; sets maximum accelerations, mm/sec^2
M203 X200 Y200 Z12 E120 ; sets maximum feedrates, mm/sec
M204 P1250 R1250 T1250 ; sets acceleration (P, T) and retract acceleration (R), mm/sec^2
M205 X8.00 Y8.00 Z0.40 E1.50 ; sets the jerk limits, mm/sec
M205 S0 T0 ; sets the minimum extruding and travel feed rate, mm/sec
M107
M115 U3.4.0 ; tell printer latest fw version
M83  ; extruder relative mode
M104 S230 ; set extruder temp
M140 S85 ; set bed temp
M190 S85 ; wait for bed temp
M109 S230 ; wait for extruder temp
G28 W ; home all without mesh bed level
G80 ; mesh bed leveling
G1 Y-3.0 F1000.0 ; go outside print area
G92 E0.0
G1 X60.0 E9.0  F1000.0 ; intro line
M73 Q0 S168
M73 P0 R165
G1 X100.0 E12.5  F1000.0 ; intro line
G92 E0.0
M221 S95
M900 K45; Filament gcode
G21 ; set units to millimeters
G90 ; use absolute coordinates
M83 ; use relative distances for extrusion
;BEFORE_LAYER_CHANGE
G92 E0.0
;0.3


G1 E-0.80000 F2100.00000
G1 Z0.600 F10800.000
;AFTER_LAYER_CHANGE
;0.3
G1 X55.879 Y84.978
G1 Z0.300
G1 E0.80000 F2100.00000
M204 S1000
G1 F1500
G1 X55.680 Y84.088 E0.04045
G1 X55.713 Y65.692 E0.81598
G1 X65.749 Y23.525 E1.92251
G1 X65.919 Y23.076 E0.02130
G1 X66.186 Y22.673 E0.02146
G1 X66.536 Y22.338 E0.02146
G1 X66.947 Y22.090 E0.02130
G1 X67.392 Y21.941 E0.02082
G1 X67.856 Y21.891 E0.02066
G1 X192.862 Y21.891 E5.54462
G1 X193.556 Y22.006 E0.03123
G1 X194.178 Y22.337 E0.03123
G1 X194.662 Y22.848 E0.03123
G1 X194.957 Y23.488 E0.03123
G1 X205.005 Y65.704 E1.92478
G1 X205.032 Y84.200 E0.82040
G1 X204.918 Y84.774 E0.02596
G1 X204.656 Y85.297 E0.02596
G1 X204.264 Y85.732 E0.02596
G1 X203.771 Y86.046 E0.02596
G1 X203.329 Y86.195 E0.02066
G1 X202.863 Y86.247 E0.02082
G1 X57.843 Y86.247 E6.43230
G1 X57.236 Y86.156 E0.02724
G1 X56.678 Y85.899 E0.02724
G1 X56.212 Y85.494 E0.02740
G1 X55.912 Y85.029 E0.02458
; PURGING FINISHED
G1 F8640
G1 X55.680 Y84.088 E-0.22363
G1 X55.684 Y81.765 E-0.53637
G1 E-0.04000 F2100.00000
G1 Z0.900 F10800.000
G1 X90.575 Y42.372
G1 Z0.300
G1 E0.80000 F2100.00000
G1 F1500
G1 X90.575 Y34.472 E0.35041
G1 X89.864 Y34.472 E0.03155
G1 X89.864 Y42.212 E0.34331
G1 X89.152 Y42.212 E0.03155
G1 X89.152 Y34.472 E0.34331
G1 X88.441 Y34.472 E0.03155
G1 X88.441 Y42.212 E0.34331
G1 X87.730 Y42.212 E0.03155
G1 X87.730 Y34.472 E0.34331
G1 X87.019 Y34.472 E0.03155
G1 X87.019 Y42.212 E0.34331
G1 X86.308 Y42.212 E0.03155
G1 X86.308 Y34.472 E0.34331
G1 X85.596 Y34.472 E0.03155
G1 X85.596 Y42.212 E0.34331
G1 X84.885 Y42.212 E0.03155
G1 X84.885 Y34.472 E0.34331
G1 X84.174 Y34.472 E0.03155
G1 X84.174 Y42.212 E0.34331
G1 X83.463 Y42.212 E0.03155
G1 X83.463 Y34.472 E0.34331
G1 X82.751 Y34.472 E0.03155
G1 X82.751 Y42.212 E0.34331
G1 X82.040 Y42.212 E0.03155
G1 X82.040 Y34.472 E0.34331
G1 X81.329 Y34.472 E0.03155
G1 X81.329 Y42.212 E0.34331
G1 X80.618 Y42.212 E0.03155
G1 X80.618 Y34.472 E0.34331
G1 X79.906 Y34.472 E0.03155
G1 X79.906 Y42.212 E0.34331
G1 X79.195 Y42.212 E0.03155
G1 X79.195 Y34.312 E0.35041
G1 F8640
G1 X79.195 Y37.603 E-0.76000
G1 E-0.04000 F2100.00000
G1 Z0.900 F10800.000
G1 X109.778 Y34.312
G1 Z0.300
G1 E0.80000 F2100.00000
G1 F1500
G1 X109.778 Y42.212 E0.35041
G1 X110.490 Y42.212 E0.03155
G1 X110.490 Y34.472 E0.34331
G1 X111.201 Y34.472 E0.03155
G1 X111.201 Y42.212 E0.34331
G1 X111.912 Y42.212 E0.03155
G1 X111.912 Y34.472 E0.34331
G1 X112.623 Y34.472 E0.03155
G1 X112.623 Y42.212 E0.34331
G1 X113.335 Y42.212 E0.03155
G1 X113.335 Y34.472 E0.34331
G1 X114.046 Y34.472 E0.03155
G1 X114.046 Y42.212 E0.34331
G1 X114.757 Y42.212 E0.03155
G1 X114.757 Y34.472 E0.34331
G1 X115.468 Y34.472 E0.03155
G1 X115.468 Y42.212 E0.34331
G1 X116.180 Y42.212 E0.03155
G1 X116.180 Y34.472 E0.34331
G1 X116.891 Y34.472 E0.03155
G1 X116.891 Y42.212 E0.34331
G1 X117.602 Y42.212 E0.03155
G1 X117.602 Y34.472 E0.34331
G1 X118.313 Y34.472 E0.03155
G1 X118.313 Y42.212 E0.34331
G1 X119.024 Y42.212 E0.03155
G1 X119.024 Y34.472 E0.34331
G1 X119.736 Y34.472 E0.03155
G1 X119.736 Y42.212 E0.34331
G1 X120.447 Y42.212 E0.03155
G1 X120.447 Y34.472 E0.34331
G1 X121.158 Y34.472 E0.03155
G1 X121.158 Y42.372 E0.35041
G1 F8640
G1 X121.158 Y39.080 E-0.76000
G1 E-0.04000 F2100.00000
G1 Z0.900 F10800.000
G1 X140.362 Y34.312
G1 Z0.300
G1 E0.80000 F2100.00000
G1 F1500
G1 X140.362 Y42.212 E0.35041
G1 X141.073 Y42.212 E0.03155
G1 X141.073 Y34.472 E0.34331
G1 X141.784 Y34.472 E0.03155
G1 X141.784 Y42.212 E0.34331
G1 X142.495 Y42.212 E0.03155
G1 X142.495 Y34.472 E0.34331
G1 X143.207 Y34.472 E0.03155
G1 X143.207 Y42.212 E0.34331
G1 X143.918 Y42.212 E0.03155
G1 X143.918 Y34.472 E0.34331
G1 X144.629 Y34.472 E0.03155
G1 X144.629 Y42.212 E0.34331
G1 X145.340 Y42.212 E0.03155
G1 X145.340 Y34.472 E0.34331
G1 X146.052 Y34.472 E0.03155
G1 X146.052 Y42.212 E0.34331
G1 X146.763 Y42.212 E0.03155
G1 X146.763 Y34.472 E0.34331
G1 X147.474 Y34.472 E0.03155
G1 X147.474 Y42.212 E0.34331
G1 X148.185 Y42.212 E0.03155
G1 X148.185 Y34.472 E0.34331
G1 X148.896 Y34.472 E0.03155
G1 X148.896 Y42.212 E0.34331
G1 X149.608 Y42.212 E0.03155
G1 X149.608 Y34.472 E0.34331
G1 X150.319 Y34.472 E0.03155
G1 X150.319 Y42.212 E0.34331
G1 X151.030 Y42.212 E0.03155
G1 X151.030 Y34.472 E0.34331
G1 X151.741 Y34.472 E0.03155
G1 X151.741 Y42.372 E0.35041
G1 F8640
G1 X151.741 Y39.080 E-0.76000
G1 E-0.04000 F2100.00000
G1 Z0.900 F10800.000
G1 X167.389 Y34.312
G1 Z0.300
G1 E0.80000 F2100.00000
G1 F1500
G1 X167.389 Y42.212 E0.35041
G1 X168.100 Y42.212 E0.03155
G1 X168.100 Y34.472 E0.34331
G1 X168.811 Y34.472 E0.03155
G1 X168.811 Y42.212 E0.34331
G1 X169.522 Y42.212 E0.03155
G1 X169.522 Y34.472 E0.34331
G1 X170.234 Y34.472 E0.03155
G1 X170.234 Y42.212 E0.34331
G1 X170.945 Y42.212 E0.03155
G1 X170.945 Y34.472 E0.34331
G1 X171.656 Y34.472 E0.03155
G1 X171.656 Y42.212 E0.34331
G1 X172.367 Y42.212 E0.03155
G1 X172.367 Y34.472 E0.34331
G1 X173.079 Y34.472 E0.03155
G1 X173.079 Y42.212 E0.34331
G1 X173.790 Y42.212 E0.03155
G1 X173.790 Y34.472 E0.34331
G1 X174.501 Y34.472 E0.03155
G1 X174.501 Y42.212 E0.34331
G1 X175.212 Y42.212 E0.03155
G1 X175.212 Y34.472 E0.34331
G1 X175.923 Y34.472 E0.03155
G1 X175.923 Y42.212 E0.34331
G1 X176.635 Y42.212 E0.03155
G1 X176.635 Y34.472 E0.34331
G1 X177.346 Y34.472 E0.03155
G1 X177.346 Y42.212 E0.34331
G1 X178.057 Y42.212 E0.03155
G1 X178.057 Y34.472 E0.34331
G1 X178.768 Y34.472 E0.03155
G1 X178.768 Y42.212 E0.34331
G1 X179.480 Y42.212 E0.03155
G1 X179.480 Y34.472 E0.34331
G1 X180.191 Y34.472 E0.03155
G1 X180.191 Y42.212 E0.34331
G1 X180.902 Y42.212 E0.03155
G1 X180.902 Y34.472 E0.34331
G1 X181.613 Y34.472 E0.03155
G1 X181.613 Y42.372 E0.35041
G1 F8640
G1 X181.613 Y39.080 E-0.76000
G1 E-0.04000 F2100.00000
G1 Z0.900 F10800.000
G1 X177.988 Y74.004
G1 Z0.300
G1 E0.80000 F2100.00000
G1 F1500
G1 X178.504 Y74.070 E0.02308
G1 X179.002 Y74.222 E0.02308
G1 X179.466 Y74.457 E0.02308
G1 X179.885 Y74.766 E0.02308
G1 X180.245 Y75.142 E0.02308
G1 X180.536 Y75.573 E0.02308
G1 X180.750 Y76.047 E0.02308
G1 X180.882 Y76.550 E0.02308
G1 X180.926 Y77.069 E0.02308
G1 X180.882 Y77.587 E0.02308
G1 X180.750 Y78.091 E0.02308
G1 X180.536 Y78.565 E0.02308
G1 X180.245 Y78.996 E0.02308
G1 X179.885 Y79.372 E0.02308
G1 X179.466 Y79.681 E0.02308
G1 X179.002 Y79.915 E0.02308
G1 X178.504 Y80.068 E0.02308
G1 X177.988 Y80.134 E0.02308
G1 X177.466 Y80.112 E0.02318
G1 X176.938 Y79.993 E0.02401
G1 X176.477 Y79.808 E0.02204
G1 X176.034 Y79.535 E0.02308
G1 X175.643 Y79.191 E0.02308
G1 X175.316 Y78.787 E0.02308
G1 X175.063 Y78.332 E0.02308
G1 X174.889 Y77.842 E0.02308
G1 X174.801 Y77.329 E0.02308
G1 X174.801 Y76.806 E0.02318
G1 X174.897 Y76.274 E0.02401
G1 X175.063 Y75.805 E0.02204
G1 X175.316 Y75.351 E0.02308
G1 X175.643 Y74.946 E0.02308
G1 X176.034 Y74.602 E0.02308
G1 X176.477 Y74.330 E0.02308
G1 X176.962 Y74.135 E0.02318
G1 X177.492 Y74.025 E0.02401
G1 X177.928 Y74.006 E0.01937
G1 X177.943 Y74.362 F10800.000
G1 F1500
G1 X178.429 Y74.419 E0.02169
G1 X178.869 Y74.554 E0.02039
G1 X179.279 Y74.760 E0.02039
G1 X179.649 Y75.034 E0.02039
G1 X179.967 Y75.366 E0.02039
G1 X180.225 Y75.747 E0.02039
G1 X180.414 Y76.166 E0.02039
G1 X180.530 Y76.611 E0.02039
G1 X180.569 Y77.069 E0.02039
G1 X180.530 Y77.527 E0.02039
G1 X180.414 Y77.972 E0.02039
G1 X180.225 Y78.391 E0.02039
G1 X179.967 Y78.772 E0.02039
G1 X179.649 Y79.104 E0.02039
G1 X179.279 Y79.377 E0.02039
G1 X178.869 Y79.584 E0.02039
G1 X178.429 Y79.719 E0.02039
G1 X177.973 Y79.777 E0.02039
G1 X177.513 Y79.758 E0.02043
G1 X177.044 Y79.653 E0.02132
G1 X176.638 Y79.489 E0.01942
G1 X176.246 Y79.248 E0.02039
G1 X175.901 Y78.944 E0.02039
G1 X175.612 Y78.587 E0.02039
G1 X175.388 Y78.185 E0.02039
G1 X175.235 Y77.752 E0.02039
G1 X175.157 Y77.299 E0.02039
G1 X175.157 Y76.838 E0.02043
G1 X175.242 Y76.365 E0.02132
G1 X175.388 Y75.952 E0.01942
G1 X175.612 Y75.551 E0.02039
G1 X175.901 Y75.193 E0.02039
G1 X176.246 Y74.889 E0.02039
G1 X176.638 Y74.648 E0.02039
G1 X177.065 Y74.477 E0.02043
G1 X177.536 Y74.379 E0.02132
G1 X177.883 Y74.364 E0.01544
G1 X178.155 Y74.022 F10800.000
G1 F8640
G1 X178.429 Y74.419 E-0.12664
G1 X178.869 Y74.554 E-0.10616
G1 X179.279 Y74.760 E-0.10616
G1 X179.649 Y75.034 E-0.10616
G1 X179.967 Y75.366 E-0.10616
G1 X180.225 Y75.747 E-0.10616
G1 X180.407 Y76.151 E-0.10255
G1 E-0.04000 F2100.00000
G1 Z0.900 F10800.000
G1 X85.926 Y77.069
G1 Z0.300
G1 E0.80000 F2100.00000
G1 F1500
G1 X85.882 Y77.587 E0.02308
G1 X85.750 Y78.091 E0.02308
G1 X85.536 Y78.565 E0.02308
G1 X85.245 Y78.996 E0.02308
G1 X84.885 Y79.372 E0.02308
G1 X84.466 Y79.681 E0.02308
G1 X84.002 Y79.915 E0.02308
G1 X83.504 Y80.068 E0.02308
G1 X82.988 Y80.134 E0.02308
G1 X82.466 Y80.112 E0.02318
G1 X81.938 Y79.993 E0.02401
G1 X81.477 Y79.808 E0.02204
G1 X81.034 Y79.535 E0.02308
G1 X80.643 Y79.191 E0.02308
G1 X80.316 Y78.787 E0.02308
G1 X80.063 Y78.332 E0.02308
G1 X79.889 Y77.842 E0.02308
G1 X79.801 Y77.329 E0.02308
G1 X79.801 Y76.806 E0.02318
G1 X79.897 Y76.274 E0.02401
G1 X80.063 Y75.805 E0.02204
G1 X80.316 Y75.351 E0.02308
G1 X80.643 Y74.946 E0.02308
G1 X81.034 Y74.602 E0.02308
G1 X81.477 Y74.330 E0.02308
G1 X81.962 Y74.135 E0.02318
G1 X82.492 Y74.025 E0.02401
G1 X82.988 Y74.004 E0.02204
G1 X83.504 Y74.070 E0.02308
G1 X84.002 Y74.222 E0.02308
G1 X84.466 Y74.457 E0.02308
G1 X84.885 Y74.766 E0.02308
G1 X85.245 Y75.142 E0.02308
G1 X85.537 Y75.575 E0.02318
G1 X85.756 Y76.070 E0.02401
G1 X85.882 Y76.550 E0.02204
G1 X85.921 Y77.009 E0.02042
G1 X85.566 Y77.039 F10800.000
G1 F1500
G1 X85.530 Y77.527 E0.02169
G1 X85.414 Y77.972 E0.02039
G1 X85.225 Y78.391 E0.02039
G1 X84.967 Y78.772 E0.02039
G1 X84.649 Y79.104 E0.02039
G1 X84.279 Y79.377 E0.02039
G1 X83.869 Y79.584 E0.02039
G1 X83.429 Y79.719 E0.02039
G1 X82.973 Y79.777 E0.02039
G1 X82.513 Y79.758 E0.02043
G1 X82.044 Y79.653 E0.02132
G1 X81.638 Y79.489 E0.01942
G1 X81.246 Y79.248 E0.02039
G1 X80.901 Y78.944 E0.02039
G1 X80.612 Y78.587 E0.02039
G1 X80.388 Y78.185 E0.02039
G1 X80.235 Y77.752 E0.02039
G1 X80.157 Y77.299 E0.02039
G1 X80.157 Y76.838 E0.02043
G1 X80.242 Y76.365 E0.02132
G1 X80.388 Y75.952 E0.01942
G1 X80.612 Y75.551 E0.02039
G1 X80.901 Y75.193 E0.02039
G1 X81.246 Y74.889 E0.02039
G1 X81.638 Y74.648 E0.02039
G1 X82.065 Y74.477 E0.02043
G1 X82.536 Y74.379 E0.02132
G1 X82.973 Y74.360 E0.01942
G1 X83.429 Y74.419 E0.02039
G1 X83.869 Y74.554 E0.02039
G1 X84.279 Y74.760 E0.02039
G1 X84.649 Y75.034 E0.02039
G1 X84.967 Y75.366 E0.02039
G1 X85.225 Y75.747 E0.02043
G1 X85.419 Y76.187 E0.02132
G1 X85.530 Y76.611 E0.01942
G1 X85.561 Y76.979 E0.01641
G1 X85.914 Y77.237 F10800.000
G1 F8640
G1 X85.530 Y77.527 E-0.12663
G1 X85.414 Y77.972 E-0.10616
G1 X85.225 Y78.391 E-0.10616
G1 X84.967 Y78.772 E-0.10616
G1 X84.649 Y79.104 E-0.10616
G1 X84.279 Y79.377 E-0.10616
G1 X83.883 Y79.577 E-0.10255
G1 E-0.04000 F2100.00000
G1 Z0.900 F10800.000
G1 X77.292 Y33.503
G1 Z0.300
G1 E0.80000 F2100.00000
G1 F1500
G1 X183.424 Y33.503 E4.70743
G1 X183.424 Y61.634 E1.24776
G1 X77.292 Y61.634 E4.70743
M73 Q0 S167
M73 P0 R164
G1 X77.292 Y33.563 E1.24509
G1 X77.648 Y33.859 F10800.000
G1 F1500
G1 X183.068 Y33.859 E4.67588
G1 X183.068 Y61.279 E1.21621
G1 X77.648 Y61.279 E4.67588
G1 X77.648 Y33.919 E1.21355
G1 X77.478 Y33.497 F10800.000
G1 F8640
G1 X80.939 Y33.917 E-0.76000
G1 E-0.04000 F2100.00000
G1 Z0.900 F10800.000
G1 X192.292 Y66.634
G1 Z0.300
G1 E0.80000 F2100.00000
G1 F1500
G1 X202.292 Y66.634 E0.44355
G1 X202.292 Y83.503 E0.74821
G1 X58.424 Y83.503 E6.38127
G1 X58.424 Y66.634 E0.74821
G1 X68.424 Y66.634 E0.44355
G1 X68.424 Y24.634 E1.86290
G1 X192.292 Y24.634 E5.49418
G1 X192.292 Y66.574 E1.86024
G1 X192.648 Y66.279 F10800.000
G1 F1500
G1 X202.648 Y66.279 E0.44355
G1 X202.648 Y83.859 E0.77976
G1 X58.068 Y83.859 E6.41282
G1 X58.068 Y66.279 E0.77976
G1 X68.068 Y66.279 E0.44355
G1 X68.068 Y24.279 E1.86290
G1 X192.648 Y24.279 E5.52572
G1 X192.648 Y66.219 E1.86024
G1 X192.809 Y66.645 F10800.000
G1 F8640
G1 X195.939 Y66.239 E-0.76000
G1 E-0.04000 F2100.00000
G1 Z0.900 F10800.000
G1 X201.738 Y66.741
G1 Z0.300
G1 E0.80000 F2100.00000
G1 F1500
G1 X202.026 Y67.029 E0.01808
G1 X202.026 Y67.532 E0.02237
G1 X201.394 Y66.901 E0.03966
G1 X200.891 Y66.901 E0.02237
G1 X202.026 Y68.036 E0.07129
G1 X202.026 Y68.540 E0.02237
G1 X200.387 Y66.901 E0.10293
G1 X199.883 Y66.901 E0.02237
G1 X202.026 Y69.043 E0.13456
G1 X202.026 Y69.547 E0.02237
G1 X199.380 Y66.901 E0.16620
G1 X198.876 Y66.901 E0.02237
G1 X202.026 Y70.051 E0.19783
G1 X202.026 Y70.554 E0.02237
G1 X198.373 Y66.901 E0.22946
G1 X197.869 Y66.901 E0.02237
G1 X202.026 Y71.058 E0.26110
G1 X202.026 Y71.561 E0.02237
G1 X197.365 Y66.901 E0.29273
G1 X196.862 Y66.901 E0.02237
G1 X202.026 Y72.065 E0.32437
G1 X202.026 Y72.569 E0.02237
G1 X196.358 Y66.901 E0.35600
G1 X195.855 Y66.901 E0.02237
G1 X202.026 Y73.072 E0.38763
G1 X202.026 Y73.576 E0.02237
G1 X195.351 Y66.901 E0.41927
G1 X194.847 Y66.901 E0.02237
G1 X202.026 Y74.079 E0.45090
G1 X202.026 Y74.583 E0.02237
G1 X194.344 Y66.901 E0.48254
G1 X193.840 Y66.901 E0.02237
G1 X202.026 Y75.087 E0.51417
G1 X202.026 Y75.590 E0.02237
G1 X193.336 Y66.901 E0.54580
G1 X192.833 Y66.901 E0.02237
G1 X202.026 Y76.094 E0.57744
G1 X202.026 Y76.598 E0.02237
G1 X183.690 Y58.262 E1.15172
G1 X183.690 Y57.759 E0.02237
G1 X192.026 Y66.094 E0.52358
G1 X192.026 Y65.590 E0.02237
G1 X183.690 Y57.255 E0.52358
G1 X183.690 Y56.751 E0.02237
G1 X192.026 Y65.087 E0.52358
G1 X192.026 Y64.583 E0.02237
G1 X183.690 Y56.248 E0.52358
G1 X183.690 Y55.744 E0.02237
G1 X192.026 Y64.079 E0.52358
G1 X192.026 Y63.576 E0.02237
G1 X183.690 Y55.240 E0.52358
G1 X183.690 Y54.737 E0.02237
G1 X192.026 Y63.072 E0.52358
G1 X192.026 Y62.569 E0.02237
G1 X183.690 Y54.233 E0.52358
G1 X183.690 Y53.730 E0.02237
G1 X192.026 Y62.065 E0.52358
G1 X192.026 Y61.561 E0.02237
G1 X183.690 Y53.226 E0.52358
G1 X183.690 Y52.722 E0.02237
G1 X192.026 Y61.058 E0.52358
G1 X192.026 Y60.554 E0.02237
G1 X183.690 Y52.219 E0.52358
G1 X183.690 Y51.715 E0.02237
G1 X192.026 Y60.051 E0.52358
M73 Q1 S166
G1 X192.026 Y59.547 E0.02237
G1 X183.690 Y51.212 E0.52358
M73 P1 R163
G1 X183.690 Y50.708 E0.02237
G1 X192.026 Y59.043 E0.52358
G1 X192.026 Y58.540 E0.02237
G1 X183.690 Y50.204 E0.52358
G1 X183.690 Y49.701 E0.02237
G1 X192.026 Y58.036 E0.52358
G1 X192.026 Y57.532 E0.02237
G1 X183.690 Y49.197 E0.52358
G1 X183.690 Y48.693 E0.02237
G1 X192.026 Y57.029 E0.52358
G1 X192.026 Y56.525 E0.02237
G1 X183.690 Y48.190 E0.52358
G1 X183.690 Y47.686 E0.02237
G1 X192.026 Y56.022 E0.52358
G1 X192.026 Y55.518 E0.02237
G1 X183.690 Y47.183 E0.52358
G1 X183.690 Y46.679 E0.02237
G1 X192.026 Y55.014 E0.52358
G1 X192.026 Y54.511 E0.02237
G1 X183.690 Y46.175 E0.52358
G1 X183.690 Y45.672 E0.02237
G1 X192.026 Y54.007 E0.52358
G1 X192.026 Y53.504 E0.02237
G1 X183.690 Y45.168 E0.52358
G1 X183.690 Y44.665 E0.02237
G1 X192.026 Y53.000 E0.52358
G1 X192.026 Y52.496 E0.02237
G1 X183.690 Y44.161 E0.52358
G1 X183.690 Y43.657 E0.02237
