; generated by Slic3r Prusa Edition 1.41.0+win64 on 2018-10-23 at 10:40:18

; 

; external perimeters extrusion width = 0.45mm
; perimeters extrusion width = 0.45mm
; infill extrusion width = 0.45mm
; solid infill extrusion width = 0.45mm
; top infill extrusion width = 0.40mm
; support material extrusion width = 0.35mm
; first layer extrusion width = 0.42mm

M201 X1000 Y1000 Z1000 E5000 ; sets maximum accelerations, mm/sec^2
M203 X200 Y200 Z12 E120 ; sets maximum feedrates, mm/sec
M204 P1250 R1250 T1250 ; sets acceleration (P, T) and retract acceleration (R), mm/sec^2
M205 X8.00 Y8.00 Z0.40 E1.50 ; sets the jerk limits, mm/sec
M205 S0 T0 ; sets the minimum extruding and travel feed rate, mm/sec
M107
M115 U3.4.0 ; tell printer latest fw version
M83  ; extruder relative mode
M104 S230 ; set extruder temp
M140 S85 ; set bed temp
M190 S85 ; wait for bed temp
M109 S230 ; wait for extruder temp
G28 W ; home all without mesh bed level
G80 ; mesh bed leveling
G1 Y-3.0 F1000.0 ; go outside print area
G92 E0.0
G1 X60.0 E9.0  F1000.0 ; intro line
M73 Q0 S228
M73 P0 R222
G1 X100.0 E12.5  F1000.0 ; intro line
G92 E0.0
M221 S95
M900 K45; Filament gcode
G21 ; set units to millimeters
G90 ; use absolute coordinates
M83 ; use relative distances for extrusion
;BEFORE_LAYER_CHANGE
G92 E0.0
;0.2


G1 E-0.80000 F2100.00000
G1 Z0.600 F10800.000
;AFTER_LAYER_CHANGE
;0.2
G1 X55.870 Y84.985
G1 Z0.200
G1 E0.80000 F2100.00000
M204 S1000
G1 F1800
G1 X55.670 Y84.089 E0.02878
G1 X55.702 Y65.691 E0.57688
G1 X65.739 Y23.523 E1.35907
G1 X65.911 Y23.069 E0.01521
G1 X66.177 Y22.668 E0.01510
G1 X66.527 Y22.332 E0.01521
G1 X66.942 Y22.081 E0.01521
G1 X67.388 Y21.931 E0.01475
G1 X67.856 Y21.880 E0.01475
G1 X192.862 Y21.880 E3.91947
G1 X193.558 Y21.995 E0.02213
G1 X194.185 Y22.328 E0.02225
G1 X194.670 Y22.841 E0.02213
G1 X194.967 Y23.485 E0.02225
G1 X205.015 Y65.702 E1.36064
G1 X205.043 Y84.200 E0.58002
G1 X204.929 Y84.776 E0.01839
G1 X204.665 Y85.304 E0.01851
G1 X204.272 Y85.739 E0.01839
G1 X203.774 Y86.056 E0.01851
G1 X203.328 Y86.206 E0.01475
G1 X202.860 Y86.257 E0.01475
G1 X57.843 Y86.257 E4.54690
G1 X57.231 Y86.166 E0.01942
G1 X56.672 Y85.908 E0.01930
G1 X56.207 Y85.505 E0.01930
G1 X55.903 Y85.035 E0.01753
; PURGING FINISHED
G1 F8640
G1 X55.670 Y84.089 E-0.22497
G1 X55.674 Y81.772 E-0.53503
G1 E-0.04000 F2100.00000
G1 Z0.800 F10800.000
G1 X92.549 Y43.353
G1 Z0.200
G1 E0.80000 F2100.00000
G1 F1800
G1 X92.549 Y34.482 E0.27813
G1 X91.795 Y34.482 E0.02365
G1 X91.795 Y43.183 E0.27281
G1 X91.041 Y43.183 E0.02365
G1 X91.041 Y34.482 E0.27281
G1 X90.287 Y34.482 E0.02365
G1 X90.287 Y43.183 E0.27281
G1 X89.533 Y43.183 E0.02365
G1 X89.533 Y34.482 E0.27281
G1 X88.779 Y34.482 E0.02365
G1 X88.779 Y43.183 E0.27281
G1 X88.024 Y43.183 E0.02365
G1 X88.024 Y34.482 E0.27281
G1 X87.270 Y34.482 E0.02365
G1 X87.270 Y43.183 E0.27281
G1 X86.516 Y43.183 E0.02365
G1 X86.516 Y34.482 E0.27281
G1 X85.762 Y34.482 E0.02365
G1 X85.762 Y43.183 E0.27281
G1 X85.008 Y43.183 E0.02365
G1 X85.008 Y34.482 E0.27281
G1 X84.254 Y34.482 E0.02365
G1 X84.254 Y43.183 E0.27281
G1 X83.499 Y43.183 E0.02365
G1 X83.499 Y34.482 E0.27281
G1 X82.745 Y34.482 E0.02365
G1 X82.745 Y43.183 E0.27281
G1 X81.991 Y43.183 E0.02365
G1 X81.991 Y34.482 E0.27281
G1 X81.237 Y34.482 E0.02365
G1 X81.237 Y43.183 E0.27281
G1 X80.483 Y43.183 E0.02365
G1 X80.483 Y34.482 E0.27281
G1 X79.729 Y34.482 E0.02365
G1 X79.729 Y43.183 E0.27281
G1 X78.974 Y43.183 E0.02365
G1 X78.974 Y34.313 E0.27813
G1 F8640
G1 X78.974 Y37.604 E-0.76000
G1 E-0.04000 F2100.00000
G1 Z0.800 F10800.000
G1 X108.387 Y43.353
G1 Z0.200
G1 E0.80000 F2100.00000
G1 F1800
G1 X108.387 Y34.482 E0.27813
G1 X109.141 Y34.482 E0.02365
G1 X109.141 Y43.183 E0.27281
G1 X109.895 Y43.183 E0.02365
G1 X109.895 Y34.482 E0.27281
G1 X110.649 Y34.482 E0.02365
G1 X110.649 Y43.183 E0.27281
G1 X111.403 Y43.183 E0.02365
G1 X111.403 Y34.482 E0.27281
G1 X112.157 Y34.482 E0.02365
G1 X112.157 Y43.183 E0.27281
G1 X112.912 Y43.183 E0.02365
G1 X112.912 Y34.482 E0.27281
G1 X113.666 Y34.482 E0.02365
G1 X113.666 Y43.183 E0.27281
G1 X114.420 Y43.183 E0.02365
G1 X114.420 Y34.482 E0.27281
G1 X115.174 Y34.482 E0.02365
G1 X115.174 Y43.183 E0.27281
G1 X115.928 Y43.183 E0.02365
G1 X115.928 Y34.482 E0.27281
G1 X116.682 Y34.482 E0.02365
G1 X116.682 Y43.183 E0.27281
G1 X117.437 Y43.183 E0.02365
G1 X117.437 Y34.482 E0.27281
G1 X118.191 Y34.482 E0.02365
G1 X118.191 Y43.183 E0.27281
G1 X118.945 Y43.183 E0.02365
G1 X118.945 Y34.482 E0.27281
G1 X119.699 Y34.482 E0.02365
G1 X119.699 Y43.183 E0.27281
G1 X120.453 Y43.183 E0.02365
G1 X120.453 Y34.482 E0.27281
G1 X121.207 Y34.482 E0.02365
G1 X121.207 Y43.183 E0.27281
G1 X121.962 Y43.183 E0.02365
G1 X121.962 Y34.482 E0.27281
G1 X122.716 Y34.482 E0.02365
G1 X122.716 Y43.353 E0.27813
G1 F8640
G1 X122.716 Y40.062 E-0.76000
G1 E-0.04000 F2100.00000
G1 Z0.800 F10800.000
G1 X138.553 Y43.353
G1 Z0.200
G1 E0.80000 F2100.00000
G1 F1800
G1 X138.553 Y34.482 E0.27813
G1 X139.307 Y34.482 E0.02365
G1 X139.307 Y43.183 E0.27281
G1 X140.061 Y43.183 E0.02365
G1 X140.061 Y34.482 E0.27281
G1 X140.815 Y34.482 E0.02365
G1 X140.815 Y43.183 E0.27281
G1 X141.570 Y43.183 E0.02365
G1 X141.570 Y34.482 E0.27281
G1 X142.324 Y34.482 E0.02365
G1 X142.324 Y43.183 E0.27281
G1 X143.078 Y43.183 E0.02365
G1 X143.078 Y34.482 E0.27281
G1 X143.832 Y34.482 E0.02365
G1 X143.832 Y43.183 E0.27281
G1 X144.586 Y43.183 E0.02365
G1 X144.586 Y34.482 E0.27281
G1 X145.340 Y34.482 E0.02365
G1 X145.340 Y43.183 E0.27281
G1 X146.095 Y43.183 E0.02365
G1 X146.095 Y34.482 E0.27281
G1 X146.849 Y34.482 E0.02365
G1 X146.849 Y43.183 E0.27281
G1 X147.603 Y43.183 E0.02365
G1 X147.603 Y34.482 E0.27281
G1 X148.357 Y34.482 E0.02365
G1 X148.357 Y43.183 E0.27281
G1 X149.111 Y43.183 E0.02365
G1 X149.111 Y34.482 E0.27281
G1 X149.865 Y34.482 E0.02365
G1 X149.865 Y43.183 E0.27281
G1 X150.620 Y43.183 E0.02365
G1 X150.620 Y34.482 E0.27281
G1 X151.374 Y34.482 E0.02365
G1 X151.374 Y43.183 E0.27281
G1 X152.128 Y43.183 E0.02365
G1 X152.128 Y34.482 E0.27281
G1 X152.882 Y34.482 E0.02365
G1 X152.882 Y43.353 E0.27813
G1 F8640
G1 X152.882 Y40.062 E-0.76000
G1 E-0.04000 F2100.00000
G1 Z0.800 F10800.000
G1 X167.965 Y43.353
G1 Z0.200
G1 E0.80000 F2100.00000
G1 F1800
G1 X167.965 Y34.482 E0.27813
G1 X168.719 Y34.482 E0.02365
G1 X168.719 Y43.183 E0.27281
G1 X169.474 Y43.183 E0.02365
G1 X169.474 Y34.482 E0.27281
G1 X170.228 Y34.482 E0.02365
G1 X170.228 Y43.183 E0.27281
G1 X170.982 Y43.183 E0.02365
G1 X170.982 Y34.482 E0.27281
G1 X171.736 Y34.482 E0.02365
G1 X171.736 Y43.183 E0.27281
G1 X172.490 Y43.183 E0.02365
G1 X172.490 Y34.482 E0.27281
G1 X173.244 Y34.482 E0.02365
G1 X173.244 Y43.183 E0.27281
G1 X173.998 Y43.183 E0.02365
G1 X173.998 Y34.482 E0.27281
G1 X174.753 Y34.482 E0.02365
G1 X174.753 Y43.183 E0.27281
G1 X175.507 Y43.183 E0.02365
G1 X175.507 Y34.482 E0.27281
G1 X176.261 Y34.482 E0.02365
G1 X176.261 Y43.183 E0.27281
G1 X177.015 Y43.183 E0.02365
G1 X177.015 Y34.482 E0.27281
G1 X177.769 Y34.482 E0.02365
G1 X177.769 Y43.183 E0.27281
G1 X178.523 Y43.183 E0.02365
G1 X178.523 Y34.482 E0.27281
G1 X179.278 Y34.482 E0.02365
G1 X179.278 Y43.183 E0.27281
G1 X180.032 Y43.183 E0.02365
G1 X180.032 Y34.482 E0.27281
G1 X180.786 Y34.482 E0.02365
G1 X180.786 Y43.183 E0.27281
G1 X181.540 Y43.183 E0.02365
G1 X181.540 Y34.482 E0.27281
G1 X182.294 Y34.482 E0.02365
G1 X182.294 Y43.353 E0.27813
G1 F8640
G1 X182.294 Y40.062 E-0.76000
G1 E-0.04000 F2100.00000
G1 Z0.800 F10800.000
G1 X178.509 Y74.049
G1 Z0.200
G1 E0.80000 F2100.00000
G1 F1800
G1 X179.010 Y74.202 E0.01643
G1 X179.478 Y74.438 E0.01643
G1 X179.899 Y74.750 E0.01643
G1 X180.261 Y75.128 E0.01643
G1 X180.555 Y75.562 E0.01643
G1 X180.771 Y76.040 E0.01643
G1 X180.903 Y76.547 E0.01643
G1 X180.947 Y77.069 E0.01643
G1 X180.903 Y77.591 E0.01643
G1 X180.770 Y78.099 E0.01648
G1 X180.546 Y78.588 E0.01687
G1 X180.261 Y79.009 E0.01593
G1 X179.899 Y79.388 E0.01643
G1 X179.478 Y79.699 E0.01643
G1 X179.010 Y79.935 E0.01643
G1 X178.509 Y80.089 E0.01643
G1 X177.989 Y80.155 E0.01643
G1 X177.466 Y80.133 E0.01643
G1 X176.953 Y80.023 E0.01643
G1 X176.467 Y79.827 E0.01643
G1 X176.021 Y79.552 E0.01643
G1 X175.628 Y79.206 E0.01643
G1 X175.299 Y78.799 E0.01643
G1 X175.043 Y78.341 E0.01643
G1 X174.868 Y77.847 E0.01643
G1 X174.780 Y77.331 E0.01643
G1 X174.780 Y76.807 E0.01643
G1 X174.868 Y76.290 E0.01643
G1 X175.043 Y75.796 E0.01643
G1 X175.299 Y75.339 E0.01643
G1 X175.628 Y74.931 E0.01643
G1 X176.021 Y74.585 E0.01643
G1 X176.467 Y74.310 E0.01643
G1 X176.955 Y74.114 E0.01648
G1 X177.481 Y74.004 E0.01687
G1 X177.989 Y73.982 E0.01593
G1 X178.449 Y74.041 E0.01455
G1 X178.401 Y74.415 F10800.000
G1 F1800
G1 X178.869 Y74.554 E0.01528
G1 X179.279 Y74.760 E0.01442
G1 X179.649 Y75.034 E0.01442
G1 X179.967 Y75.366 E0.01442
G1 X180.225 Y75.747 E0.01442
G1 X180.414 Y76.166 E0.01442
G1 X180.530 Y76.611 E0.01442
G1 X180.569 Y77.069 E0.01442
G1 X180.530 Y77.527 E0.01442
G1 X180.414 Y77.972 E0.01443
G1 X180.216 Y78.403 E0.01485
G1 X179.967 Y78.772 E0.01395
G1 X179.649 Y79.104 E0.01442
G1 X179.279 Y79.377 E0.01442
G1 X178.869 Y79.584 E0.01442
G1 X178.429 Y79.719 E0.01442
G1 X177.973 Y79.777 E0.01442
G1 X177.514 Y79.758 E0.01442
G1 X177.064 Y79.661 E0.01442
G1 X176.638 Y79.489 E0.01442
G1 X176.246 Y79.248 E0.01442
G1 X175.901 Y78.944 E0.01442
G1 X175.612 Y78.587 E0.01442
G1 X175.388 Y78.185 E0.01442
G1 X175.235 Y77.752 E0.01442
G1 X175.157 Y77.299 E0.01442
G1 X175.157 Y76.839 E0.01442
G1 X175.235 Y76.386 E0.01442
G1 X175.388 Y75.952 E0.01442
G1 X175.612 Y75.551 E0.01442
G1 X175.901 Y75.193 E0.01442
G1 X176.246 Y74.889 E0.01442
G1 X176.638 Y74.648 E0.01442
G1 X177.065 Y74.477 E0.01443
G1 X177.528 Y74.379 E0.01485
G1 X177.973 Y74.360 E0.01395
G1 X178.342 Y74.408 E0.01166
G1 X178.668 Y74.117 F10800.000
G1 F8640
G1 X178.869 Y74.554 E-0.12621
G1 X179.279 Y74.760 E-0.10616
G1 X179.649 Y75.034 E-0.10616
G1 X179.967 Y75.366 E-0.10616
G1 X180.225 Y75.747 E-0.10616
G1 X180.414 Y76.166 E-0.10617
G1 X180.526 Y76.597 E-0.10297
G1 E-0.04000 F2100.00000
G1 Z0.800 F10800.000
G1 X85.947 Y77.069
G1 Z0.200
G1 E0.80000 F2100.00000
G1 F1800
G1 X85.903 Y77.591 E0.01643
G1 X85.771 Y78.098 E0.01643
G1 X85.555 Y78.575 E0.01643
G1 X85.262 Y79.009 E0.01643
G1 X84.899 Y79.388 E0.01643
G1 X84.478 Y79.699 E0.01643
G1 X84.010 Y79.935 E0.01643
G1 X83.509 Y80.089 E0.01643
G1 X82.989 Y80.155 E0.01643
G1 X82.466 Y80.133 E0.01643
G1 X81.953 Y80.023 E0.01643
G1 X81.467 Y79.827 E0.01643
G1 X81.021 Y79.552 E0.01643
G1 X80.628 Y79.206 E0.01643
G1 X80.299 Y78.799 E0.01643
G1 X80.043 Y78.341 E0.01643
G1 X79.868 Y77.847 E0.01643
G1 X79.780 Y77.331 E0.01643
G1 X79.780 Y76.805 E0.01648
G1 X79.874 Y76.276 E0.01687
G1 X80.043 Y75.796 E0.01593
G1 X80.299 Y75.339 E0.01643
G1 X80.628 Y74.931 E0.01643
G1 X81.021 Y74.585 E0.01643
G1 X81.467 Y74.310 E0.01643
G1 X81.955 Y74.114 E0.01648
G1 X82.481 Y74.004 E0.01687
G1 X82.989 Y73.982 E0.01593
G1 X83.509 Y74.049 E0.01643
G1 X84.010 Y74.202 E0.01643
G1 X84.478 Y74.438 E0.01643
G1 X84.899 Y74.750 E0.01643
G1 X85.263 Y75.129 E0.01648
G1 X85.561 Y75.577 E0.01687
G1 X85.771 Y76.040 E0.01593
G1 X85.903 Y76.547 E0.01643
G1 X85.942 Y77.009 E0.01455
G1 X85.566 Y77.041 F10800.000
G1 F1800
G1 X85.530 Y77.527 E0.01528
G1 X85.414 Y77.972 E0.01442
G1 X85.225 Y78.391 E0.01442
G1 X84.967 Y78.772 E0.01442
G1 X84.649 Y79.104 E0.01442
G1 X84.279 Y79.377 E0.01442
G1 X83.869 Y79.584 E0.01442
G1 X83.429 Y79.719 E0.01442
G1 X82.973 Y79.777 E0.01442
G1 X82.514 Y79.758 E0.01442
G1 X82.064 Y79.661 E0.01442
G1 X81.638 Y79.489 E0.01442
G1 X81.246 Y79.248 E0.01442
G1 X80.901 Y78.944 E0.01442
G1 X80.612 Y78.587 E0.01442
G1 X80.388 Y78.185 E0.01442
G1 X80.235 Y77.752 E0.01442
G1 X80.157 Y77.299 E0.01442
G1 X80.157 Y76.838 E0.01443
G1 X80.240 Y76.372 E0.01485
G1 X80.388 Y75.952 E0.01395
G1 X80.612 Y75.551 E0.01442
G1 X80.901 Y75.193 E0.01442
G1 X81.246 Y74.889 E0.01442
G1 X81.638 Y74.648 E0.01442
G1 X82.065 Y74.477 E0.01443
G1 X82.528 Y74.379 E0.01485
G1 X82.973 Y74.360 E0.01395
G1 X83.429 Y74.419 E0.01442
G1 X83.869 Y74.554 E0.01442
G1 X84.279 Y74.760 E0.01442
G1 X84.649 Y75.034 E0.01442
G1 X84.967 Y75.366 E0.01443
G1 X85.231 Y75.760 E0.01485
G1 X85.414 Y76.166 E0.01395
G1 X85.530 Y76.611 E0.01442
G1 X85.561 Y76.981 E0.01166
G1 X85.914 Y77.238 F10800.000
G1 F8640
G1 X85.530 Y77.527 E-0.12622
G1 X85.414 Y77.972 E-0.10616
G1 X85.225 Y78.391 E-0.10616
G1 X84.967 Y78.772 E-0.10616
G1 X84.649 Y79.104 E-0.10616
G1 X84.279 Y79.377 E-0.10616
G1 X83.881 Y79.578 E-0.10296
G1 E-0.04000 F2100.00000
G1 Z0.800 F10800.000
G1 X77.271 Y33.482
G1 Z0.200
G1 E0.80000 F2100.00000
G1 F1800
G1 X183.445 Y33.482 E3.32902
G1 X183.445 Y61.656 E0.88338
G1 X77.271 Y61.656 E3.32902
M73 Q0 S227
G1 X77.271 Y33.542 E0.88150
M73 P0 R221
G1 X77.648 Y33.859 F10800.000
G1 F1800
G1 X183.068 Y33.859 E3.30537
G1 X183.068 Y61.279 E0.85973
G1 X77.648 Y61.279 E3.30537
G1 X77.648 Y33.919 E0.85785
G1 X77.478 Y33.497 F10800.000
G1 F8640
G1 X80.939 Y33.917 E-0.76000
G1 E-0.04000 F2100.00000
G1 Z0.800 F10800.000
G1 X192.271 Y66.656
G1 Z0.200
G1 E0.80000 F2100.00000
G1 F1800
G1 X202.271 Y66.656 E0.31354
G1 X202.271 Y83.482 E0.52756
G1 X58.445 Y83.482 E4.50956
G1 X58.445 Y66.656 E0.52756
G1 X68.445 Y66.656 E0.31354
G1 X68.445 Y24.656 E1.31688
G1 X192.271 Y24.656 E3.88247
G1 X192.271 Y66.596 E1.31500
G1 X192.648 Y66.279 F10800.000
G1 F1800
G1 X202.648 Y66.279 E0.31354
G1 X202.648 Y83.859 E0.55121
G1 X58.068 Y83.859 E4.53320
G1 X58.068 Y66.279 E0.55121
G1 X68.068 Y66.279 E0.31354
G1 X68.068 Y24.279 E1.31688
G1 X192.648 Y24.279 E3.90612
G1 X192.648 Y66.219 E1.31500
G1 X192.809 Y66.645 F10800.000
G1 F8640
G1 X195.939 Y66.239 E-0.76000
G1 E-0.04000 F2100.00000
G1 Z0.800 F10800.000
G1 X202.158 Y67.578
G1 Z0.200
G1 E0.80000 F2100.00000
G1 F1800
G1 X201.518 Y66.939 E0.02840
G1 X200.984 Y66.939 E0.01677
G1 X201.988 Y67.943 E0.04459
G1 X201.988 Y68.477 E0.01677
G1 X200.450 Y66.939 E0.06831
G1 X199.916 Y66.939 E0.01677
G1 X201.988 Y69.011 E0.09203
G1 X201.988 Y69.545 E0.01677
G1 X199.382 Y66.939 E0.11575
G1 X198.848 Y66.939 E0.01677
G1 X201.988 Y70.079 E0.13947
G1 X201.988 Y70.613 E0.01677
G1 X198.314 Y66.939 E0.16318
G1 X197.780 Y66.939 E0.01677
G1 X201.988 Y71.147 E0.18690
G1 X201.988 Y71.681 E0.01677
G1 X197.245 Y66.939 E0.21062
G1 X196.711 Y66.939 E0.01677
G1 X201.988 Y72.215 E0.23434
G1 X201.988 Y72.750 E0.01677
G1 X196.177 Y66.939 E0.25806
G1 X195.643 Y66.939 E0.01677
G1 X201.988 Y73.284 E0.28178
G1 X201.988 Y73.818 E0.01677
G1 X195.109 Y66.939 E0.30550
G1 X194.575 Y66.939 E0.01677
G1 X201.988 Y74.352 E0.32922
G1 X201.988 Y74.886 E0.01677
G1 X194.041 Y66.939 E0.35294
G1 X193.507 Y66.939 E0.01677
G1 X201.988 Y75.420 E0.37666
G1 X201.988 Y75.954 E0.01677
G1 X192.973 Y66.939 E0.40038
G1 X192.439 Y66.939 E0.01677
G1 X202.158 Y76.658 E0.43163
G1 F8640
G1 X199.830 Y74.330 E-0.76000
G1 E-0.04000 F2100.00000
G1 Z0.800 F10800.000
G1 X188.039 Y83.369
G1 Z0.200
G1 E0.80000 F2100.00000
G1 F1800
G1 X181.184 Y76.514 E0.30443
G1 X181.229 Y77.093 E0.01825
G1 X187.335 Y83.199 E0.27117
G1 X186.801 Y83.199 E0.01677
G1 X181.187 Y77.585 E0.24931
G1 X181.084 Y78.016 E0.01392
G1 X186.267 Y83.199 E0.23016
G1 X185.733 Y83.199 E0.01677
G1 X180.941 Y78.407 E0.21282
G1 X180.767 Y78.767 E0.01256
G1 X185.199 Y83.199 E0.19682
G1 X184.665 Y83.199 E0.01677
G1 X180.551 Y79.086 E0.18267
G1 X180.482 Y79.188 E0.00387
G1 X180.305 Y79.373 E0.00806
G1 X184.130 Y83.199 E0.16990
G1 X183.596 Y83.199 E0.01677
G1 X180.036 Y79.638 E0.15813
G1 X179.729 Y79.865 E0.01199
G1 X183.062 Y83.199 E0.14804
G1 X182.528 Y83.199 E0.01677
G1 X179.390 Y80.060 E0.13938
G1 X179.116 Y80.199 E0.00964
G1 X179.022 Y80.227 E0.00307
G1 X181.994 Y83.199 E0.13198
G1 X181.460 Y83.199 E0.01677
G1 X178.613 Y80.352 E0.12642
G1 X178.147 Y80.420 E0.01480
G1 X180.926 Y83.199 E0.12341
G1 X180.392 Y83.199 E0.01677
G1 X177.615 Y80.422 E0.12331
G1 X177.430 Y80.414 E0.00583
G1 X176.975 Y80.317 E0.01459
G1 X180.027 Y83.369 E0.13554
G1 F8640
G1 X177.700 Y81.041 E-0.76000
G1 E-0.04000 F2100.00000
G1 Z0.800 F10800.000
G1 X180.947 Y75.742
G1 Z0.200
G1 E0.80000 F2100.00000
G1 F1800
G1 X188.403 Y83.199 E0.33114
G1 X188.937 Y83.199 E0.01677
G1 X167.677 Y61.939 E0.94417
G1 X168.211 Y61.939 E0.01677
