; generated by Slic3r Prusa Edition 1.41.0+win64 on 2018-10-23 at 10:23:31

; 

; external perimeters extrusion width = 0.45mm
; perimeters extrusion width = 0.45mm
; infill extrusion width = 0.45mm
; solid infill extrusion width = 0.45mm
; top infill extrusion width = 0.40mm
; support material extrusion width = 0.35mm
; first layer extrusion width = 0.42mm

M201 X1000 Y1000 Z1000 E5000 ; sets maximum accelerations, mm/sec^2
M203 X200 Y200 Z12 E120 ; sets maximum feedrates, mm/sec
M204 P1250 R1250 T1250 ; sets acceleration (P, T) and retract acceleration (R), mm/sec^2
M205 X8.00 Y8.00 Z0.40 E1.50 ; sets the jerk limits, mm/sec
M205 S0 T0 ; sets the minimum extruding and travel feed rate, mm/sec
M107
M115 U3.4.0 ; tell printer latest fw version
M83  ; extruder relative mode
M104 S215 ; set extruder temp
M140 S60 ; set bed temp
M190 S60 ; wait for bed temp
M109 S215 ; wait for extruder temp
G28 W ; home all without mesh bed level
G80 ; mesh bed leveling
G1 Y-3.0 F1000.0 ; go outside print area
G92 E0.0
G1 X60.0 E9.0  F1000.0 ; intro line
M73 Q0 S173
M73 P0 R171
G1 X100.0 E12.5  F1000.0 ; intro line
G92 E0.0
M221 S95
M900 K30; Filament gcode
G21 ; set units to millimeters
G90 ; use absolute coordinates
M83 ; use relative distances for extrusion
;BEFORE_LAYER_CHANGE
G92 E0.0
;0.3


G1 E-0.80000 F2100.00000
G1 Z0.600 F10800.000
;AFTER_LAYER_CHANGE
;0.3
G1 X63.050 Y34.490
G1 Z0.300
G1 E0.80000 F2100.00000
M204 S1000
G1 F1500
G1 X63.317 Y34.086 E0.02146
G1 X63.667 Y33.752 E0.02146
G1 X64.078 Y33.504 E0.02130
G1 X64.523 Y33.355 E0.02082
G1 X64.986 Y33.304 E0.02066
G1 X189.992 Y33.304 E5.54462
G1 X190.687 Y33.419 E0.03123
G1 X191.309 Y33.750 E0.03123
G1 X191.793 Y34.262 E0.03123
G1 X192.088 Y34.901 E0.03123
G1 X202.136 Y77.117 E1.92478
G1 X202.163 Y95.613 E0.82040
G1 X202.049 Y96.188 E0.02596
G1 X201.787 Y96.711 E0.02596
G1 X201.395 Y97.145 E0.02596
G1 X200.901 Y97.460 E0.02596
G1 X200.460 Y97.608 E0.02066
G1 X199.994 Y97.660 E0.02082
G1 X54.974 Y97.660 E6.43230
G1 X54.367 Y97.569 E0.02724
G1 X53.809 Y97.313 E0.02724
G1 X53.342 Y96.908 E0.02740
G1 X53.010 Y96.392 E0.02724
G1 X52.811 Y95.502 E0.04045
G1 X52.844 Y77.105 E0.81598
G1 X62.880 Y34.939 E1.92251
G1 X63.029 Y34.546 E0.01864
; PURGING FINISHED
G1 F8640
G1 X63.317 Y34.086 E-0.12529
G1 X63.667 Y33.752 E-0.11173
G1 X64.078 Y33.504 E-0.11090
G1 X64.523 Y33.355 E-0.10839
G1 X64.986 Y33.304 E-0.10755
G1 X65.836 Y33.304 E-0.19615
G1 E-0.04000 F2100.00000
G1 Z0.900 F10800.000
G1 X75.615 Y45.725
G1 Z0.300
G1 E0.80000 F2100.00000
G1 F1500
G1 X75.615 Y54.446 E0.38684
G1 X76.326 Y54.446 E0.03155
G1 X76.326 Y45.885 E0.37974
G1 X77.037 Y45.885 E0.03155
G1 X77.037 Y54.446 E0.37974
G1 X77.748 Y54.446 E0.03155
G1 X77.748 Y45.885 E0.37974
G1 X78.460 Y45.885 E0.03155
G1 X78.460 Y54.446 E0.37974
G1 X79.171 Y54.446 E0.03155
G1 X79.171 Y45.885 E0.37974
G1 X79.882 Y45.885 E0.03155
G1 X79.882 Y54.446 E0.37974
G1 X80.593 Y54.446 E0.03155
G1 X80.593 Y45.885 E0.37974
G1 X81.305 Y45.885 E0.03155
G1 X81.305 Y54.446 E0.37974
G1 X82.016 Y54.446 E0.03155
G1 X82.016 Y45.885 E0.37974
G1 X82.727 Y45.885 E0.03155
G1 X82.727 Y54.446 E0.37974
G1 X83.438 Y54.446 E0.03155
G1 X83.438 Y45.885 E0.37974
G1 X84.150 Y45.885 E0.03155
G1 X84.150 Y54.446 E0.37974
G1 X84.861 Y54.446 E0.03155
G1 X84.861 Y45.885 E0.37974
G1 X85.572 Y45.885 E0.03155
G1 X85.572 Y54.446 E0.37974
G1 X86.283 Y54.446 E0.03155
G1 X86.283 Y45.885 E0.37974
G1 X86.995 Y45.885 E0.03155
G1 X86.995 Y54.446 E0.37974
G1 X87.706 Y54.446 E0.03155
G1 X87.706 Y45.885 E0.37974
G1 X88.417 Y45.885 E0.03155
G1 X88.417 Y54.446 E0.37974
G1 X89.128 Y54.446 E0.03155
G1 X89.128 Y45.885 E0.37974
G1 X89.839 Y45.885 E0.03155
G1 X89.839 Y54.606 E0.38684
G1 F8640
G1 X89.839 Y51.315 E-0.76000
G1 E-0.04000 F2100.00000
G1 Z0.900 F10800.000
G1 X106.909 Y54.606
G1 Z0.300
G1 E0.80000 F2100.00000
G1 F1500
G1 X106.909 Y45.885 E0.38684
G1 X107.620 Y45.885 E0.03155
G1 X107.620 Y54.446 E0.37974
G1 X108.332 Y54.446 E0.03155
G1 X108.332 Y45.885 E0.37974
G1 X109.043 Y45.885 E0.03155
G1 X109.043 Y54.446 E0.37974
G1 X109.754 Y54.446 E0.03155
G1 X109.754 Y45.885 E0.37974
G1 X110.465 Y45.885 E0.03155
G1 X110.465 Y54.446 E0.37974
G1 X111.177 Y54.446 E0.03155
G1 X111.177 Y45.885 E0.37974
G1 X111.888 Y45.885 E0.03155
G1 X111.888 Y54.446 E0.37974
G1 X112.599 Y54.446 E0.03155
G1 X112.599 Y45.885 E0.37974
G1 X113.310 Y45.885 E0.03155
G1 X113.310 Y54.446 E0.37974
G1 X114.022 Y54.446 E0.03155
G1 X114.022 Y45.885 E0.37974
G1 X114.733 Y45.885 E0.03155
G1 X114.733 Y54.446 E0.37974
G1 X115.444 Y54.446 E0.03155
G1 X115.444 Y45.885 E0.37974
G1 X116.155 Y45.885 E0.03155
G1 X116.155 Y54.446 E0.37974
G1 X116.867 Y54.446 E0.03155
G1 X116.867 Y45.885 E0.37974
G1 X117.578 Y45.885 E0.03155
G1 X117.578 Y54.446 E0.37974
G1 X118.289 Y54.446 E0.03155
G1 X118.289 Y45.885 E0.37974
G1 X119.000 Y45.885 E0.03155
G1 X119.000 Y54.606 E0.38684
G1 F8640
G1 X119.000 Y51.315 E-0.76000
G1 E-0.04000 F2100.00000
G1 Z0.900 F10800.000
G1 X136.781 Y54.606
G1 Z0.300
G1 E0.80000 F2100.00000
G1 F1500
G1 X136.781 Y45.885 E0.38684
G1 X137.492 Y45.885 E0.03155
G1 X137.492 Y54.446 E0.37974
G1 X138.204 Y54.446 E0.03155
G1 X138.204 Y45.885 E0.37974
G1 X138.915 Y45.885 E0.03155
G1 X138.915 Y54.446 E0.37974
G1 X139.626 Y54.446 E0.03155
G1 X139.626 Y45.885 E0.37974
G1 X140.337 Y45.885 E0.03155
G1 X140.337 Y54.446 E0.37974
G1 X141.049 Y54.446 E0.03155
G1 X141.049 Y45.885 E0.37974
G1 X141.760 Y45.885 E0.03155
G1 X141.760 Y54.446 E0.37974
G1 X142.471 Y54.446 E0.03155
G1 X142.471 Y45.885 E0.37974
G1 X143.182 Y45.885 E0.03155
G1 X143.182 Y54.446 E0.37974
G1 X143.894 Y54.446 E0.03155
G1 X143.894 Y45.885 E0.37974
G1 X144.605 Y45.885 E0.03155
G1 X144.605 Y54.446 E0.37974
G1 X145.316 Y54.446 E0.03155
G1 X145.316 Y45.885 E0.37974
G1 X146.027 Y45.885 E0.03155
G1 X146.027 Y54.446 E0.37974
G1 X146.738 Y54.446 E0.03155
G1 X146.738 Y45.885 E0.37974
G1 X147.450 Y45.885 E0.03155
G1 X147.450 Y54.446 E0.37974
G1 X148.161 Y54.446 E0.03155
G1 X148.161 Y45.885 E0.37974
G1 X148.872 Y45.885 E0.03155
G1 X148.872 Y54.606 E0.38684
G1 F8640
G1 X148.872 Y51.315 E-0.76000
G1 E-0.04000 F2100.00000
G1 Z0.900 F10800.000
G1 X166.653 Y54.606
G1 Z0.300
G1 E0.80000 F2100.00000
G1 F1500
G1 X166.653 Y45.885 E0.38684
G1 X167.364 Y45.885 E0.03155
G1 X167.364 Y54.446 E0.37974
G1 X168.076 Y54.446 E0.03155
G1 X168.076 Y45.885 E0.37974
G1 X168.787 Y45.885 E0.03155
G1 X168.787 Y54.446 E0.37974
G1 X169.498 Y54.446 E0.03155
G1 X169.498 Y45.885 E0.37974
G1 X170.209 Y45.885 E0.03155
G1 X170.209 Y54.446 E0.37974
G1 X170.921 Y54.446 E0.03155
G1 X170.921 Y45.885 E0.37974
G1 X171.632 Y45.885 E0.03155
G1 X171.632 Y54.446 E0.37974
G1 X172.343 Y54.446 E0.03155
G1 X172.343 Y45.885 E0.37974
G1 X173.054 Y45.885 E0.03155
G1 X173.054 Y54.446 E0.37974
G1 X173.766 Y54.446 E0.03155
G1 X173.766 Y45.885 E0.37974
G1 X174.477 Y45.885 E0.03155
G1 X174.477 Y54.446 E0.37974
G1 X175.188 Y54.446 E0.03155
G1 X175.188 Y45.885 E0.37974
G1 X175.899 Y45.885 E0.03155
G1 X175.899 Y54.446 E0.37974
G1 X176.610 Y54.446 E0.03155
G1 X176.610 Y45.885 E0.37974
G1 X177.322 Y45.885 E0.03155
G1 X177.322 Y54.446 E0.37974
G1 X178.033 Y54.446 E0.03155
G1 X178.033 Y45.885 E0.37974
G1 X178.744 Y45.885 E0.03155
G1 X178.744 Y54.606 E0.38684
G1 F8640
G1 X178.744 Y51.315 E-0.76000
G1 E-0.04000 F2100.00000
G1 Z0.900 F10800.000
G1 X175.119 Y85.417
G1 Z0.300
G1 E0.80000 F2100.00000
G1 F1500
G1 X175.635 Y85.483 E0.02308
G1 X176.133 Y85.636 E0.02308
G1 X176.597 Y85.870 E0.02308
G1 X177.016 Y86.179 E0.02308
G1 X177.376 Y86.555 E0.02308
G1 X177.667 Y86.986 E0.02308
G1 X177.881 Y87.460 E0.02308
G1 X178.012 Y87.964 E0.02308
G1 X178.056 Y88.482 E0.02308
G1 X178.012 Y89.001 E0.02308
G1 X177.881 Y89.504 E0.02308
G1 X177.667 Y89.978 E0.02308
G1 X177.376 Y90.409 E0.02308
G1 X177.016 Y90.785 E0.02308
G1 X176.597 Y91.094 E0.02308
G1 X176.133 Y91.329 E0.02308
G1 X175.635 Y91.481 E0.02308
G1 X175.119 Y91.547 E0.02308
G1 X174.597 Y91.525 E0.02318
G1 X174.069 Y91.407 E0.02401
G1 X173.608 Y91.221 E0.02204
G1 X173.165 Y90.949 E0.02308
G1 X172.774 Y90.605 E0.02308
G1 X172.447 Y90.200 E0.02308
G1 X172.193 Y89.746 E0.02308
G1 X172.020 Y89.255 E0.02308
G1 X171.932 Y88.742 E0.02308
G1 X171.932 Y88.220 E0.02318
G1 X172.028 Y87.687 E0.02401
G1 X172.193 Y87.219 E0.02204
G1 X172.447 Y86.764 E0.02308
G1 X172.774 Y86.360 E0.02308
G1 X173.165 Y86.016 E0.02308
G1 X173.608 Y85.743 E0.02308
G1 X174.093 Y85.548 E0.02318
G1 X174.623 Y85.438 E0.02401
G1 X175.059 Y85.420 E0.01937
G1 X175.074 Y85.775 F10800.000
G1 F1500
G1 X175.560 Y85.832 E0.02169
G1 X176.000 Y85.967 E0.02039
G1 X176.410 Y86.174 E0.02039
G1 X176.780 Y86.447 E0.02039
G1 X177.098 Y86.779 E0.02039
G1 X177.355 Y87.160 E0.02039
G1 X177.545 Y87.579 E0.02039
G1 X177.661 Y88.024 E0.02039
G1 X177.700 Y88.482 E0.02039
G1 X177.661 Y88.940 E0.02039
G1 X177.545 Y89.385 E0.02039
G1 X177.355 Y89.804 E0.02039
G1 X177.098 Y90.185 E0.02039
G1 X176.780 Y90.517 E0.02039
G1 X176.410 Y90.791 E0.02039
G1 X176.000 Y90.998 E0.02039
G1 X175.560 Y91.132 E0.02039
G1 X175.104 Y91.191 E0.02039
G1 X174.644 Y91.171 E0.02043
G1 X174.175 Y91.066 E0.02132
G1 X173.768 Y90.903 E0.01942
G1 X173.377 Y90.662 E0.02039
G1 X173.032 Y90.358 E0.02039
G1 X172.743 Y90.000 E0.02039
G1 X172.519 Y89.599 E0.02039
G1 X172.366 Y89.165 E0.02039
G1 X172.288 Y88.712 E0.02039
G1 X172.288 Y88.251 E0.02043
G1 X172.373 Y87.778 E0.02132
G1 X172.519 Y87.366 E0.01942
G1 X172.743 Y86.964 E0.02039
G1 X173.032 Y86.607 E0.02039
G1 X173.377 Y86.303 E0.02039
G1 X173.768 Y86.062 E0.02039
G1 X174.196 Y85.890 E0.02043
G1 X174.667 Y85.792 E0.02132
G1 X175.014 Y85.778 E0.01544
G1 X175.286 Y85.436 F10800.000
G1 F8640
G1 X175.560 Y85.832 E-0.12664
G1 X176.000 Y85.967 E-0.10616
G1 X176.410 Y86.174 E-0.10616
G1 X176.780 Y86.447 E-0.10616
G1 X177.098 Y86.779 E-0.10616
G1 X177.355 Y87.160 E-0.10616
G1 X177.538 Y87.565 E-0.10255
G1 E-0.04000 F2100.00000
G1 Z0.900 F10800.000
G1 X83.056 Y88.482
G1 Z0.300
G1 E0.80000 F2100.00000
G1 F1500
G1 X83.012 Y89.001 E0.02308
G1 X82.881 Y89.504 E0.02308
G1 X82.667 Y89.978 E0.02308
G1 X82.376 Y90.409 E0.02308
G1 X82.016 Y90.785 E0.02308
G1 X81.597 Y91.094 E0.02308
G1 X81.133 Y91.329 E0.02308
G1 X80.635 Y91.481 E0.02308
G1 X80.119 Y91.547 E0.02308
G1 X79.597 Y91.525 E0.02318
G1 X79.069 Y91.407 E0.02401
G1 X78.608 Y91.221 E0.02204
G1 X78.165 Y90.949 E0.02308
G1 X77.774 Y90.605 E0.02308
G1 X77.447 Y90.200 E0.02308
G1 X77.193 Y89.746 E0.02308
G1 X77.020 Y89.255 E0.02308
G1 X76.932 Y88.742 E0.02308
G1 X76.932 Y88.220 E0.02318
G1 X77.028 Y87.687 E0.02401
G1 X77.193 Y87.219 E0.02204
G1 X77.447 Y86.764 E0.02308
G1 X77.774 Y86.360 E0.02308
G1 X78.165 Y86.016 E0.02308
G1 X78.608 Y85.743 E0.02308
G1 X79.093 Y85.548 E0.02318
G1 X79.623 Y85.438 E0.02401
G1 X80.119 Y85.417 E0.02204
G1 X80.635 Y85.483 E0.02308
G1 X81.133 Y85.636 E0.02308
G1 X81.597 Y85.870 E0.02308
G1 X82.016 Y86.179 E0.02308
G1 X82.376 Y86.555 E0.02308
G1 X82.668 Y86.988 E0.02318
G1 X82.887 Y87.483 E0.02401
G1 X83.012 Y87.964 E0.02204
G1 X83.051 Y88.422 E0.02042
G1 X82.697 Y88.453 F10800.000
G1 F1500
G1 X82.661 Y88.940 E0.02169
G1 X82.545 Y89.385 E0.02039
G1 X82.355 Y89.804 E0.02039
G1 X82.098 Y90.185 E0.02039
G1 X81.780 Y90.517 E0.02039
G1 X81.410 Y90.791 E0.02039
G1 X81.000 Y90.998 E0.02039
G1 X80.560 Y91.132 E0.02039
G1 X80.104 Y91.191 E0.02039
G1 X79.644 Y91.171 E0.02043
G1 X79.175 Y91.066 E0.02132
G1 X78.768 Y90.903 E0.01942
G1 X78.377 Y90.662 E0.02039
G1 X78.032 Y90.358 E0.02039
G1 X77.743 Y90.000 E0.02039
G1 X77.519 Y89.599 E0.02039
G1 X77.366 Y89.165 E0.02039
G1 X77.288 Y88.712 E0.02039
G1 X77.288 Y88.251 E0.02043
G1 X77.373 Y87.778 E0.02132
G1 X77.519 Y87.366 E0.01942
G1 X77.743 Y86.964 E0.02039
G1 X78.032 Y86.607 E0.02039
G1 X78.377 Y86.303 E0.02039
G1 X78.768 Y86.062 E0.02039
G1 X79.196 Y85.890 E0.02043
G1 X79.667 Y85.792 E0.02132
G1 X80.104 Y85.774 E0.01942
G1 X80.560 Y85.832 E0.02039
G1 X81.000 Y85.967 E0.02039
G1 X81.410 Y86.174 E0.02039
G1 X81.780 Y86.447 E0.02039
G1 X82.098 Y86.779 E0.02039
G1 X82.356 Y87.161 E0.02043
G1 X82.550 Y87.601 E0.02132
G1 X82.661 Y88.024 E0.01942
G1 X82.692 Y88.393 E0.01641
G1 X83.045 Y88.650 F10800.000
G1 F8640
G1 X82.661 Y88.940 E-0.12663
G1 X82.545 Y89.385 E-0.10616
G1 X82.355 Y89.804 E-0.10616
G1 X82.098 Y90.185 E-0.10616
G1 X81.780 Y90.517 E-0.10616
G1 X81.410 Y90.791 E-0.10616
G1 X81.014 Y90.990 E-0.10255
G1 E-0.04000 F2100.00000
G1 Z0.900 F10800.000
G1 X74.423 Y44.917
G1 Z0.300
G1 E0.80000 F2100.00000
G1 F1500
G1 X180.554 Y44.917 E4.70743
M73 Q0 S172
M73 P0 R170
G1 X180.554 Y73.048 E1.24776
G1 X74.423 Y73.048 E4.70743
G1 X74.423 Y44.977 E1.24509
G1 X74.779 Y45.272 F10800.000
G1 F1500
G1 X180.199 Y45.272 E4.67588
G1 X180.199 Y72.692 E1.21621
G1 X74.779 Y72.692 E4.67588
G1 X74.779 Y45.332 E1.21355
G1 X74.609 Y44.910 F10800.000
G1 F8640
G1 X78.070 Y45.330 E-0.76000
G1 E-0.04000 F2100.00000
G1 Z0.900 F10800.000
G1 X189.423 Y78.048
G1 Z0.300
G1 E0.80000 F2100.00000
G1 F1500
G1 X199.423 Y78.048 E0.44355
G1 X199.423 Y94.917 E0.74821
G1 X55.554 Y94.917 E6.38127
G1 X55.554 Y78.048 E0.74821
G1 X65.554 Y78.048 E0.44355
G1 X65.554 Y36.048 E1.86290
G1 X189.423 Y36.048 E5.49418
G1 X189.423 Y77.988 E1.86024
G1 X189.779 Y77.692 F10800.000
G1 F1500
G1 X199.779 Y77.692 E0.44355
G1 X199.779 Y95.272 E0.77976
G1 X55.199 Y95.272 E6.41282
G1 X55.199 Y77.692 E0.77976
G1 X65.199 Y77.692 E0.44355
G1 X65.199 Y35.692 E1.86290
G1 X189.779 Y35.692 E5.52572
G1 X189.779 Y77.632 E1.86024
G1 X189.940 Y78.058 F10800.000
G1 F8640
G1 X193.070 Y77.652 E-0.76000
G1 E-0.04000 F2100.00000
G1 Z0.900 F10800.000
G1 X198.869 Y78.155
G1 Z0.300
G1 E0.80000 F2100.00000
G1 F1500
G1 X199.156 Y78.442 E0.01808
G1 X199.156 Y78.946 E0.02237
G1 X198.525 Y78.315 E0.03966
G1 X198.022 Y78.315 E0.02237
G1 X199.156 Y79.450 E0.07129
G1 X199.156 Y79.953 E0.02237
G1 X197.518 Y78.315 E0.10293
G1 X197.014 Y78.315 E0.02237
G1 X199.156 Y80.457 E0.13456
G1 X199.156 Y80.960 E0.02237
G1 X196.511 Y78.315 E0.16620
G1 X196.007 Y78.315 E0.02237
G1 X199.156 Y81.464 E0.19783
G1 X199.156 Y81.968 E0.02237
G1 X195.503 Y78.315 E0.22946
G1 X195.000 Y78.315 E0.02237
G1 X199.156 Y82.471 E0.26110
G1 X199.156 Y82.975 E0.02237
G1 X194.496 Y78.315 E0.29273
G1 X193.993 Y78.315 E0.02237
G1 X199.156 Y83.478 E0.32437
G1 X199.156 Y83.982 E0.02237
G1 X193.489 Y78.315 E0.35600
G1 X192.985 Y78.315 E0.02237
G1 X199.156 Y84.486 E0.38763
G1 X199.156 Y84.989 E0.02237
G1 X192.482 Y78.315 E0.41927
G1 X191.978 Y78.315 E0.02237
G1 X199.156 Y85.493 E0.45090
G1 X199.156 Y85.997 E0.02237
G1 X191.474 Y78.315 E0.48254
G1 X190.971 Y78.315 E0.02237
G1 X199.156 Y86.500 E0.51417
G1 X199.156 Y87.004 E0.02237
G1 X190.467 Y78.315 E0.54580
G1 X189.964 Y78.315 E0.02237
G1 X199.156 Y87.507 E0.57744
G1 X199.156 Y88.011 E0.02237
G1 X180.821 Y69.676 E1.15172
G1 X180.821 Y69.172 E0.02237
G1 X189.156 Y77.507 E0.52358
G1 X189.156 Y77.004 E0.02237
G1 X180.821 Y68.668 E0.52358
G1 X180.821 Y68.165 E0.02237
G1 X189.156 Y76.500 E0.52358
M73 Q1 S171
G1 X189.156 Y75.997 E0.02237
G1 X180.821 Y67.661 E0.52358
M73 P1 R169
G1 X180.821 Y67.158 E0.02237
G1 X189.156 Y75.493 E0.52358
G1 X189.156 Y74.989 E0.02237
G1 X180.821 Y66.654 E0.52358
G1 X180.821 Y66.150 E0.02237
G1 X189.156 Y74.486 E0.52358
G1 X189.156 Y73.982 E0.02237
G1 X180.821 Y65.647 E0.52358
G1 X180.821 Y65.143 E0.02237
G1 X189.156 Y73.478 E0.52358
G1 X189.156 Y72.975 E0.02237
G1 X180.821 Y64.639 E0.52358
G1 X180.821 Y64.136 E0.02237
G1 X189.156 Y72.471 E0.52358
G1 X189.156 Y71.968 E0.02237
G1 X180.821 Y63.632 E0.52358
G1 X180.821 Y63.129 E0.02237
G1 X189.156 Y71.464 E0.52358
G1 X189.156 Y70.960 E0.02237
G1 X180.821 Y62.625 E0.52358
G1 X180.821 Y62.121 E0.02237
G1 X189.156 Y70.457 E0.52358
G1 X189.156 Y69.953 E0.02237
G1 X180.821 Y61.618 E0.52358
G1 X180.821 Y61.114 E0.02237
G1 X189.156 Y69.450 E0.52358
G1 X189.156 Y68.946 E0.02237
G1 X180.821 Y60.611 E0.52358
G1 X180.821 Y60.107 E0.02237
G1 X189.156 Y68.442 E0.52358
G1 X189.156 Y67.939 E0.02237
G1 X180.821 Y59.603 E0.52358
G1 X180.821 Y59.100 E0.02237
G1 X189.156 Y67.435 E0.52358
G1 X189.156 Y66.931 E0.02237
G1 X180.821 Y58.596 E0.52358
G1 X180.821 Y58.092 E0.02237
G1 X189.156 Y66.428 E0.52358
G1 X189.156 Y65.924 E0.02237
