; generated by Slic3r Prusa Edition 1.41.0+win64 on 2018-10-23 at 10:24:43

; 

; external perimeters extrusion width = 0.45mm
; perimeters extrusion width = 0.45mm
; infill extrusion width = 0.45mm
; solid infill extrusion width = 0.45mm
; top infill extrusion width = 0.40mm
; support material extrusion width = 0.35mm
; first layer extrusion width = 0.42mm

M201 X1000 Y1000 Z1000 E5000 ; sets maximum accelerations, mm/sec^2
M203 X200 Y200 Z12 E120 ; sets maximum feedrates, mm/sec
M204 P1250 R1250 T1250 ; sets acceleration (P, T) and retract acceleration (R), mm/sec^2
M205 X8.00 Y8.00 Z0.40 E1.50 ; sets the jerk limits, mm/sec
M205 S0 T0 ; sets the minimum extruding and travel feed rate, mm/sec
M107
M115 U3.4.0 ; tell printer latest fw version
M83  ; extruder relative mode
M104 S230 ; set extruder temp
M140 S85 ; set bed temp
M190 S85 ; wait for bed temp
M109 S230 ; wait for extruder temp
G28 W ; home all without mesh bed level
G80 ; mesh bed leveling
G1 Y-3.0 F1000.0 ; go outside print area
G92 E0.0
G1 X60.0 E9.0  F1000.0 ; intro line
M73 Q0 S228
M73 P0 R222
G1 X100.0 E12.5  F1000.0 ; intro line
G92 E0.0
M221 S95
M900 K45; Filament gcode
G21 ; set units to millimeters
G90 ; use absolute coordinates
M83 ; use relative distances for extrusion
;BEFORE_LAYER_CHANGE
G92 E0.0
;0.2


G1 E-0.80000 F2100.00000
G1 Z0.600 F10800.000
;AFTER_LAYER_CHANGE
;0.2
G1 X63.042 Y34.483
G1 Z0.200
G1 E0.80000 F2100.00000
M204 S1000
G1 F1800
G1 X63.307 Y34.081 E0.01510
G1 X63.657 Y33.745 E0.01521
G1 X64.073 Y33.495 E0.01521
G1 X64.519 Y33.345 E0.01475
G1 X64.986 Y33.294 E0.01475
G1 X189.992 Y33.294 E3.91947
G1 X190.689 Y33.409 E0.02213
G1 X191.316 Y33.742 E0.02225
G1 X191.801 Y34.255 E0.02213
G1 X192.098 Y34.899 E0.02225
G1 X202.146 Y77.115 E1.36064
G1 X202.173 Y95.614 E0.58002
G1 X202.060 Y96.189 E0.01839
G1 X201.796 Y96.717 E0.01851
G1 X201.403 Y97.153 E0.01839
G1 X200.905 Y97.470 E0.01851
G1 X200.459 Y97.620 E0.01475
G1 X199.991 Y97.671 E0.01475
G1 X54.974 Y97.671 E4.54690
G1 X54.362 Y97.579 E0.01942
G1 X53.803 Y97.321 E0.01930
G1 X53.337 Y96.918 E0.01930
G1 X53.001 Y96.398 E0.01942
G1 X52.800 Y95.503 E0.02878
G1 X52.833 Y77.104 E0.57688
G1 X62.869 Y34.936 E1.35907
G1 X63.020 Y34.539 E0.01333
; PURGING FINISHED
G1 F8640
G1 X63.307 Y34.081 E-0.12472
G1 X63.657 Y33.745 E-0.11201
G1 X64.073 Y33.495 E-0.11201
G1 X64.519 Y33.345 E-0.10865
G1 X64.986 Y33.294 E-0.10865
G1 X65.826 Y33.294 E-0.19395
G1 E-0.04000 F2100.00000
G1 Z0.800 F10800.000
G1 X76.105 Y45.726
G1 Z0.200
G1 E0.80000 F2100.00000
G1 F1800
G1 X76.105 Y54.597 E0.27813
G1 X76.859 Y54.597 E0.02365
G1 X76.859 Y45.896 E0.27281
G1 X77.614 Y45.896 E0.02365
G1 X77.614 Y54.597 E0.27281
G1 X78.368 Y54.597 E0.02365
G1 X78.368 Y45.896 E0.27281
G1 X79.122 Y45.896 E0.02365
G1 X79.122 Y54.597 E0.27281
G1 X79.876 Y54.597 E0.02365
G1 X79.876 Y45.896 E0.27281
G1 X80.630 Y45.896 E0.02365
G1 X80.630 Y54.597 E0.27281
G1 X81.384 Y54.597 E0.02365
G1 X81.384 Y45.896 E0.27281
G1 X82.139 Y45.896 E0.02365
G1 X82.139 Y54.597 E0.27281
G1 X82.893 Y54.597 E0.02365
G1 X82.893 Y45.896 E0.27281
G1 X83.647 Y45.896 E0.02365
G1 X83.647 Y54.597 E0.27281
G1 X84.401 Y54.597 E0.02365
G1 X84.401 Y45.896 E0.27281
G1 X85.155 Y45.896 E0.02365
G1 X85.155 Y54.597 E0.27281
G1 X85.909 Y54.597 E0.02365
G1 X85.909 Y45.896 E0.27281
G1 X86.663 Y45.896 E0.02365
G1 X86.663 Y54.597 E0.27281
G1 X87.418 Y54.597 E0.02365
G1 X87.418 Y45.896 E0.27281
G1 X88.172 Y45.896 E0.02365
G1 X88.172 Y54.597 E0.27281
G1 X88.926 Y54.597 E0.02365
G1 X88.926 Y45.896 E0.27281
G1 X89.680 Y45.896 E0.02365
G1 X89.680 Y54.766 E0.27813
G1 F8640
G1 X89.680 Y51.475 E-0.76000
G1 E-0.04000 F2100.00000
G1 Z0.800 F10800.000
G1 X105.517 Y54.766
G1 Z0.200
G1 E0.80000 F2100.00000
G1 F1800
G1 X105.517 Y45.896 E0.27813
G1 X106.272 Y45.896 E0.02365
G1 X106.272 Y54.597 E0.27281
G1 X107.026 Y54.597 E0.02365
G1 X107.026 Y45.896 E0.27281
G1 X107.780 Y45.896 E0.02365
G1 X107.780 Y54.597 E0.27281
G1 X108.534 Y54.597 E0.02365
G1 X108.534 Y45.896 E0.27281
G1 X109.288 Y45.896 E0.02365
G1 X109.288 Y54.597 E0.27281
G1 X110.042 Y54.597 E0.02365
G1 X110.042 Y45.896 E0.27281
G1 X110.797 Y45.896 E0.02365
G1 X110.797 Y54.597 E0.27281
G1 X111.551 Y54.597 E0.02365
G1 X111.551 Y45.896 E0.27281
G1 X112.305 Y45.896 E0.02365
G1 X112.305 Y54.597 E0.27281
G1 X113.059 Y54.597 E0.02365
G1 X113.059 Y45.896 E0.27281
G1 X113.813 Y45.896 E0.02365
G1 X113.813 Y54.597 E0.27281
G1 X114.567 Y54.597 E0.02365
G1 X114.567 Y45.896 E0.27281
G1 X115.322 Y45.896 E0.02365
G1 X115.322 Y54.597 E0.27281
G1 X116.076 Y54.597 E0.02365
G1 X116.076 Y45.896 E0.27281
G1 X116.830 Y45.896 E0.02365
G1 X116.830 Y54.597 E0.27281
G1 X117.584 Y54.597 E0.02365
G1 X117.584 Y45.896 E0.27281
G1 X118.338 Y45.896 E0.02365
G1 X118.338 Y54.597 E0.27281
G1 X119.092 Y54.597 E0.02365
G1 X119.092 Y45.896 E0.27281
G1 X119.846 Y45.896 E0.02365
G1 X119.846 Y54.766 E0.27813
G1 F8640
G1 X119.846 Y51.475 E-0.76000
G1 E-0.04000 F2100.00000
G1 Z0.800 F10800.000
G1 X135.684 Y54.766
G1 Z0.200
G1 E0.80000 F2100.00000
G1 F1800
G1 X135.684 Y45.896 E0.27813
G1 X136.438 Y45.896 E0.02365
G1 X136.438 Y54.597 E0.27281
G1 X137.192 Y54.597 E0.02365
G1 X137.192 Y45.896 E0.27281
G1 X137.946 Y45.896 E0.02365
G1 X137.946 Y54.597 E0.27281
G1 X138.700 Y54.597 E0.02365
G1 X138.700 Y45.896 E0.27281
G1 X139.455 Y45.896 E0.02365
G1 X139.455 Y54.597 E0.27281
G1 X140.209 Y54.597 E0.02365
G1 X140.209 Y45.896 E0.27281
G1 X140.963 Y45.896 E0.02365
G1 X140.963 Y54.597 E0.27281
G1 X141.717 Y54.597 E0.02365
G1 X141.717 Y45.896 E0.27281
G1 X142.471 Y45.896 E0.02365
G1 X142.471 Y54.597 E0.27281
G1 X143.225 Y54.597 E0.02365
G1 X143.225 Y45.896 E0.27281
G1 X143.980 Y45.896 E0.02365
G1 X143.980 Y54.597 E0.27281
G1 X144.734 Y54.597 E0.02365
G1 X144.734 Y45.896 E0.27281
G1 X145.488 Y45.896 E0.02365
G1 X145.488 Y54.597 E0.27281
G1 X146.242 Y54.597 E0.02365
G1 X146.242 Y45.896 E0.27281
G1 X146.996 Y45.896 E0.02365
G1 X146.996 Y54.597 E0.27281
G1 X147.750 Y54.597 E0.02365
G1 X147.750 Y45.896 E0.27281
G1 X148.505 Y45.896 E0.02365
G1 X148.505 Y54.597 E0.27281
G1 X149.259 Y54.597 E0.02365
G1 X149.259 Y45.896 E0.27281
G1 X150.013 Y45.896 E0.02365
G1 X150.013 Y54.766 E0.27813
G1 F8640
G1 X150.013 Y51.475 E-0.76000
G1 E-0.04000 F2100.00000
G1 Z0.800 F10800.000
G1 X165.096 Y54.766
G1 Z0.200
G1 E0.80000 F2100.00000
G1 F1800
G1 X165.096 Y45.896 E0.27813
G1 X165.850 Y45.896 E0.02365
G1 X165.850 Y54.597 E0.27281
G1 X166.604 Y54.597 E0.02365
G1 X166.604 Y45.896 E0.27281
G1 X167.358 Y45.896 E0.02365
G1 X167.358 Y54.597 E0.27281
G1 X168.113 Y54.597 E0.02365
G1 X168.113 Y45.896 E0.27281
G1 X168.867 Y45.896 E0.02365
G1 X168.867 Y54.597 E0.27281
G1 X169.621 Y54.597 E0.02365
G1 X169.621 Y45.896 E0.27281
G1 X170.375 Y45.896 E0.02365
G1 X170.375 Y54.597 E0.27281
G1 X171.129 Y54.597 E0.02365
G1 X171.129 Y45.896 E0.27281
G1 X171.883 Y45.896 E0.02365
G1 X171.883 Y54.597 E0.27281
G1 X172.638 Y54.597 E0.02365
G1 X172.638 Y45.896 E0.27281
G1 X173.392 Y45.896 E0.02365
G1 X173.392 Y54.597 E0.27281
G1 X174.146 Y54.597 E0.02365
G1 X174.146 Y45.896 E0.27281
G1 X174.900 Y45.896 E0.02365
G1 X174.900 Y54.597 E0.27281
G1 X175.654 Y54.597 E0.02365
G1 X175.654 Y45.896 E0.27281
G1 X176.408 Y45.896 E0.02365
G1 X176.408 Y54.597 E0.27281
G1 X177.163 Y54.597 E0.02365
G1 X177.163 Y45.896 E0.27281
G1 X177.917 Y45.896 E0.02365
G1 X177.917 Y54.597 E0.27281
G1 X178.671 Y54.597 E0.02365
G1 X178.671 Y45.896 E0.27281
G1 X179.425 Y45.896 E0.02365
G1 X179.425 Y54.766 E0.27813
G1 F8640
G1 X179.425 Y51.475 E-0.76000
G1 E-0.04000 F2100.00000
G1 Z0.800 F10800.000
G1 X175.640 Y85.462
G1 Z0.200
G1 E0.80000 F2100.00000
G1 F1800
G1 X176.141 Y85.616 E0.01643
G1 X176.608 Y85.852 E0.01643
G1 X177.030 Y86.163 E0.01643
G1 X177.392 Y86.542 E0.01643
G1 X177.686 Y86.976 E0.01643
G1 X177.902 Y87.453 E0.01643
G1 X178.034 Y87.960 E0.01643
G1 X178.078 Y88.482 E0.01643
G1 X178.034 Y89.004 E0.01643
G1 X177.901 Y89.513 E0.01648
G1 X177.677 Y90.002 E0.01687
G1 X177.392 Y90.423 E0.01593
G1 X177.030 Y90.801 E0.01643
G1 X176.608 Y91.113 E0.01643
G1 X176.141 Y91.349 E0.01643
G1 X175.640 Y91.502 E0.01643
G1 X175.120 Y91.569 E0.01643
G1 X174.596 Y91.546 E0.01643
G1 X174.084 Y91.436 E0.01643
G1 X173.598 Y91.241 E0.01643
G1 X173.152 Y90.966 E0.01643
G1 X172.759 Y90.620 E0.01643
G1 X172.429 Y90.212 E0.01643
G1 X172.174 Y89.755 E0.01643
G1 X171.999 Y89.261 E0.01643
G1 X171.911 Y88.744 E0.01643
G1 X171.911 Y88.220 E0.01643
G1 X171.999 Y87.704 E0.01643
G1 X172.174 Y87.210 E0.01643
G1 X172.429 Y86.752 E0.01643
G1 X172.759 Y86.345 E0.01643
G1 X173.152 Y85.999 E0.01643
G1 X173.598 Y85.724 E0.01643
G1 X174.086 Y85.528 E0.01648
G1 X174.612 Y85.417 E0.01687
G1 X175.120 Y85.396 E0.01593
G1 X175.580 Y85.455 E0.01455
G1 X175.532 Y85.829 F10800.000
G1 F1800
G1 X176.000 Y85.967 E0.01528
G1 X176.410 Y86.174 E0.01442
G1 X176.780 Y86.447 E0.01442
G1 X177.098 Y86.779 E0.01442
G1 X177.355 Y87.160 E0.01442
G1 X177.545 Y87.579 E0.01442
G1 X177.661 Y88.024 E0.01442
G1 X177.700 Y88.482 E0.01442
G1 X177.661 Y88.940 E0.01442
G1 X177.545 Y89.386 E0.01443
G1 X177.347 Y89.816 E0.01485
G1 X177.098 Y90.185 E0.01395
G1 X176.780 Y90.517 E0.01442
G1 X176.410 Y90.791 E0.01442
G1 X176.000 Y90.998 E0.01442
G1 X175.560 Y91.132 E0.01442
G1 X175.104 Y91.191 E0.01442
G1 X174.644 Y91.171 E0.01442
G1 X174.195 Y91.074 E0.01442
G1 X173.768 Y90.903 E0.01442
G1 X173.377 Y90.662 E0.01442
G1 X173.032 Y90.358 E0.01442
G1 X172.743 Y90.000 E0.01442
G1 X172.519 Y89.599 E0.01442
G1 X172.366 Y89.165 E0.01442
G1 X172.288 Y88.712 E0.01442
G1 X172.288 Y88.252 E0.01442
G1 X172.366 Y87.799 E0.01442
G1 X172.519 Y87.366 E0.01442
G1 X172.743 Y86.964 E0.01442
G1 X173.032 Y86.607 E0.01442
G1 X173.377 Y86.303 E0.01442
G1 X173.768 Y86.062 E0.01442
G1 X174.196 Y85.890 E0.01443
G1 X174.659 Y85.793 E0.01485
G1 X175.104 Y85.774 E0.01395
G1 X175.473 Y85.821 E0.01166
G1 X175.799 Y85.530 F10800.000
G1 F8640
G1 X176.000 Y85.967 E-0.12621
G1 X176.410 Y86.174 E-0.10616
G1 X176.780 Y86.447 E-0.10616
G1 X177.098 Y86.779 E-0.10616
G1 X177.355 Y87.160 E-0.10616
G1 X177.545 Y87.579 E-0.10617
G1 X177.657 Y88.011 E-0.10297
G1 E-0.04000 F2100.00000
G1 Z0.800 F10800.000
G1 X83.078 Y88.482
G1 Z0.200
G1 E0.80000 F2100.00000
G1 F1800
G1 X83.034 Y89.004 E0.01643
G1 X82.902 Y89.511 E0.01643
G1 X82.686 Y89.989 E0.01643
G1 X82.392 Y90.423 E0.01643
G1 X82.030 Y90.801 E0.01643
G1 X81.608 Y91.113 E0.01643
G1 X81.141 Y91.349 E0.01643
G1 X80.640 Y91.502 E0.01643
G1 X80.120 Y91.569 E0.01643
G1 X79.596 Y91.546 E0.01643
G1 X79.084 Y91.436 E0.01643
G1 X78.598 Y91.241 E0.01643
G1 X78.152 Y90.966 E0.01643
G1 X77.759 Y90.620 E0.01643
G1 X77.429 Y90.212 E0.01643
G1 X77.174 Y89.755 E0.01643
G1 X76.999 Y89.261 E0.01643
G1 X76.911 Y88.744 E0.01643
G1 X76.911 Y88.219 E0.01648
G1 X77.005 Y87.689 E0.01687
G1 X77.174 Y87.210 E0.01593
G1 X77.429 Y86.752 E0.01643
G1 X77.759 Y86.345 E0.01643
G1 X78.152 Y85.999 E0.01643
G1 X78.598 Y85.724 E0.01643
G1 X79.086 Y85.528 E0.01648
G1 X79.612 Y85.417 E0.01687
G1 X80.120 Y85.396 E0.01593
G1 X80.640 Y85.462 E0.01643
G1 X81.141 Y85.616 E0.01643
G1 X81.608 Y85.852 E0.01643
G1 X82.030 Y86.163 E0.01643
G1 X82.393 Y86.543 E0.01648
G1 X82.692 Y86.990 E0.01687
G1 X82.902 Y87.453 E0.01593
G1 X83.034 Y87.960 E0.01643
G1 X83.073 Y88.422 E0.01455
G1 X82.697 Y88.454 F10800.000
G1 F1800
G1 X82.661 Y88.940 E0.01528
G1 X82.545 Y89.385 E0.01442
G1 X82.355 Y89.804 E0.01442
G1 X82.098 Y90.185 E0.01442
G1 X81.780 Y90.517 E0.01442
G1 X81.410 Y90.791 E0.01442
G1 X81.000 Y90.998 E0.01442
G1 X80.560 Y91.132 E0.01442
G1 X80.104 Y91.191 E0.01442
G1 X79.644 Y91.171 E0.01442
G1 X79.195 Y91.074 E0.01442
G1 X78.768 Y90.903 E0.01442
G1 X78.377 Y90.662 E0.01442
G1 X78.032 Y90.358 E0.01442
G1 X77.743 Y90.000 E0.01442
G1 X77.519 Y89.599 E0.01442
G1 X77.366 Y89.165 E0.01442
G1 X77.288 Y88.712 E0.01442
G1 X77.288 Y88.252 E0.01443
G1 X77.370 Y87.785 E0.01485
G1 X77.519 Y87.366 E0.01395
G1 X77.743 Y86.964 E0.01442
G1 X78.032 Y86.607 E0.01442
G1 X78.377 Y86.303 E0.01442
G1 X78.768 Y86.062 E0.01442
G1 X79.196 Y85.890 E0.01443
G1 X79.659 Y85.793 E0.01485
G1 X80.104 Y85.774 E0.01395
G1 X80.560 Y85.832 E0.01442
G1 X81.000 Y85.967 E0.01442
G1 X81.410 Y86.174 E0.01442
G1 X81.780 Y86.447 E0.01442
G1 X82.098 Y86.780 E0.01443
G1 X82.361 Y87.174 E0.01485
G1 X82.545 Y87.579 E0.01395
G1 X82.661 Y88.024 E0.01442
G1 X82.692 Y88.395 E0.01166
G1 X83.045 Y88.652 F10800.000
G1 F8640
G1 X82.661 Y88.940 E-0.12622
G1 X82.545 Y89.385 E-0.10616
G1 X82.355 Y89.804 E-0.10616
G1 X82.098 Y90.185 E-0.10616
G1 X81.780 Y90.517 E-0.10616
G1 X81.410 Y90.791 E-0.10616
G1 X81.012 Y90.991 E-0.10296
G1 E-0.04000 F2100.00000
G1 Z0.800 F10800.000
G1 X74.402 Y44.895
G1 Z0.200
G1 E0.80000 F2100.00000
G1 F1800
G1 X180.576 Y44.895 E3.32902
G1 X180.576 Y73.069 E0.88338
G1 X74.402 Y73.069 E3.32902
G1 X74.402 Y44.955 E0.88150
M73 Q0 S227
M73 P0 R221
G1 X74.779 Y45.272 F10800.000
G1 F1800
G1 X180.199 Y45.272 E3.30537
G1 X180.199 Y72.692 E0.85973
G1 X74.779 Y72.692 E3.30537
G1 X74.779 Y45.332 E0.85785
G1 X74.609 Y44.910 F10800.000
G1 F8640
G1 X78.070 Y45.330 E-0.76000
G1 E-0.04000 F2100.00000
G1 Z0.800 F10800.000
G1 X189.402 Y78.069
G1 Z0.200
G1 E0.80000 F2100.00000
G1 F1800
G1 X199.402 Y78.069 E0.31354
G1 X199.402 Y94.895 E0.52756
G1 X55.576 Y94.895 E4.50956
G1 X55.576 Y78.069 E0.52756
G1 X65.576 Y78.069 E0.31354
G1 X65.576 Y36.069 E1.31688
G1 X189.402 Y36.069 E3.88247
G1 X189.402 Y78.009 E1.31500
G1 X189.779 Y77.692 F10800.000
G1 F1800
G1 X199.779 Y77.692 E0.31354
G1 X199.779 Y95.272 E0.55121
G1 X55.199 Y95.272 E4.53320
G1 X55.199 Y77.692 E0.55121
G1 X65.199 Y77.692 E0.31354
G1 X65.199 Y35.692 E1.31688
G1 X189.779 Y35.692 E3.90612
G1 X189.779 Y77.632 E1.31500
G1 X189.940 Y78.058 F10800.000
G1 F8640
G1 X193.070 Y77.652 E-0.76000
G1 E-0.04000 F2100.00000
G1 Z0.800 F10800.000
G1 X199.289 Y78.992
G1 Z0.200
G1 E0.80000 F2100.00000
G1 F1800
G1 X198.649 Y78.352 E0.02840
G1 X198.115 Y78.352 E0.01677
G1 X199.119 Y79.356 E0.04459
G1 X199.119 Y79.890 E0.01677
G1 X197.581 Y78.352 E0.06831
G1 X197.047 Y78.352 E0.01677
G1 X199.119 Y80.424 E0.09203
G1 X199.119 Y80.958 E0.01677
G1 X196.513 Y78.352 E0.11575
G1 X195.979 Y78.352 E0.01677
G1 X199.119 Y81.492 E0.13947
G1 X199.119 Y82.027 E0.01677
G1 X195.444 Y78.352 E0.16318
G1 X194.910 Y78.352 E0.01677
G1 X199.119 Y82.561 E0.18690
G1 X199.119 Y83.095 E0.01677
G1 X194.376 Y78.352 E0.21062
G1 X193.842 Y78.352 E0.01677
G1 X199.119 Y83.629 E0.23434
G1 X199.119 Y84.163 E0.01677
G1 X193.308 Y78.352 E0.25806
G1 X192.774 Y78.352 E0.01677
G1 X199.119 Y84.697 E0.28178
G1 X199.119 Y85.231 E0.01677
G1 X192.240 Y78.352 E0.30550
G1 X191.706 Y78.352 E0.01677
G1 X199.119 Y85.765 E0.32922
G1 X199.119 Y86.299 E0.01677
G1 X191.172 Y78.352 E0.35294
G1 X190.638 Y78.352 E0.01677
G1 X199.119 Y86.833 E0.37666
G1 X199.119 Y87.368 E0.01677
G1 X190.103 Y78.352 E0.40038
G1 X189.569 Y78.352 E0.01677
G1 X199.289 Y88.071 E0.43163
G1 F8640
G1 X196.961 Y85.744 E-0.76000
G1 E-0.04000 F2100.00000
G1 Z0.800 F10800.000
G1 X185.170 Y94.782
G1 Z0.200
G1 E0.80000 F2100.00000
G1 F1800
G1 X178.315 Y87.927 E0.30443
G1 X178.360 Y88.506 E0.01825
G1 X184.466 Y94.612 E0.27117
G1 X183.932 Y94.612 E0.01677
G1 X178.318 Y88.999 E0.24931
G1 X178.215 Y89.430 E0.01392
G1 X183.398 Y94.612 E0.23016
G1 X182.864 Y94.612 E0.01677
G1 X178.071 Y89.820 E0.21282
G1 X177.898 Y90.180 E0.01256
G1 X182.329 Y94.612 E0.19682
G1 X181.795 Y94.612 E0.01677
G1 X177.682 Y90.499 E0.18267
G1 X177.613 Y90.601 E0.00387
G1 X177.435 Y90.787 E0.00806
G1 X181.261 Y94.612 E0.16990
G1 X180.727 Y94.612 E0.01677
G1 X177.167 Y91.052 E0.15813
G1 X176.860 Y91.279 E0.01199
G1 X180.193 Y94.612 E0.14804
G1 X179.659 Y94.612 E0.01677
G1 X176.520 Y91.474 E0.13938
G1 X176.246 Y91.612 E0.00964
G1 X176.153 Y91.641 E0.00307
G1 X179.125 Y94.612 E0.13198
G1 X178.591 Y94.612 E0.01677
G1 X175.744 Y91.766 E0.12642
G1 X175.278 Y91.834 E0.01480
G1 X178.057 Y94.612 E0.12341
G1 X177.523 Y94.612 E0.01677
G1 X174.746 Y91.836 E0.12331
G1 X174.560 Y91.828 E0.00583
G1 X174.106 Y91.730 E0.01459
G1 X177.158 Y94.782 E0.13554
G1 F8640
G1 X174.831 Y92.455 E-0.76000
G1 E-0.04000 F2100.00000
G1 Z0.800 F10800.000
G1 X178.078 Y87.156
G1 Z0.200
G1 E0.80000 F2100.00000
G1 F1800
