; generated by Slic3r Prusa Edition 1.41.0+win64 on 2018-10-23 at 17:26:29

; 

; external perimeters extrusion width = 0.45mm
; perimeters extrusion width = 0.45mm
; infill extrusion width = 0.45mm
; solid infill extrusion width = 0.45mm
; top infill extrusion width = 0.40mm
; first layer extrusion width = 0.42mm

M201 X1000 Y1000 Z1000 E5000 ; sets maximum accelerations, mm/sec^2
M203 X200 Y200 Z12 E120 ; sets maximum feedrates, mm/sec
M204 P1250 R1250 T1250 ; sets acceleration (P, T) and retract acceleration (R), mm/sec^2
M205 X8.00 Y8.00 Z0.40 E1.50 ; sets the jerk limits, mm/sec
M205 S0 T0 ; sets the minimum extruding and travel feed rate, mm/sec
M107
M115 U3.4.0 ; tell printer latest fw version
M83  ; extruder relative mode
M104 S215 ; set extruder temp
M140 S60 ; set bed temp
M190 S60 ; wait for bed temp
M109 S215 ; wait for extruder temp
G28 W ; home all without mesh bed level
G80 ; mesh bed leveling
G1 Y-3.0 F1000.0 ; go outside print area
G92 E0.0
G1 X60.0 E9.0  F1000.0 ; intro line
M73 Q0 S70
M73 P0 R68
G1 X100.0 E12.5  F1000.0 ; intro line
G92 E0.0
M221 S95
M900 K30; Filament gcode
G21 ; set units to millimeters
G90 ; use absolute coordinates
M83 ; use relative distances for extrusion
;BEFORE_LAYER_CHANGE
G92 E0.0
;0.2


G1 E-0.80000 F2100.00000
G1 Z0.600 F10800.000
;AFTER_LAYER_CHANGE
;0.2
G1 X54.484 Y34.560
G1 Z0.200
G1 E0.80000 F2100.00000
M204 S1000
G1 X54.921 Y33.607 E0.03289
G1 X55.396 Y32.860 E0.02774
G1 X55.972 Y32.165 E0.02830
G1 X56.630 Y31.547 E0.02830
G1 X57.357 Y31.018 E0.02820
G1 X58.148 Y30.583 E0.02830
G1 X58.984 Y30.252 E0.02819
G1 X59.858 Y30.027 E0.02832
G1 X60.732 Y29.914 E0.02761
G1 X104.314 Y29.898 E1.36651
G1 X105.631 Y30.041 E0.04151
G1 X107.210 Y30.554 E0.05206
G1 X108.158 Y31.081 E0.03401
G1 X109.386 Y32.099 E0.05001
G1 X110.091 Y32.956 E0.03481
G1 X110.874 Y34.391 E0.05125
G1 X111.193 Y35.382 E0.03264
G1 X111.394 Y36.831 E0.04586
G1 X111.399 Y113.962 E2.41841
G1 X111.168 Y115.647 E0.05332
G1 X110.893 Y116.488 E0.02773
G1 X110.502 Y117.313 E0.02864
G1 X110.026 Y118.063 E0.02786
G1 X109.453 Y118.756 E0.02817
G1 X108.795 Y119.374 E0.02831
G1 X108.058 Y119.909 E0.02854
G1 X107.270 Y120.342 E0.02819
G1 X106.427 Y120.675 E0.02842
G1 X105.553 Y120.899 E0.02831
G1 X104.639 Y121.012 E0.02887
G1 X56.182 Y121.025 E1.51935
G1 X55.316 Y120.947 E0.02724
G1 X54.690 Y120.796 E0.02020
G1 X53.538 Y120.281 E0.03956
G1 X52.460 Y119.421 E0.04327
G1 X51.686 Y118.375 E0.04079
G1 X51.193 Y117.155 E0.04126
G1 X51.024 Y115.926 E0.03890
G1 X51.023 Y57.054 E1.84588
G1 X54.091 Y36.102 E0.66395
G1 X54.469 Y34.618 E0.04800
; PURGING FINISHED
G1 F8640
G1 X54.921 Y33.607 E-0.25584
G1 X55.396 Y32.860 E-0.20430
G1 X55.972 Y32.165 E-0.20842
G1 X56.260 Y31.894 E-0.09144
G1 E-0.04000 F2100.00000
G1 Z0.800 F10800.000
G1 X58.660 Y116.424
G1 Z0.200
G1 E0.80000 F2100.00000
G1 X97.442 Y116.417 E1.21600
G1 X97.883 Y116.361 E0.01394
G1 X98.320 Y116.249 E0.01413
G1 X98.739 Y116.084 E0.01413
G1 X99.134 Y115.866 E0.01413
G1 X99.498 Y115.602 E0.01413
G1 X99.827 Y115.293 E0.01413
G1 X100.114 Y114.946 E0.01413
G1 X100.355 Y114.565 E0.01413
G1 X100.547 Y114.158 E0.01413
G1 X100.686 Y113.729 E0.01413
G1 X100.771 Y113.286 E0.01413
G1 X100.798 Y112.855 E0.01355
G1 X100.798 Y60.068 E1.65510
G1 X100.771 Y59.637 E0.01355
G1 X100.686 Y59.194 E0.01413
G1 X100.547 Y58.766 E0.01413
G1 X100.355 Y58.358 E0.01413
G1 X100.114 Y57.978 E0.01413
G1 X99.826 Y57.630 E0.01413
G1 X99.498 Y57.322 E0.01412
G1 X99.134 Y57.057 E0.01413
G1 X98.739 Y56.840 E0.01413
G1 X98.320 Y56.674 E0.01413
G1 X97.883 Y56.562 E0.01413
G1 X97.436 Y56.506 E0.01412
G1 X58.660 Y56.500 E1.21582
G1 X58.604 Y57.389 E0.02794
G1 X58.547 Y57.687 E0.00950
G1 X58.453 Y57.975 E0.00950
G1 X58.324 Y58.249 E0.00950
G1 X58.162 Y58.504 E0.00949
G1 X57.967 Y58.739 E0.00957
G1 X57.748 Y58.945 E0.00943
G1 X57.503 Y59.123 E0.00950
G1 X57.238 Y59.269 E0.00950
G1 X56.956 Y59.381 E0.00950
G1 X56.663 Y59.456 E0.00950
G1 X56.362 Y59.494 E0.00950
G1 X56.059 Y59.494 E0.00950
G1 X55.759 Y59.456 E0.00950
G1 X55.466 Y59.381 E0.00950
G1 X55.184 Y59.269 E0.00950
G1 X54.919 Y59.123 E0.00950
G1 X54.674 Y58.945 E0.00950
G1 X54.453 Y58.738 E0.00950
G1 X54.260 Y58.504 E0.00949
G1 X54.097 Y58.249 E0.00950
G1 X53.968 Y57.975 E0.00950
G1 X53.875 Y57.687 E0.00950
G1 X53.818 Y57.389 E0.00950
G1 X53.799 Y57.089 E0.00943
G1 X53.818 Y56.784 E0.00957
G1 X53.875 Y56.487 E0.00949
G1 X53.968 Y56.199 E0.00950
G1 X54.097 Y55.925 E0.00950
G1 X54.260 Y55.669 E0.00950
G1 X54.453 Y55.436 E0.00949
G1 X54.674 Y55.228 E0.00950
G1 X54.919 Y55.050 E0.00950
G1 X55.184 Y54.905 E0.00950
G1 X55.466 Y54.793 E0.00950
G1 X55.759 Y54.718 E0.00950
G1 X56.059 Y54.680 E0.00950
G1 X56.798 Y54.680 E0.02316
G1 X56.798 Y37.009 E0.55406
G1 X56.833 Y36.537 E0.01482
G1 X56.938 Y35.990 E0.01748
G1 X57.109 Y35.463 E0.01737
G1 X57.345 Y34.961 E0.01737
G1 X57.642 Y34.494 E0.01737
G1 X57.995 Y34.067 E0.01737
G1 X58.399 Y33.687 E0.01737
G1 X58.847 Y33.362 E0.01737
G1 X59.332 Y33.095 E0.01737
G1 X59.848 Y32.891 E0.01737
G1 X60.384 Y32.753 E0.01737
G1 X60.934 Y32.684 E0.01737
G1 X104.488 Y32.684 E1.36561
G1 X105.038 Y32.753 E0.01737
G1 X105.574 Y32.891 E0.01737
G1 X106.089 Y33.095 E0.01737
G1 X106.575 Y33.362 E0.01737
G1 X107.023 Y33.687 E0.01737
G1 X107.427 Y34.067 E0.01737
G1 X107.778 Y34.491 E0.01725
G1 X108.077 Y34.962 E0.01750
G1 X108.313 Y35.463 E0.01737
G1 X108.484 Y35.990 E0.01737
G1 X108.588 Y36.537 E0.01748
G1 X108.624 Y37.009 E0.01482
G1 X108.624 Y42.500 E0.17217
G1 X102.262 Y42.500 E0.19946
G1 X102.123 Y41.697 E0.02554
G1 X101.907 Y41.030 E0.02200
G1 X101.608 Y40.395 E0.02201
G1 X101.234 Y39.806 E0.02186
G1 X100.785 Y39.262 E0.02213
G1 X100.273 Y38.781 E0.02201
G1 X99.705 Y38.368 E0.02200
G1 X99.090 Y38.030 E0.02200
G1 X98.438 Y37.772 E0.02201
G1 X97.758 Y37.598 E0.02200
G1 X97.062 Y37.510 E0.02200
G1 X67.192 Y37.500 E0.93653
G1 X66.520 Y37.542 E0.02114
G1 X66.155 Y37.600 E0.01158
G1 X65.493 Y37.770 E0.02142
G1 X65.145 Y37.895 E0.01159
G1 X64.519 Y38.190 E0.02171
G1 X63.934 Y38.561 E0.02171
G1 X63.642 Y38.787 E0.01159
G1 X63.144 Y39.255 E0.02143
G1 X62.900 Y39.532 E0.01158
G1 X62.493 Y40.092 E0.02171
G1 X62.154 Y40.707 E0.02200
G1 X61.900 Y41.349 E0.02164
G1 X61.796 Y41.706 E0.01165
G1 X61.667 Y42.386 E0.02171
G1 X61.623 Y43.075 E0.02165
G1 X61.668 Y43.796 E0.02265
G1 X61.796 Y44.467 E0.02142
G1 X61.900 Y44.822 E0.01158
G1 X62.154 Y45.464 E0.02164
G1 X62.492 Y46.081 E0.02207
G1 X62.900 Y46.641 E0.02172
G1 X63.144 Y46.918 E0.01158
G1 X63.642 Y47.386 E0.02143
G1 X63.934 Y47.613 E0.01159
G1 X64.519 Y47.984 E0.02171
G1 X65.145 Y48.279 E0.02171
G1 X65.484 Y48.401 E0.01130
G1 X65.832 Y48.502 E0.01136
G1 X66.510 Y48.631 E0.02164
G1 X67.192 Y48.674 E0.02142
G1 X104.488 Y48.684 E1.16937
G1 X105.038 Y48.753 E0.01737
G1 X105.574 Y48.891 E0.01737
G1 X106.089 Y49.095 E0.01737
G1 X106.575 Y49.362 E0.01737
G1 X107.023 Y49.687 E0.01737
G1 X107.427 Y50.067 E0.01737
G1 X107.780 Y50.494 E0.01737
G1 X108.077 Y50.961 E0.01737
G1 X108.313 Y51.463 E0.01737
G1 X108.484 Y51.990 E0.01737
G1 X108.588 Y52.537 E0.01748
G1 X108.624 Y53.009 E0.01482
G1 X108.624 Y113.915 E1.90967
G1 X108.588 Y114.386 E0.01482
G1 X108.484 Y114.934 E0.01748
G1 X108.313 Y115.461 E0.01737
G1 X108.077 Y115.962 E0.01737
G1 X107.780 Y116.430 E0.01737
G1 X107.427 Y116.857 E0.01737
G1 X107.023 Y117.236 E0.01737
G1 X106.575 Y117.562 E0.01737
G1 X106.089 Y117.829 E0.01737
G1 X105.574 Y118.033 E0.01737
G1 X105.037 Y118.170 E0.01737
G1 X104.297 Y118.250 E0.02334
G1 X56.239 Y118.250 E1.50685
G1 X55.750 Y118.204 E0.01539
G1 X55.466 Y118.130 E0.00921
G1 X55.184 Y118.019 E0.00950
G1 X54.919 Y117.873 E0.00950
G1 X54.674 Y117.695 E0.00950
G1 X54.453 Y117.488 E0.00950
G1 X54.260 Y117.254 E0.00950
G1 X54.099 Y117.001 E0.00943
G1 X53.968 Y116.724 E0.00957
G1 X53.875 Y116.437 E0.00949
G1 X53.818 Y116.139 E0.00950
G1 X53.799 Y115.839 E0.00943
G1 X53.818 Y115.534 E0.00957
G1 X53.875 Y115.237 E0.00949
G1 X53.968 Y114.949 E0.00950
G1 X54.097 Y114.675 E0.00950
G1 X54.258 Y114.421 E0.00943
G1 X54.453 Y114.186 E0.00957
G1 X54.674 Y113.978 E0.00949
G1 X54.919 Y113.800 E0.00950
G1 X55.184 Y113.655 E0.00950
G1 X55.466 Y113.543 E0.00950
G1 X55.759 Y113.468 E0.00950
G1 X56.059 Y113.430 E0.00949
G1 X56.365 Y113.430 E0.00957
G1 X56.663 Y113.468 E0.00943
G1 X56.956 Y113.543 E0.00950
G1 X57.238 Y113.655 E0.00950
G1 X57.503 Y113.800 E0.00950
G1 X57.748 Y113.978 E0.00950
G1 X57.969 Y114.186 E0.00950
G1 X58.162 Y114.419 E0.00950
G1 X58.324 Y114.675 E0.00950
G1 X58.453 Y114.949 E0.00950
G1 X58.547 Y115.237 E0.00950
G1 X58.604 Y115.534 E0.00950
G1 X58.656 Y116.364 E0.02606
G1 X59.014 Y116.047 F10800.000
G1 F2100
G1 X97.415 Y116.041 E1.20404
G1 X97.812 Y115.990 E0.01257
G1 X98.203 Y115.890 E0.01264
G1 X98.578 Y115.742 E0.01264
G1 X98.931 Y115.547 E0.01264
G1 X99.257 Y115.310 E0.01264
G1 X99.551 Y115.034 E0.01264
G1 X99.808 Y114.724 E0.01264
G1 X100.024 Y114.383 E0.01264
G1 X100.196 Y114.019 E0.01264
G1 X100.320 Y113.635 E0.01264
G1 X100.396 Y113.239 E0.01264
G1 X100.421 Y112.843 E0.01243
G1 X100.421 Y60.080 E1.65435
G1 X100.396 Y59.684 E0.01243
G1 X100.320 Y59.288 E0.01264
G1 X100.196 Y58.905 E0.01264
G1 X100.024 Y58.540 E0.01264
G1 X99.808 Y58.200 E0.01264
G1 X99.551 Y57.889 E0.01264
G1 X99.257 Y57.613 E0.01264
G1 X98.931 Y57.376 E0.01264
G1 X98.578 Y57.182 E0.01264
G1 X98.203 Y57.033 E0.01264
G1 X97.812 Y56.933 E0.01264
G1 X97.412 Y56.883 E0.01264
G1 X59.014 Y56.877 E1.20397
G1 X58.978 Y57.436 E0.01758
G1 X58.913 Y57.781 E0.01098
G1 X58.805 Y58.114 E0.01098
G1 X58.655 Y58.431 E0.01098
G1 X58.468 Y58.726 E0.01098
G1 X58.243 Y58.998 E0.01106
G1 X57.989 Y59.236 E0.01091
G1 X57.706 Y59.442 E0.01099
G1 X57.399 Y59.611 E0.01098
G1 X57.073 Y59.740 E0.01098
G1 X56.734 Y59.827 E0.01098
G1 X56.386 Y59.871 E0.01098
G1 X56.036 Y59.871 E0.01098
G1 X55.688 Y59.827 E0.01098
G1 X55.349 Y59.740 E0.01098
G1 X55.023 Y59.611 E0.01098
G1 X54.716 Y59.442 E0.01098
G1 X54.433 Y59.236 E0.01099
G1 X54.177 Y58.996 E0.01099
G1 X53.954 Y58.726 E0.01098
G1 X53.766 Y58.431 E0.01098
G1 X53.617 Y58.114 E0.01098
G1 X53.509 Y57.781 E0.01098
G1 X53.443 Y57.436 E0.01098
G1 X53.421 Y57.089 E0.01091
G1 X53.443 Y56.737 E0.01106
G1 X53.509 Y56.393 E0.01098
G1 X53.617 Y56.060 E0.01098
G1 X53.766 Y55.743 E0.01098
G1 X53.954 Y55.447 E0.01098
G1 X54.177 Y55.177 E0.01098
G1 X54.433 Y54.937 E0.01099
G1 X54.716 Y54.731 E0.01099
G1 X55.023 Y54.563 E0.01098
G1 X55.349 Y54.434 E0.01098
G1 X55.688 Y54.347 E0.01098
G1 X56.036 Y54.303 E0.01098
G1 X56.421 Y54.303 E0.01208
G1 X56.421 Y36.995 E0.54268
G1 X56.459 Y36.488 E0.01594
G1 X56.572 Y35.896 E0.01890
G1 X56.758 Y35.324 E0.01886
G1 X57.014 Y34.779 E0.01886
G1 X57.336 Y34.272 E0.01886
G1 X57.719 Y33.808 E0.01886
G1 X58.158 Y33.396 E0.01886
G1 X58.644 Y33.043 E0.01886
G1 X59.172 Y32.753 E0.01886
G1 X59.731 Y32.532 E0.01886
G1 X60.313 Y32.382 E0.01886
G1 X60.910 Y32.307 E0.01886
G1 X104.512 Y32.307 E1.36710
G1 X105.108 Y32.382 E0.01886
G1 X105.691 Y32.532 E0.01886
G1 X106.250 Y32.753 E0.01886
G1 X106.777 Y33.043 E0.01886
G1 X107.264 Y33.396 E0.01886
G1 X107.702 Y33.808 E0.01886
G1 X108.083 Y34.268 E0.01873
G1 X108.408 Y34.779 E0.01899
G1 X108.664 Y35.324 E0.01886
G1 X108.850 Y35.896 E0.01886
G1 X108.963 Y36.488 E0.01890
G1 X109.001 Y36.995 E0.01594
G1 X109.001 Y42.877 E0.18443
G1 X101.908 Y42.877 E0.22239
G1 X101.880 Y42.434 E0.01392
G1 X101.758 Y41.791 E0.02051
G1 X101.555 Y41.169 E0.02052
G1 X101.277 Y40.577 E0.02052
G1 X100.928 Y40.028 E0.02038
G1 X100.509 Y39.520 E0.02065
G1 X100.032 Y39.072 E0.02052
G1 X99.503 Y38.687 E0.02052
G1 X98.929 Y38.372 E0.02051
G1 X98.321 Y38.131 E0.02052
G1 X97.687 Y37.969 E0.02052
G1 X97.038 Y37.887 E0.02051
G1 X67.204 Y37.877 E0.93542
G1 X66.561 Y37.917 E0.02021
G1 X66.231 Y37.970 E0.01047
G1 X65.604 Y38.131 E0.02031
G1 X65.290 Y38.244 E0.01047
G1 X64.701 Y38.521 E0.02041
G1 X64.151 Y38.870 E0.02041
G1 X63.887 Y39.074 E0.01047
G1 X63.415 Y39.518 E0.02031
G1 X63.194 Y39.768 E0.01047
G1 X62.812 Y40.295 E0.02041
G1 X62.496 Y40.868 E0.02051
G1 X62.257 Y41.472 E0.02035
G1 X62.163 Y41.794 E0.01054
G1 X62.042 Y42.434 E0.02041
G1 X62.001 Y43.081 E0.02035
G1 X62.042 Y43.743 E0.02079
G1 X62.163 Y44.379 E0.02031
G1 X62.257 Y44.700 E0.01047
G1 X62.495 Y45.303 E0.02035
G1 X62.812 Y45.879 E0.02058
G1 X63.194 Y46.405 E0.02041
G1 X63.415 Y46.656 E0.01047
G1 X63.887 Y47.099 E0.02031
G1 X64.151 Y47.304 E0.01047
G1 X64.701 Y47.653 E0.02041
G1 X65.290 Y47.930 E0.02041
G1 X65.601 Y48.042 E0.01037
G1 X65.920 Y48.135 E0.01043
G1 X66.558 Y48.256 E0.02034
G1 X67.204 Y48.297 E0.02031
G1 X104.512 Y48.307 E1.16975
G1 X105.108 Y48.382 E0.01886
G1 X105.691 Y48.532 E0.01886
G1 X106.250 Y48.753 E0.01886
G1 X106.777 Y49.043 E0.01886
G1 X107.264 Y49.396 E0.01886
G1 X107.702 Y49.808 E0.01886
G1 X108.086 Y50.272 E0.01886
G1 X108.408 Y50.779 E0.01886
G1 X108.664 Y51.324 E0.01886
G1 X108.850 Y51.896 E0.01886
G1 X108.963 Y52.488 E0.01890
G1 X109.001 Y52.995 E0.01594
G1 X109.001 Y113.929 E1.91055
G1 X108.963 Y114.436 E0.01594
G1 X108.850 Y115.028 E0.01890
G1 X108.664 Y115.600 E0.01886
G1 X108.408 Y116.144 E0.01886
G1 X108.086 Y116.652 E0.01886
G1 X107.702 Y117.115 E0.01886
G1 X107.264 Y117.527 E0.01886
G1 X106.777 Y117.881 E0.01886
G1 X106.250 Y118.171 E0.01886
G1 X105.691 Y118.392 E0.01886
G1 X105.108 Y118.542 E0.01886
G1 X104.507 Y118.618 E0.01901
G1 X56.221 Y118.627 E1.51398
G1 X55.685 Y118.576 E0.01688
G1 X55.349 Y118.490 E0.01088
G1 X55.023 Y118.361 E0.01098
G1 X54.716 Y118.192 E0.01098
G1 X54.433 Y117.986 E0.01098
G1 X54.177 Y117.746 E0.01098
G1 X53.954 Y117.476 E0.01098
G1 X53.768 Y117.183 E0.01091
G1 X53.617 Y116.864 E0.01106
G1 X53.509 Y116.531 E0.01098
G1 X53.443 Y116.186 E0.01098
G1 X53.421 Y115.839 E0.01091
G1 X53.443 Y115.487 E0.01106
G1 X53.509 Y115.143 E0.01098
G1 X53.617 Y114.810 E0.01098
G1 X53.766 Y114.493 E0.01098
G1 X53.953 Y114.199 E0.01091
G1 X54.177 Y113.927 E0.01106
G1 X54.433 Y113.687 E0.01098
G1 X54.716 Y113.481 E0.01098
G1 X55.023 Y113.313 E0.01098
G1 X55.349 Y113.184 E0.01098
G1 X55.688 Y113.097 E0.01098
G1 X56.036 Y113.053 E0.01098
G1 X56.388 Y113.053 E0.01106
G1 X56.734 Y113.097 E0.01091
G1 X57.073 Y113.184 E0.01098
G1 X57.399 Y113.313 E0.01098
G1 X57.706 Y113.481 E0.01098
G1 X57.989 Y113.687 E0.01098
G1 X58.244 Y113.927 E0.01098
G1 X58.468 Y114.197 E0.01098
G1 X58.655 Y114.493 E0.01098
G1 X58.805 Y114.810 E0.01098
G1 X58.913 Y115.143 E0.01098
G1 X58.978 Y115.487 E0.01098
G1 X59.010 Y115.987 E0.01570
G1 X59.028 Y116.446 F10800.000
G1 F8640
G1 X62.301 Y115.991 E-0.76000
G1 E-0.04000 F2100.00000
G1 Z0.800 F10800.000
G1 X58.405 Y115.167
G1 Z0.200
G1 E0.80000 F2100.00000
G1 X57.187 Y113.950 E0.05406
G1 X56.869 Y113.813 E0.01089
G1 X56.610 Y113.746 E0.00839
G1 X56.427 Y113.723 E0.00578
G1 X58.326 Y115.622 E0.08428
G1 X58.362 Y116.191 E0.01792
G1 X55.756 Y113.585 E0.11568
G1 F8640
G1 X58.083 Y115.913 E-0.76000
G1 E-0.04000 F2100.00000
G1 Z0.800 F10800.000
G1 X54.096 Y116.731
G1 Z0.200
G1 E0.80000 F2100.00000
G1 X55.315 Y117.949 E0.05408
G1 X56.014 Y118.115 F10800.000
G1 F2100
G1 X54.122 Y116.222 E0.08401
G1 X54.083 Y115.839 E0.01210
G1 X54.094 Y115.660 E0.00562
G1 X56.400 Y117.967 E0.10239
G1 X56.934 Y117.967 E0.01676
G1 X54.180 Y115.213 E0.12225
G1 X54.335 Y114.834 E0.01285
G1 X57.468 Y117.967 E0.13906
G1 X58.002 Y117.967 E0.01676
G1 X54.549 Y114.514 E0.15328
G1 X54.808 Y114.240 E0.01185
G1 X58.536 Y117.967 E0.16544
G1 X59.069 Y117.967 E0.01676
G1 X55.117 Y114.014 E0.17545
G1 X55.305 Y113.911 E0.00673
G1 X55.478 Y113.842 E0.00587
G1 X59.603 Y117.967 E0.18309
G1 X60.137 Y117.967 E0.01676
G1 X58.877 Y116.707 E0.05594
G1 X59.411 Y116.707 E0.01676
G1 X60.671 Y117.967 E0.05594
G1 X61.205 Y117.967 E0.01676
G1 X59.944 Y116.707 E0.05594
G1 X60.478 Y116.707 E0.01676
G1 X61.739 Y117.967 E0.05594
G1 X62.272 Y117.967 E0.01676
G1 X61.012 Y116.707 E0.05594
G1 X61.546 Y116.707 E0.01676
G1 X62.806 Y117.967 E0.05594
G1 X63.340 Y117.967 E0.01676
G1 X62.080 Y116.707 E0.05594
G1 X62.614 Y116.707 E0.01676
G1 X63.874 Y117.967 E0.05594
G1 X64.408 Y117.967 E0.01676
G1 X63.147 Y116.707 E0.05594
G1 X63.681 Y116.707 E0.01676
G1 X64.942 Y117.967 E0.05594
G1 X65.475 Y117.967 E0.01676
G1 X64.215 Y116.707 E0.05594
