; generated by Slic3r Prusa Edition 1.41.0+win64 on 2018-10-23 at 17:22:44

; 

; external perimeters extrusion width = 0.45mm
; perimeters extrusion width = 0.45mm
; infill extrusion width = 0.45mm
; solid infill extrusion width = 0.45mm
; top infill extrusion width = 0.40mm
; first layer extrusion width = 0.42mm

M201 X1000 Y1000 Z1000 E5000 ; sets maximum accelerations, mm/sec^2
M203 X200 Y200 Z12 E120 ; sets maximum feedrates, mm/sec
M204 P1250 R1250 T1250 ; sets acceleration (P, T) and retract acceleration (R), mm/sec^2
M205 X8.00 Y8.00 Z0.40 E1.50 ; sets the jerk limits, mm/sec
M205 S0 T0 ; sets the minimum extruding and travel feed rate, mm/sec
M107
M115 U3.4.0 ; tell printer latest fw version
M83  ; extruder relative mode
M104 S230 ; set extruder temp
M140 S85 ; set bed temp
M190 S85 ; wait for bed temp
M109 S230 ; wait for extruder temp
G28 W ; home all without mesh bed level
G80 ; mesh bed leveling
G1 Y-3.0 F1000.0 ; go outside print area
G92 E0.0
G1 X60.0 E9.0  F1000.0 ; intro line
M73 Q0 S54
M73 P0 R53
G1 X100.0 E12.5  F1000.0 ; intro line
G92 E0.0
M221 S95
M900 K45; Filament gcode
G21 ; set units to millimeters
G90 ; use absolute coordinates
M83 ; use relative distances for extrusion
;BEFORE_LAYER_CHANGE
G92 E0.0
;0.3


G1 E-0.80000 F2100.00000
G1 Z0.600 F10800.000
;AFTER_LAYER_CHANGE
;0.3
G1 X54.495 Y34.559
G1 Z0.300
G1 E0.80000 F2100.00000
M204 S1000
G1 X54.931 Y33.611 E0.04626
G1 X55.404 Y32.869 E0.03906
G1 X55.985 Y32.166 E0.04045
G1 X56.637 Y31.555 E0.03961
G1 X57.363 Y31.027 E0.03983
G1 X58.153 Y30.593 E0.03997
G1 X58.987 Y30.262 E0.03981
G1 X59.861 Y30.037 E0.04000
G1 X60.733 Y29.925 E0.03900
G1 X104.314 Y29.909 E1.93306
G1 X105.629 Y30.051 E0.05864
G1 X107.206 Y30.564 E0.07354
G1 X108.149 Y31.088 E0.04787
G1 X109.378 Y32.107 E0.07080
G1 X110.083 Y32.962 E0.04915
G1 X110.864 Y34.395 E0.07241
G1 X111.184 Y35.389 E0.04628
G1 X111.383 Y36.832 E0.06464
G1 X111.389 Y113.959 E3.42092
G1 X111.158 Y115.641 E0.07533
G1 X110.885 Y116.478 E0.03904
G1 X110.493 Y117.307 E0.04068
G1 X110.017 Y118.057 E0.03940
G1 X109.442 Y118.752 E0.04000
G1 X108.785 Y119.368 E0.03997
G1 X108.052 Y119.900 E0.04015
G1 X107.266 Y120.332 E0.03981
G1 X106.424 Y120.665 E0.04015
G1 X105.551 Y120.888 E0.03998
G1 X104.638 Y121.002 E0.04078
G1 X56.178 Y121.014 E2.14944
G1 X55.318 Y120.936 E0.03830
G1 X54.693 Y120.786 E0.02851
G1 X53.538 Y120.269 E0.05613
G1 X52.460 Y119.406 E0.06126
G1 X51.696 Y118.371 E0.05704
G1 X51.203 Y117.151 E0.05838
G1 X51.035 Y115.922 E0.05500
G1 X51.033 Y57.050 E2.61126
G1 X54.102 Y36.103 E0.93902
G1 X54.480 Y34.617 E0.06801
; PURGING FINISHED
G1 F8640
G1 X54.931 Y33.611 E-0.25449
G1 X55.404 Y32.869 E-0.20336
G1 X55.985 Y32.166 E-0.21058
G1 X56.275 Y31.895 E-0.09157
G1 E-0.04000 F2100.00000
G1 Z0.900 F10800.000
G1 X58.680 Y116.402
G1 Z0.300
G1 E0.80000 F2100.00000
G1 X97.441 Y116.396 E1.71923
G1 X97.879 Y116.340 E0.01960
G1 X98.313 Y116.229 E0.01987
G1 X98.729 Y116.064 E0.01986
G1 X99.122 Y115.848 E0.01987
G1 X99.484 Y115.585 E0.01987
G1 X99.811 Y115.278 E0.01986
G1 X100.096 Y114.933 E0.01987
G1 X100.336 Y114.555 E0.01987
G1 X100.527 Y114.150 E0.01986
G1 X100.666 Y113.724 E0.01987
G1 X100.749 Y113.284 E0.01987
G1 X100.776 Y112.855 E0.01907
G1 X100.776 Y60.069 E2.34130
G1 X100.749 Y59.640 E0.01907
G1 X100.666 Y59.200 E0.01987
G1 X100.527 Y58.774 E0.01987
G1 X100.336 Y58.368 E0.01986
G1 X100.096 Y57.990 E0.01987
G1 X99.811 Y57.645 E0.01987
G1 X99.484 Y57.339 E0.01986
G1 X99.122 Y57.075 E0.01987
G1 X98.729 Y56.859 E0.01987
G1 X98.313 Y56.695 E0.01986
G1 X97.879 Y56.583 E0.01987
G1 X97.435 Y56.527 E0.01986
G1 X58.680 Y56.521 E1.71898
G1 X58.625 Y57.392 E0.03870
G1 X58.568 Y57.692 E0.01355
G1 X58.473 Y57.983 E0.01355
G1 X58.343 Y58.259 E0.01355
G1 X58.180 Y58.517 E0.01354
G1 X57.982 Y58.755 E0.01372
G1 X57.762 Y58.962 E0.01341
G1 X57.515 Y59.141 E0.01356
G1 X57.247 Y59.288 E0.01355
G1 X56.963 Y59.401 E0.01355
G1 X56.667 Y59.477 E0.01355
G1 X56.364 Y59.515 E0.01355
G1 X56.058 Y59.515 E0.01355
G1 X55.755 Y59.477 E0.01355
G1 X55.459 Y59.401 E0.01355
G1 X55.175 Y59.288 E0.01355
G1 X54.907 Y59.141 E0.01355
G1 X54.660 Y58.962 E0.01356
G1 X54.437 Y58.752 E0.01356
G1 X54.242 Y58.517 E0.01355
G1 X54.079 Y58.259 E0.01355
G1 X53.948 Y57.983 E0.01355
G1 X53.854 Y57.692 E0.01355
G1 X53.797 Y57.392 E0.01355
G1 X53.778 Y57.090 E0.01340
G1 X53.797 Y56.781 E0.01372
G1 X53.854 Y56.482 E0.01354
G1 X53.948 Y56.191 E0.01355
G1 X54.079 Y55.914 E0.01355
G1 X54.242 Y55.657 E0.01355
G1 X54.437 Y55.421 E0.01355
G1 X54.660 Y55.212 E0.01356
G1 X54.907 Y55.032 E0.01356
G1 X55.175 Y54.885 E0.01355
G1 X55.459 Y54.773 E0.01355
G1 X55.755 Y54.697 E0.01355
G1 X56.058 Y54.658 E0.01355
G1 X56.776 Y54.658 E0.03187
G1 X56.776 Y37.008 E0.78288
G1 X56.812 Y36.534 E0.02106
G1 X56.917 Y35.984 E0.02484
G1 X57.089 Y35.455 E0.02470
G1 X57.326 Y34.951 E0.02470
G1 X57.624 Y34.481 E0.02469
G1 X57.979 Y34.052 E0.02469
G1 X58.385 Y33.671 E0.02470
G1 X58.835 Y33.344 E0.02469
G1 X59.323 Y33.075 E0.02470
G1 X59.841 Y32.870 E0.02469
G1 X60.380 Y32.732 E0.02469
G1 X60.932 Y32.662 E0.02470
G1 X104.489 Y32.662 E1.93195
G1 X105.042 Y32.732 E0.02469
G1 X105.581 Y32.870 E0.02469
G1 X106.098 Y33.075 E0.02469
G1 X106.586 Y33.344 E0.02469
G1 X107.037 Y33.671 E0.02469
G1 X107.442 Y34.052 E0.02470
G1 X107.797 Y34.481 E0.02470
G1 X108.096 Y34.951 E0.02469
G1 X108.333 Y35.455 E0.02470
G1 X108.505 Y35.984 E0.02469
G1 X108.610 Y36.534 E0.02484
G1 X108.645 Y37.008 E0.02106
G1 X108.645 Y42.521 E0.24454
G1 X102.242 Y42.521 E0.28401
G1 X102.234 Y42.389 E0.00587
G1 X102.103 Y41.702 E0.03100
G1 X101.887 Y41.038 E0.03101
G1 X101.589 Y40.405 E0.03101
G1 X101.218 Y39.820 E0.03071
G1 X100.769 Y39.276 E0.03128
G1 X100.259 Y38.797 E0.03102
G1 X99.694 Y38.387 E0.03101
G1 X99.081 Y38.050 E0.03100
G1 X98.431 Y37.792 E0.03101
G1 X97.754 Y37.619 E0.03101
G1 X97.061 Y37.531 E0.03100
G1 X67.193 Y37.521 E1.32476
G1 X66.522 Y37.563 E0.02983
G1 X66.159 Y37.621 E0.01630
G1 X65.499 Y37.790 E0.03021
G1 X65.153 Y37.915 E0.01630
G1 X64.529 Y38.209 E0.03061
G1 X63.946 Y38.578 E0.03061
G1 X63.656 Y38.804 E0.01630
G1 X63.159 Y39.270 E0.03022
G1 X62.916 Y39.546 E0.01630
G1 X62.511 Y40.104 E0.03061
G1 X62.174 Y40.717 E0.03100
G1 X61.921 Y41.355 E0.03047
G1 X61.817 Y41.711 E0.01644
G1 X61.688 Y42.389 E0.03061
G1 X61.645 Y43.075 E0.03047
G1 X61.690 Y43.793 E0.03194
G1 X61.817 Y44.462 E0.03022
G1 X61.920 Y44.815 E0.01630
G1 X62.171 Y45.449 E0.03022
G1 X62.337 Y45.776 E0.01630
G1 X62.705 Y46.356 E0.03047
G1 X63.153 Y46.897 E0.03115
G1 X63.656 Y47.370 E0.03062
G1 X63.946 Y47.595 E0.01630
G1 X64.529 Y47.965 E0.03061
G1 X65.153 Y48.259 E0.03061
G1 X65.491 Y48.380 E0.01591
G1 X65.835 Y48.480 E0.01590
G1 X66.513 Y48.610 E0.03061
G1 X67.193 Y48.652 E0.03022
G1 X104.489 Y48.662 E1.65427
G1 X105.042 Y48.732 E0.02470
G1 X105.581 Y48.870 E0.02469
G1 X106.098 Y49.075 E0.02469
G1 X106.586 Y49.344 E0.02469
G1 X107.037 Y49.671 E0.02469
G1 X107.442 Y50.052 E0.02470
G1 X107.797 Y50.481 E0.02470
G1 X108.096 Y50.951 E0.02469
G1 X108.333 Y51.455 E0.02470
G1 X108.505 Y51.984 E0.02470
G1 X108.610 Y52.534 E0.02484
G1 X108.645 Y53.008 E0.02106
G1 X108.645 Y113.916 E2.70155
G1 X108.610 Y114.389 E0.02106
G1 X108.505 Y114.939 E0.02484
G1 X108.333 Y115.469 E0.02469
G1 X108.096 Y115.973 E0.02470
G1 X107.797 Y116.443 E0.02469
G1 X107.443 Y116.872 E0.02469
G1 X107.037 Y117.253 E0.02469
G1 X106.586 Y117.580 E0.02469
G1 X106.098 Y117.848 E0.02469
G1 X105.581 Y118.053 E0.02469
G1 X105.042 Y118.192 E0.02469
G1 X104.298 Y118.271 E0.03318
G1 X56.238 Y118.271 E2.13171
G1 X55.746 Y118.225 E0.02189
G1 X55.459 Y118.151 E0.01316
G1 X55.175 Y118.038 E0.01355
G1 X54.907 Y117.891 E0.01355
G1 X54.660 Y117.712 E0.01355
G1 X54.437 Y117.502 E0.01355
G1 X54.242 Y117.267 E0.01355
G1 X54.080 Y117.012 E0.01340
G1 X53.948 Y116.732 E0.01372
G1 X53.854 Y116.442 E0.01354
G1 X53.797 Y116.142 E0.01355
G1 X53.778 Y115.840 E0.01340
G1 X53.797 Y115.531 E0.01372
G1 X53.854 Y115.232 E0.01354
G1 X53.948 Y114.941 E0.01355
G1 X54.077 Y114.668 E0.01340
G1 X54.243 Y114.406 E0.01372
G1 X54.437 Y114.171 E0.01354
G1 X54.660 Y113.962 E0.01355
G1 X54.907 Y113.782 E0.01355
G1 X55.175 Y113.635 E0.01355
G1 X55.456 Y113.524 E0.01340
G1 X55.755 Y113.447 E0.01372
G1 X56.058 Y113.408 E0.01354
G1 X56.364 Y113.408 E0.01355
G1 X56.667 Y113.447 E0.01355
G1 X56.963 Y113.523 E0.01355
G1 X57.247 Y113.635 E0.01355
G1 X57.514 Y113.782 E0.01354
G1 X57.764 Y113.964 E0.01372
G1 X57.985 Y114.171 E0.01340
G1 X58.179 Y114.407 E0.01355
G1 X58.343 Y114.665 E0.01355
G1 X58.473 Y114.941 E0.01355
G1 X58.568 Y115.232 E0.01355
G1 X58.625 Y115.532 E0.01355
G1 X58.676 Y116.342 E0.03603
G1 X59.014 Y116.047 F10800.000
G1 F2100
G1 X97.415 Y116.041 E1.70327
G1 X97.812 Y115.990 E0.01778
G1 X98.203 Y115.890 E0.01789
G1 X98.578 Y115.742 E0.01788
G1 X98.931 Y115.547 E0.01788
G1 X99.257 Y115.310 E0.01788
G1 X99.551 Y115.034 E0.01788
G1 X99.808 Y114.724 E0.01788
G1 X100.024 Y114.383 E0.01788
G1 X100.196 Y114.019 E0.01788
G1 X100.320 Y113.635 E0.01788
G1 X100.396 Y113.239 E0.01788
G1 X100.421 Y112.843 E0.01759
G1 X100.421 Y60.080 E2.34030
G1 X100.396 Y59.684 E0.01759
G1 X100.320 Y59.288 E0.01788
G1 X100.196 Y58.905 E0.01788
G1 X100.024 Y58.540 E0.01788
G1 X99.808 Y58.200 E0.01788
G1 X99.551 Y57.889 E0.01788
G1 X99.257 Y57.613 E0.01788
G1 X98.931 Y57.376 E0.01788
G1 X98.578 Y57.182 E0.01788
G1 X98.203 Y57.033 E0.01788
G1 X97.812 Y56.933 E0.01789
G1 X97.412 Y56.883 E0.01788
G1 X59.014 Y56.877 E1.70317
G1 X58.978 Y57.436 E0.02487
G1 X58.913 Y57.781 E0.01554
G1 X58.805 Y58.114 E0.01554
G1 X58.655 Y58.431 E0.01554
G1 X58.468 Y58.726 E0.01553
G1 X58.242 Y58.999 E0.01570
G1 X57.989 Y59.236 E0.01538
G1 X57.706 Y59.442 E0.01554
G1 X57.399 Y59.611 E0.01554
G1 X57.073 Y59.740 E0.01554
G1 X56.734 Y59.827 E0.01554
G1 X56.386 Y59.871 E0.01554
G1 X56.036 Y59.871 E0.01554
G1 X55.688 Y59.827 E0.01554
G1 X55.349 Y59.740 E0.01554
G1 X55.023 Y59.611 E0.01554
G1 X54.716 Y59.442 E0.01554
G1 X54.433 Y59.236 E0.01554
G1 X54.177 Y58.996 E0.01554
G1 X53.954 Y58.726 E0.01554
G1 X53.766 Y58.431 E0.01554
G1 X53.617 Y58.114 E0.01554
G1 X53.509 Y57.781 E0.01554
G1 X53.443 Y57.436 E0.01554
G1 X53.421 Y57.090 E0.01538
G1 X53.443 Y56.737 E0.01570
G1 X53.509 Y56.393 E0.01553
G1 X53.617 Y56.060 E0.01554
G1 X53.766 Y55.743 E0.01554
G1 X53.954 Y55.447 E0.01554
G1 X54.177 Y55.177 E0.01554
G1 X54.433 Y54.937 E0.01554
G1 X54.716 Y54.731 E0.01554
G1 X55.023 Y54.563 E0.01554
G1 X55.349 Y54.434 E0.01554
G1 X55.688 Y54.347 E0.01554
G1 X56.036 Y54.303 E0.01554
G1 X56.421 Y54.303 E0.01708
G1 X56.421 Y36.995 E0.76770
G1 X56.459 Y36.488 E0.02255
G1 X56.572 Y35.896 E0.02673
G1 X56.758 Y35.324 E0.02668
G1 X57.014 Y34.779 E0.02668
G1 X57.336 Y34.272 E0.02668
G1 X57.719 Y33.808 E0.02668
G1 X58.158 Y33.396 E0.02668
G1 X58.644 Y33.043 E0.02668
G1 X59.172 Y32.753 E0.02668
G1 X59.731 Y32.532 E0.02668
G1 X60.313 Y32.382 E0.02668
G1 X60.910 Y32.307 E0.02668
G1 X104.512 Y32.307 E1.93394
G1 X105.108 Y32.382 E0.02668
G1 X105.691 Y32.532 E0.02668
G1 X106.250 Y32.753 E0.02668
G1 X106.777 Y33.043 E0.02668
G1 X107.264 Y33.396 E0.02668
G1 X107.702 Y33.808 E0.02668
G1 X108.086 Y34.272 E0.02668
G1 X108.408 Y34.779 E0.02668
G1 X108.664 Y35.324 E0.02668
G1 X108.850 Y35.896 E0.02668
G1 X108.963 Y36.488 E0.02673
G1 X109.001 Y36.995 E0.02255
G1 X109.001 Y42.877 E0.26090
G1 X101.908 Y42.877 E0.31460
G1 X101.880 Y42.434 E0.01969
G1 X101.758 Y41.791 E0.02902
G1 X101.555 Y41.169 E0.02902
G1 X101.277 Y40.577 E0.02903
G1 X100.930 Y40.030 E0.02874
G1 X100.509 Y39.520 E0.02930
G1 X100.032 Y39.072 E0.02903
G1 X99.503 Y38.687 E0.02902
G1 X98.929 Y38.372 E0.02902
G1 X98.321 Y38.131 E0.02902
G1 X97.687 Y37.969 E0.02902
G1 X97.038 Y37.887 E0.02902
G1 X67.204 Y37.877 E1.32327
G1 X66.561 Y37.917 E0.02859
G1 X66.231 Y37.970 E0.01481
G1 X65.604 Y38.131 E0.02873
G1 X65.290 Y38.244 E0.01481
G1 X64.701 Y38.521 E0.02888
G1 X64.151 Y38.870 E0.02887
G1 X63.887 Y39.074 E0.01481
G1 X63.415 Y39.518 E0.02873
G1 X63.194 Y39.768 E0.01481
G1 X62.812 Y40.295 E0.02888
G1 X62.496 Y40.868 E0.02902
G1 X62.258 Y41.471 E0.02873
G1 X62.164 Y41.794 E0.01495
G1 X62.042 Y42.434 E0.02887
G1 X62.001 Y43.080 E0.02874
G1 X62.042 Y43.743 E0.02946
G1 X62.163 Y44.379 E0.02873
G1 X62.257 Y44.700 E0.01481
G1 X62.495 Y45.302 E0.02873
G1 X62.647 Y45.600 E0.01481
G1 X62.994 Y46.147 E0.02873
G1 X63.413 Y46.653 E0.02916
G1 X63.887 Y47.099 E0.02888
G1 X64.151 Y47.304 E0.01481
G1 X64.701 Y47.653 E0.02887
G1 X65.290 Y47.930 E0.02888
G1 X65.601 Y48.042 E0.01466
G1 X65.918 Y48.134 E0.01466
G1 X66.558 Y48.256 E0.02887
G1 X67.204 Y48.297 E0.02873
G1 X104.512 Y48.307 E1.65476
G1 X105.108 Y48.382 E0.02668
G1 X105.691 Y48.532 E0.02668
G1 X106.250 Y48.753 E0.02668
G1 X106.777 Y49.043 E0.02668
G1 X107.264 Y49.396 E0.02668
G1 X107.702 Y49.808 E0.02668
G1 X108.086 Y50.272 E0.02668
G1 X108.408 Y50.779 E0.02668
G1 X108.664 Y51.324 E0.02668
G1 X108.850 Y51.896 E0.02668
G1 X108.963 Y52.488 E0.02673
G1 X109.001 Y52.995 E0.02255
G1 X109.001 Y113.929 E2.70273
G1 X108.963 Y114.436 E0.02255
G1 X108.850 Y115.028 E0.02673
G1 X108.664 Y115.600 E0.02668
G1 X108.408 Y116.144 E0.02668
G1 X108.086 Y116.652 E0.02668
G1 X107.702 Y117.115 E0.02668
G1 X107.264 Y117.527 E0.02668
G1 X106.777 Y117.881 E0.02668
G1 X106.250 Y118.171 E0.02668
G1 X105.691 Y118.392 E0.02668
G1 X105.108 Y118.542 E0.02668
G1 X104.507 Y118.618 E0.02689
G1 X56.221 Y118.627 E2.14172
G1 X55.685 Y118.576 E0.02387
G1 X55.349 Y118.490 E0.01539
G1 X55.023 Y118.361 E0.01554
G1 X54.716 Y118.192 E0.01554
G1 X54.433 Y117.986 E0.01554
G1 X54.177 Y117.746 E0.01554
G1 X53.954 Y117.476 E0.01554
G1 X53.768 Y117.184 E0.01538
G1 X53.617 Y116.864 E0.01570
G1 X53.509 Y116.531 E0.01553
G1 X53.443 Y116.186 E0.01554
G1 X53.421 Y115.840 E0.01538
G1 X53.443 Y115.487 E0.01570
G1 X53.509 Y115.143 E0.01553
G1 X53.617 Y114.810 E0.01554
G1 X53.765 Y114.496 E0.01538
G1 X53.954 Y114.197 E0.01570
G1 X54.177 Y113.927 E0.01553
G1 X54.433 Y113.687 E0.01554
G1 X54.716 Y113.481 E0.01554
G1 X55.023 Y113.313 E0.01554
G1 X55.345 Y113.185 E0.01538
G1 X55.688 Y113.097 E0.01570
G1 X56.036 Y113.053 E0.01553
G1 X56.386 Y113.053 E0.01554
G1 X56.734 Y113.097 E0.01554
G1 X57.073 Y113.184 E0.01554
G1 X57.399 Y113.313 E0.01554
G1 X57.705 Y113.481 E0.01553
G1 X57.992 Y113.690 E0.01570
G1 X58.244 Y113.927 E0.01538
G1 X58.468 Y114.197 E0.01554
G1 X58.655 Y114.493 E0.01554
G1 X58.805 Y114.810 E0.01554
G1 X58.913 Y115.143 E0.01554
G1 X58.978 Y115.487 E0.01554
G1 X59.010 Y115.987 E0.02221
G1 X59.028 Y116.446 F10800.000
G1 X58.867 Y116.509
G1 F2100
G1 X60.362 Y118.004 E0.09409
G1 X60.866 Y118.004 E0.02244
G1 X59.531 Y116.669 E0.08402
G1 X60.036 Y116.669 E0.02244
G1 X61.371 Y118.004 E0.08402
G1 X61.875 Y118.004 E0.02244
G1 X60.540 Y116.669 E0.08402
G1 X61.044 Y116.669 E0.02244
G1 X62.380 Y118.004 E0.08402
G1 X62.884 Y118.004 E0.02244
G1 X61.549 Y116.669 E0.08402
G1 X62.053 Y116.669 E0.02244
G1 X63.389 Y118.004 E0.08402
G1 X63.893 Y118.004 E0.02244
G1 X62.558 Y116.669 E0.08402
G1 X63.062 Y116.669 E0.02244
G1 X64.398 Y118.004 E0.08402
G1 X64.902 Y118.004 E0.02244
G1 X63.567 Y116.669 E0.08402
G1 X64.071 Y116.669 E0.02244
G1 X65.407 Y118.004 E0.08402
G1 X65.911 Y118.004 E0.02244
G1 X64.576 Y116.669 E0.08402
G1 X65.080 Y116.669 E0.02244
G1 X66.416 Y118.004 E0.08402
G1 X66.920 Y118.004 E0.02244
G1 X65.585 Y116.669 E0.08402
G1 X66.089 Y116.669 E0.02244
G1 X67.424 Y118.004 E0.08402
G1 X67.929 Y118.004 E0.02244
G1 X66.594 Y116.669 E0.08402
G1 X67.098 Y116.669 E0.02244
G1 X68.433 Y118.004 E0.08402
G1 X68.938 Y118.004 E0.02244
G1 X67.602 Y116.669 E0.08402
G1 X68.107 Y116.669 E0.02244
G1 X69.442 Y118.004 E0.08402
G1 X69.947 Y118.004 E0.02244
G1 X68.611 Y116.669 E0.08402
G1 X69.116 Y116.669 E0.02244
G1 X70.451 Y118.004 E0.08402
G1 X70.956 Y118.004 E0.02244
G1 X69.620 Y116.669 E0.08402
G1 X70.125 Y116.669 E0.02244
G1 X71.460 Y118.004 E0.08402
G1 X71.965 Y118.004 E0.02244
G1 X70.629 Y116.669 E0.08402
G1 X71.134 Y116.669 E0.02244
G1 X72.469 Y118.004 E0.08402
G1 X72.973 Y118.004 E0.02244
G1 X71.638 Y116.669 E0.08402
G1 X72.143 Y116.669 E0.02244
G1 X73.478 Y118.004 E0.08402
G1 X73.982 Y118.004 E0.02244
G1 X72.647 Y116.669 E0.08402
G1 X73.151 Y116.669 E0.02244
