; generated by Slic3r Prusa Edition 1.41.1-rc+linux64 on 2018-10-31 at 13:14:59

; 

; external perimeters extrusion width = 0.45mm
; perimeters extrusion width = 0.45mm
; infill extrusion width = 0.45mm
; solid infill extrusion width = 0.45mm
; top infill extrusion width = 0.40mm
; first layer extrusion width = 0.42mm

M73 P0 R45
M73 Q0 S45
M201 X1000 Y1000 Z1000 E5000 ; sets maximum accelerations, mm/sec^2
M203 X200 Y200 Z12 E120 ; sets maximum feedrates, mm/sec
M204 P1250 R1250 T1250 ; sets acceleration (P, T) and retract acceleration (R), mm/sec^2
M205 X8.00 Y8.00 Z0.40 E1.50 ; sets the jerk limits, mm/sec
M205 S0 T0 ; sets the minimum extruding and travel feed rate, mm/sec
M107
M115 U3.4.1 ; tell printer latest fw version
M83  ; extruder relative mode
M104 S230 ; set extruder temp
M140 S85 ; set bed temp
M190 S85 ; wait for bed temp
M109 S230 ; wait for extruder temp
G28 W ; home all without mesh bed level
G80 ; mesh bed leveling
G1 Y-3.0 F1000.0 ; go outside print area
G92 E0.0
G1 X60.0 E9.0  F1000.0 ; intro line
M73 Q0 S45
M73 P0 R45
G1 X100.0 E12.5  F1000.0 ; intro line
G92 E0.0
M221 S95
M900 K45; Filament gcode
G21 ; set units to millimeters
G90 ; use absolute coordinates
M83 ; use relative distances for extrusion
;BEFORE_LAYER_CHANGE
G92 E0.0
;0.2


G1 E-0.80000 F2100.00000
G1 Z0.600 F10800.000
;AFTER_LAYER_CHANGE
;0.2
G1 X96.698 Y14.555
G1 Z0.200
G1 E0.80000 F2100.00000
M204 S1000
G1 F1800
G1 X96.961 Y13.591 E0.03132
G1 X97.434 Y12.453 E0.03865
G1 X97.925 Y11.583 E0.03133
G1 X98.596 Y10.669 E0.03553
G1 X99.357 Y9.863 E0.03476
G1 X100.235 Y9.139 E0.03569
G1 X101.229 Y8.514 E0.03679
G1 X102.415 Y7.980 E0.04081
G1 X104.165 Y7.527 E0.05667
G1 X105.369 Y7.416 E0.03790
G1 X182.408 Y7.415 E2.41551
G1 X183.422 Y7.485 E0.03185
G1 X184.333 Y7.649 E0.02904
G1 X185.658 Y8.059 E0.04348
G1 X186.626 Y8.513 E0.03353
G1 X187.420 Y9.003 E0.02926
G1 X188.508 Y9.872 E0.04366
G1 X189.443 Y10.902 E0.04360
G1 X189.981 Y11.661 E0.02917
G1 X190.497 Y12.602 E0.03365
G1 X190.989 Y13.898 E0.04347
G1 X191.212 Y14.801 E0.02916
G1 X191.343 Y15.811 E0.03194
G1 X191.348 Y60.092 E1.38841
G1 X191.209 Y61.178 E0.03433
G1 X190.938 Y62.243 E0.03444
G1 X190.529 Y63.290 E0.03525
G1 X190.083 Y64.128 E0.02976
G1 X189.159 Y65.409 E0.04952
G1 X188.477 Y66.119 E0.03088
G1 X187.621 Y66.823 E0.03475
G1 X186.676 Y67.422 E0.03506
G1 X185.688 Y67.891 E0.03431
G1 X184.617 Y68.246 E0.03538
G1 X183.682 Y68.437 E0.02990
G1 X163.268 Y71.480 E0.64714
G1 X162.383 Y71.546 E0.02785
G1 X103.359 Y71.542 E1.85064
G1 X101.749 Y71.312 E0.05098
G1 X100.944 Y71.047 E0.02658
G1 X100.162 Y70.679 E0.02710
G1 X99.421 Y70.213 E0.02745
G1 X98.769 Y69.680 E0.02641
G1 X97.724 Y68.468 E0.05017
G1 X97.191 Y67.553 E0.03321
G1 X96.825 Y66.637 E0.03091
G1 X96.594 Y65.698 E0.03031
G1 X96.489 Y64.579 E0.03526
G1 X96.491 Y16.212 E1.51652
G1 X96.691 Y14.615 E0.05047
G1 X97.062 Y14.661 F10800.000
G1 F1800
G1 X97.316 Y13.719 E0.03058
G1 X97.770 Y12.624 E0.03717
G1 X98.238 Y11.793 E0.02990
G1 X98.883 Y10.913 E0.03421
G1 X99.617 Y10.137 E0.03347
G1 X100.466 Y9.438 E0.03450
G1 X101.410 Y8.845 E0.03495
G1 X102.538 Y8.336 E0.03879
G1 X104.231 Y7.898 E0.05486
G1 X105.377 Y7.793 E0.03607
G1 X182.408 Y7.793 E2.41525
G1 X183.375 Y7.859 E0.03039
G1 X184.261 Y8.019 E0.02823
G1 X185.520 Y8.410 E0.04134
G1 X186.453 Y8.848 E0.03229
G1 X187.218 Y9.321 E0.02823
G1 X188.255 Y10.151 E0.04165
G1 X189.138 Y11.123 E0.04115
G1 X189.660 Y11.859 E0.02829
G1 X190.159 Y12.769 E0.03256
G1 X190.627 Y14.001 E0.04132
G1 X190.842 Y14.877 E0.02829
G1 X190.969 Y15.856 E0.03093
G1 X190.973 Y60.056 E1.38586
G1 X190.839 Y61.105 E0.03318
G1 X190.578 Y62.130 E0.03316
G1 X190.186 Y63.134 E0.03378
G1 X189.753 Y63.946 E0.02885
G1 X188.876 Y65.159 E0.04694
G1 X188.222 Y65.841 E0.02962
G1 X187.390 Y66.525 E0.03375
G1 X186.493 Y67.093 E0.03331
G1 X185.536 Y67.546 E0.03318
G1 X184.509 Y67.885 E0.03391
G1 X183.608 Y68.067 E0.02884
G1 X163.213 Y71.107 E0.64652
G1 X162.377 Y71.169 E0.02629
G1 X103.387 Y71.166 E1.84958
G1 X101.853 Y70.950 E0.04859
G1 X100.346 Y70.350 E0.05085
G1 X99.640 Y69.906 E0.02614
G1 X99.019 Y69.398 E0.02514
G1 X98.024 Y68.239 E0.04791
G1 X97.525 Y67.379 E0.03118
G1 X97.182 Y66.516 E0.02912
G1 X96.966 Y65.636 E0.02841
G1 X96.866 Y64.564 E0.03375
G1 X96.868 Y16.229 E1.51549
G1 X97.055 Y14.720 E0.04768
; PURGING FINISHED
G1 F8640
G1 X97.316 Y13.719 E-0.23891
G1 X97.770 Y12.624 E-0.27375
G1 X98.238 Y11.793 E-0.22021
G1 X98.308 Y11.698 E-0.02713
G1 E-0.04000 F2100.00000
G1 Z0.800 F10800.000
G1 X164.710 Y63.894
G1 Z0.200
G1 E0.80000 F2100.00000
G1 F1800
G1 X164.710 Y64.632 E0.02316
G1 X164.672 Y64.933 E0.00950
G1 X164.597 Y65.226 E0.00950
G1 X164.486 Y65.508 E0.00950
G1 X164.340 Y65.773 E0.00950
G1 X164.162 Y66.018 E0.00950
G1 X163.954 Y66.239 E0.00950
G1 X163.721 Y66.432 E0.00949
G1 X163.465 Y66.594 E0.00950
G1 X163.191 Y66.723 E0.00950
G1 X162.906 Y66.816 E0.00941
G1 X162.605 Y66.874 E0.00959
G1 X162.303 Y66.893 E0.00949
G1 X162.001 Y66.874 E0.00950
G1 X161.703 Y66.817 E0.00950
G1 X161.415 Y66.723 E0.00950
G1 X161.206 Y66.625 E0.00725
G1 X160.881 Y66.428 E0.01192
G1 X160.652 Y66.239 E0.00930
G1 X160.445 Y66.018 E0.00950
G1 X160.267 Y65.773 E0.00950
G1 X160.121 Y65.508 E0.00950
G1 X160.010 Y65.226 E0.00950
G1 X159.934 Y64.933 E0.00950
G1 X159.896 Y64.632 E0.00950
G1 X159.896 Y64.330 E0.00950
G1 X159.934 Y64.029 E0.00950
G1 X160.008 Y63.742 E0.00930
G1 X160.155 Y63.392 E0.01192
G1 X160.267 Y63.189 E0.00725
G1 X160.445 Y62.944 E0.00950
G1 X160.652 Y62.723 E0.00950
G1 X160.886 Y62.530 E0.00949
G1 X161.141 Y62.368 E0.00950
G1 X161.415 Y62.239 E0.00950
G1 X161.703 Y62.145 E0.00950
G1 X162.001 Y62.088 E0.00950
G1 X162.890 Y62.032 E0.02794
G1 X162.884 Y23.256 E1.21581
G1 X162.828 Y22.809 E0.01412
G1 X162.716 Y22.372 E0.01413
G1 X162.550 Y21.953 E0.01413
G1 X162.333 Y21.558 E0.01413
G1 X162.068 Y21.194 E0.01413
G1 X161.760 Y20.865 E0.01412
G1 X161.412 Y20.578 E0.01413
G1 X161.032 Y20.337 E0.01413
G1 X160.624 Y20.145 E0.01413
G1 X160.196 Y20.005 E0.01413
G1 X159.753 Y19.921 E0.01413
G1 X159.322 Y19.894 E0.01355
G1 X106.535 Y19.894 E1.65510
G1 X106.104 Y19.921 E0.01355
G1 X105.661 Y20.005 E0.01413
G1 X105.232 Y20.145 E0.01413
G1 X104.825 Y20.337 E0.01413
G1 X104.444 Y20.578 E0.01413
G1 X104.097 Y20.865 E0.01413
G1 X103.788 Y21.194 E0.01413
G1 X103.524 Y21.558 E0.01413
G1 X103.307 Y21.953 E0.01413
G1 X103.141 Y22.372 E0.01413
G1 X103.029 Y22.809 E0.01413
G1 X102.973 Y23.250 E0.01394
G1 X102.966 Y23.575 E0.01020
G1 X102.966 Y62.032 E1.20580
G1 X103.856 Y62.088 E0.02794
G1 X104.083 Y62.132 E0.00725
G1 X104.447 Y62.241 E0.01192
G1 X104.715 Y62.368 E0.00930
G1 X104.966 Y62.527 E0.00930
G1 X105.251 Y62.773 E0.01182
G1 X105.412 Y62.944 E0.00735
G1 X105.590 Y63.189 E0.00950
G1 X105.735 Y63.454 E0.00950
G1 X105.847 Y63.736 E0.00950
G1 X105.922 Y64.029 E0.00950
G1 X105.960 Y64.330 E0.00950
G1 X105.960 Y64.632 E0.00950
G1 X105.922 Y64.933 E0.00950
G1 X105.847 Y65.226 E0.00950
G1 X105.735 Y65.508 E0.00950
G1 X105.590 Y65.773 E0.00950
G1 X105.412 Y66.018 E0.00950
G1 X105.204 Y66.239 E0.00950
G1 X104.971 Y66.432 E0.00950
G1 X104.715 Y66.594 E0.00950
G1 X104.441 Y66.723 E0.00950
G1 X104.153 Y66.817 E0.00950
G1 X103.856 Y66.874 E0.00950
G1 X103.553 Y66.893 E0.00950
G1 X103.251 Y66.874 E0.00950
G1 X102.956 Y66.818 E0.00941
G1 X102.665 Y66.723 E0.00959
G1 X102.391 Y66.594 E0.00949
G1 X102.136 Y66.432 E0.00950
G1 X101.957 Y66.285 E0.00725
G1 X101.691 Y66.013 E0.01192
G1 X101.517 Y65.773 E0.00930
G1 X101.371 Y65.508 E0.00950
G1 X101.260 Y65.226 E0.00950
G1 X101.187 Y64.942 E0.00921
G1 X101.140 Y64.453 E0.01539
G1 X101.140 Y16.395 E1.50685
G1 X101.220 Y15.654 E0.02334
G1 X101.357 Y15.118 E0.01737
G1 X101.561 Y14.603 E0.01737
G1 X101.828 Y14.117 E0.01737
G1 X102.154 Y13.669 E0.01737
G1 X102.533 Y13.265 E0.01737
G1 X102.960 Y12.912 E0.01737
G1 X103.428 Y12.615 E0.01737
G1 X103.929 Y12.379 E0.01737
G1 X104.456 Y12.208 E0.01737
G1 X105.004 Y12.103 E0.01748
G1 X105.475 Y12.068 E0.01482
G1 X166.381 Y12.068 E1.90967
G1 X166.853 Y12.103 E0.01482
G1 X167.400 Y12.208 E0.01748
G1 X167.927 Y12.379 E0.01737
G1 X168.429 Y12.615 E0.01737
G1 X168.896 Y12.912 E0.01737
G1 X169.323 Y13.265 E0.01737
G1 X169.703 Y13.669 E0.01737
G1 X170.028 Y14.117 E0.01737
G1 X170.295 Y14.603 E0.01737
G1 X170.499 Y15.118 E0.01737
G1 X170.637 Y15.654 E0.01737
G1 X170.706 Y16.204 E0.01737
G1 X170.716 Y53.500 E1.16937
G1 X170.758 Y54.172 E0.02113
G1 X170.816 Y54.537 E0.01158
G1 X170.986 Y55.199 E0.02142
G1 X171.111 Y55.547 E0.01159
G1 X171.406 Y56.173 E0.02171
G1 X171.777 Y56.758 E0.02171
G1 X172.004 Y57.050 E0.01159
G1 X172.472 Y57.548 E0.02143
G1 X172.742 Y57.786 E0.01129
G1 X173.026 Y58.007 E0.01130
G1 X173.603 Y58.373 E0.02142
G1 X173.933 Y58.541 E0.01159
G1 X174.568 Y58.792 E0.02142
G1 X174.923 Y58.895 E0.01158
G1 X175.600 Y59.025 E0.02163
G1 X176.303 Y59.069 E0.02209
G1 X176.994 Y59.026 E0.02172
G1 X177.359 Y58.968 E0.01158
G1 X178.021 Y58.798 E0.02142
G1 X178.369 Y58.673 E0.01158
G1 X178.987 Y58.382 E0.02143
G1 X179.305 Y58.194 E0.01158
G1 X179.860 Y57.790 E0.02152
G1 X180.182 Y57.501 E0.01357
G1 X180.610 Y57.042 E0.01967
G1 X181.016 Y56.483 E0.02168
G1 X181.204 Y56.165 E0.01158
G1 X181.495 Y55.547 E0.02142
G1 X181.620 Y55.199 E0.01159
G1 X181.790 Y54.537 E0.02142
G1 X181.848 Y54.172 E0.01158
G1 X181.890 Y53.499 E0.02114
G1 X181.880 Y23.630 E0.93653
G1 X181.792 Y22.934 E0.02200
G1 X181.619 Y22.260 E0.02183
G1 X181.360 Y21.602 E0.02217
G1 X181.022 Y20.987 E0.02201
G1 X180.609 Y20.419 E0.02200
G1 X180.129 Y19.907 E0.02200
G1 X179.588 Y19.460 E0.02200
G1 X178.995 Y19.084 E0.02200
G1 X178.360 Y18.785 E0.02201
G1 X177.693 Y18.568 E0.02200
G1 X176.890 Y18.430 E0.02554
G1 X176.890 Y12.069 E0.19944
G1 X182.385 Y12.074 E0.17227
G1 X182.856 Y12.104 E0.01482
G1 X183.400 Y12.208 E0.01737
G1 X183.927 Y12.379 E0.01737
G1 X184.429 Y12.615 E0.01737
G1 X184.892 Y12.909 E0.01721
G1 X185.323 Y13.265 E0.01754
G1 X185.703 Y13.669 E0.01736
G1 X186.028 Y14.117 E0.01737
G1 X186.295 Y14.603 E0.01737
G1 X186.499 Y15.118 E0.01737
G1 X186.637 Y15.654 E0.01737
G1 X186.706 Y16.204 E0.01737
G1 X186.716 Y59.568 E1.35963
G1 X186.637 Y60.308 E0.02334
G1 X186.499 Y60.844 E0.01737
G1 X186.295 Y61.359 E0.01737
G1 X186.028 Y61.845 E0.01737
G1 X185.703 Y62.293 E0.01737
G1 X185.323 Y62.697 E0.01737
G1 X184.896 Y63.050 E0.01737
G1 X184.429 Y63.347 E0.01737
G1 X183.927 Y63.583 E0.01737
G1 X183.400 Y63.754 E0.01737
G1 X182.853 Y63.859 E0.01748
G1 X182.381 Y63.894 E0.01482
G1 X164.770 Y63.894 E0.55218
G1 X165.087 Y64.271 F10800.000
G1 F1800
G1 X165.087 Y64.656 E0.01208
G1 X165.043 Y65.004 E0.01098
G1 X164.956 Y65.343 E0.01098
G1 X164.827 Y65.669 E0.01098
G1 X164.659 Y65.976 E0.01098
G1 X164.453 Y66.259 E0.01099
G1 X164.213 Y66.515 E0.01099
G1 X163.943 Y66.738 E0.01098
G1 X163.647 Y66.926 E0.01098
G1 X163.330 Y67.075 E0.01098
G1 X163.000 Y67.182 E0.01089
G1 X162.653 Y67.249 E0.01108
G1 X162.303 Y67.271 E0.01098
G1 X161.954 Y67.249 E0.01098
G1 X161.609 Y67.183 E0.01098
G1 X161.276 Y67.075 E0.01098
G1 X161.028 Y66.958 E0.00861
G1 X160.662 Y66.736 E0.01341
G1 X160.394 Y66.515 E0.01091
G1 X160.154 Y66.259 E0.01098
G1 X159.948 Y65.976 E0.01099
G1 X159.779 Y65.669 E0.01098
G1 X159.650 Y65.343 E0.01098
G1 X159.563 Y65.004 E0.01098
G1 X159.519 Y64.656 E0.01098
G1 X159.519 Y64.306 E0.01098
G1 X159.563 Y63.958 E0.01098
G1 X159.650 Y63.621 E0.01091
G1 X159.816 Y63.227 E0.01341
G1 X159.948 Y62.986 E0.00861
G1 X160.154 Y62.703 E0.01099
G1 X160.394 Y62.448 E0.01098
G1 X160.664 Y62.224 E0.01098
G1 X160.959 Y62.037 E0.01098
G1 X161.276 Y61.887 E0.01098
G1 X161.609 Y61.779 E0.01098
G1 X161.954 Y61.713 E0.01098
G1 X162.513 Y61.678 E0.01758
G1 X162.507 Y23.279 E1.20397
G1 X162.457 Y22.880 E0.01264
G1 X162.357 Y22.489 E0.01264
G1 X162.208 Y22.114 E0.01264
G1 X162.014 Y21.761 E0.01264
G1 X161.777 Y21.435 E0.01264
G1 X161.501 Y21.141 E0.01264
G1 X161.190 Y20.884 E0.01264
G1 X160.850 Y20.668 E0.01264
G1 X160.485 Y20.496 E0.01264
G1 X160.102 Y20.371 E0.01264
G1 X159.706 Y20.296 E0.01264
G1 X159.310 Y20.271 E0.01243
G1 X106.547 Y20.271 E1.65435
G1 X106.151 Y20.296 E0.01243
G1 X105.755 Y20.371 E0.01264
G1 X105.371 Y20.496 E0.01264
G1 X105.007 Y20.668 E0.01264
G1 X104.666 Y20.884 E0.01264
G1 X104.356 Y21.141 E0.01264
G1 X104.080 Y21.435 E0.01264
G1 X103.843 Y21.761 E0.01264
G1 X103.648 Y22.114 E0.01264
G1 X103.500 Y22.489 E0.01264
G1 X103.400 Y22.880 E0.01264
G1 X103.349 Y23.277 E0.01257
G1 X103.343 Y23.579 E0.00946
G1 X103.343 Y61.678 E1.19458
G1 X103.903 Y61.713 E0.01758
G1 X104.173 Y61.765 E0.00861
G1 X104.582 Y61.888 E0.01341
G1 X104.897 Y62.037 E0.01091
G1 X105.191 Y62.223 E0.01092
G1 X105.513 Y62.500 E0.01331
G1 X105.703 Y62.703 E0.00871
G1 X105.909 Y62.986 E0.01098
G1 X106.077 Y63.293 E0.01098
G1 X106.206 Y63.619 E0.01098
G1 X106.293 Y63.958 E0.01098
G1 X106.337 Y64.306 E0.01098
G1 X106.337 Y64.656 E0.01098
G1 X106.293 Y65.004 E0.01098
G1 X106.206 Y65.343 E0.01098
G1 X106.077 Y65.669 E0.01098
G1 X105.909 Y65.976 E0.01098
G1 X105.703 Y66.259 E0.01098
G1 X105.463 Y66.515 E0.01098
G1 X105.193 Y66.738 E0.01098
G1 X104.897 Y66.926 E0.01098
G1 X104.580 Y67.075 E0.01098
G1 X104.247 Y67.183 E0.01098
G1 X103.903 Y67.249 E0.01098
G1 X103.553 Y67.271 E0.01098
G1 X103.204 Y67.249 E0.01098
G1 X102.862 Y67.184 E0.01089
G1 X102.526 Y67.075 E0.01108
G1 X102.209 Y66.926 E0.01098
G1 X101.914 Y66.738 E0.01098
G1 X101.702 Y66.563 E0.00861
G1 X101.403 Y66.257 E0.01341
G1 X101.198 Y65.976 E0.01091
G1 X101.029 Y65.669 E0.01098
G1 X100.900 Y65.343 E0.01098
G1 X100.814 Y65.007 E0.01088
G1 X100.763 Y64.471 E0.01688
G1 X100.763 Y16.386 E1.50768
G1 X100.849 Y15.584 E0.02530
G1 X100.998 Y15.001 E0.01886
G1 X101.220 Y14.442 E0.01886
G1 X101.509 Y13.915 E0.01886
G1 X101.863 Y13.428 E0.01886
G1 X102.275 Y12.990 E0.01886
G1 X102.738 Y12.606 E0.01886
G1 X103.246 Y12.284 E0.01886
G1 X103.790 Y12.028 E0.01886
G1 X104.362 Y11.842 E0.01886
G1 X104.954 Y11.729 E0.01890
G1 X105.461 Y11.691 E0.01594
G1 X166.395 Y11.691 E1.91055
G1 X166.902 Y11.729 E0.01594
G1 X167.494 Y11.842 E0.01890
G1 X168.066 Y12.028 E0.01886
G1 X168.611 Y12.284 E0.01886
G1 X169.118 Y12.606 E0.01886
G1 X169.582 Y12.990 E0.01886
G1 X169.994 Y13.428 E0.01886
G1 X170.347 Y13.915 E0.01886
G1 X170.637 Y14.442 E0.01886
G1 X170.858 Y15.001 E0.01886
G1 X171.008 Y15.584 E0.01886
G1 X171.083 Y16.180 E0.01886
G1 X171.093 Y53.488 E1.16975
G1 X171.134 Y54.131 E0.02021
G1 X171.186 Y54.461 E0.01047
G1 X171.347 Y55.088 E0.02031
G1 X171.460 Y55.402 E0.01047
G1 X171.737 Y55.991 E0.02041
G1 X172.086 Y56.541 E0.02041
G1 X172.291 Y56.805 E0.01047
G1 X172.734 Y57.277 E0.02031
G1 X172.982 Y57.496 E0.01037
G1 X173.243 Y57.698 E0.01037
G1 X173.790 Y58.045 E0.02031
G1 X174.088 Y58.197 E0.01047
G1 X174.690 Y58.435 E0.02031
G1 X175.011 Y58.528 E0.01047
G1 X175.648 Y58.650 E0.02033
G1 X176.303 Y58.691 E0.02060
G1 X176.953 Y58.651 E0.02041
G1 X177.283 Y58.598 E0.01047
G1 X177.910 Y58.437 E0.02031
G1 X178.224 Y58.324 E0.01047
G1 X178.810 Y58.048 E0.02031
G1 X179.098 Y57.878 E0.01047
G1 X179.623 Y57.497 E0.02034
G1 X179.917 Y57.232 E0.01243
G1 X180.318 Y56.802 E0.01843
G1 X180.701 Y56.276 E0.02040
G1 X180.871 Y55.988 E0.01047
G1 X181.146 Y55.402 E0.02031
G1 X181.260 Y55.088 E0.01047
G1 X181.421 Y54.461 E0.02031
G1 X181.473 Y54.131 E0.01047
G1 X181.513 Y53.488 E0.02021
G1 X181.503 Y23.654 E0.93542
G1 X181.421 Y23.005 E0.02051
G1 X181.260 Y22.376 E0.02035
G1 X181.018 Y21.763 E0.02068
G1 X180.703 Y21.189 E0.02052
G1 X180.318 Y20.660 E0.02052
G1 X179.870 Y20.183 E0.02052
G1 X179.366 Y19.766 E0.02052
G1 X178.813 Y19.415 E0.02051
G1 X178.221 Y19.137 E0.02052
G1 X177.599 Y18.934 E0.02052
G1 X176.956 Y18.812 E0.02051
G1 X176.513 Y18.784 E0.01392
G1 X176.513 Y11.691 E0.22238
G1 X182.397 Y11.697 E0.18447
G1 X182.904 Y11.729 E0.01593
G1 X183.494 Y11.842 E0.01886
G1 X184.066 Y12.028 E0.01886
G1 X184.611 Y12.284 E0.01886
G1 X185.114 Y12.603 E0.01870
G1 X185.582 Y12.990 E0.01902
G1 X185.994 Y13.428 E0.01886
G1 X186.347 Y13.915 E0.01886
G1 X186.637 Y14.442 E0.01886
G1 X186.858 Y15.001 E0.01886
G1 X187.008 Y15.584 E0.01886
G1 X187.083 Y16.180 E0.01886
G1 X187.093 Y59.576 E1.36065
G1 X187.008 Y60.379 E0.02530
