; generated by Slic3r Prusa Edition 1.41.0+win64 on 2018-10-23 at 13:38:20

; 

; external perimeters extrusion width = 0.45mm
; perimeters extrusion width = 0.45mm
; infill extrusion width = 0.45mm
; solid infill extrusion width = 0.45mm
; top infill extrusion width = 0.40mm
; first layer extrusion width = 0.42mm

M201 X1000 Y1000 Z1000 E5000 ; sets maximum accelerations, mm/sec^2
M203 X200 Y200 Z12 E120 ; sets maximum feedrates, mm/sec
M204 P1250 R1250 T1250 ; sets acceleration (P, T) and retract acceleration (R), mm/sec^2
M205 X8.00 Y8.00 Z0.40 E1.50 ; sets the jerk limits, mm/sec
M205 S0 T0 ; sets the minimum extruding and travel feed rate, mm/sec
M107
M115 U3.4.0 ; tell printer latest fw version
M83  ; extruder relative mode
M104 S215 ; set extruder temp
M140 S60 ; set bed temp
M190 S60 ; wait for bed temp
M109 S215 ; wait for extruder temp
G28 W ; home all without mesh bed level
G80 ; mesh bed leveling
G1 Y-3.0 F1000.0 ; go outside print area
G92 E0.0
G1 X60.0 E9.0  F1000.0 ; intro line
M73 Q0 S58
M73 P0 R57
G1 X100.0 E12.5  F1000.0 ; intro line
G92 E0.0
M221 S95
M900 K30; Filament gcode
G21 ; set units to millimeters
G90 ; use absolute coordinates
M83 ; use relative distances for extrusion
;BEFORE_LAYER_CHANGE
G92 E0.0
;0.2


G1 E-0.80000 F2100.00000
G1 Z0.600 F10800.000
;AFTER_LAYER_CHANGE
;0.2
G1 X120.437 Y45.337
G1 Z0.200
G1 E0.80000 F2100.00000
M204 S1000
G1 F1800
G1 X120.874 Y44.384 E0.03289
G1 X121.349 Y43.638 E0.02774
G1 X121.922 Y42.945 E0.02817
G1 X122.581 Y42.326 E0.02837
G1 X123.311 Y41.796 E0.02826
G1 X124.101 Y41.361 E0.02830
G1 X124.937 Y41.029 E0.02819
G1 X125.811 Y40.804 E0.02832
G1 X126.685 Y40.692 E0.02761
G1 X170.268 Y40.676 E1.36651
G1 X171.584 Y40.818 E0.04151
G1 X173.163 Y41.332 E0.05206
G1 X174.111 Y41.859 E0.03401
G1 X175.339 Y42.877 E0.05001
G1 X176.045 Y43.733 E0.03481
G1 X176.828 Y45.168 E0.05125
G1 X177.146 Y46.159 E0.03264
G1 X177.347 Y47.608 E0.04586
G1 X177.353 Y124.736 E2.41829
G1 X177.122 Y126.421 E0.05332
G1 X176.846 Y127.265 E0.02784
G1 X176.456 Y128.091 E0.02864
G1 X175.979 Y128.841 E0.02786
G1 X175.406 Y129.533 E0.02817
G1 X174.748 Y130.151 E0.02831
G1 X174.012 Y130.686 E0.02854
G1 X173.224 Y131.119 E0.02819
G1 X172.381 Y131.452 E0.02842
G1 X171.506 Y131.676 E0.02831
G1 X170.592 Y131.790 E0.02887
G1 X122.135 Y131.802 E1.51935
G1 X121.270 Y131.724 E0.02724
G1 X120.643 Y131.574 E0.02020
G1 X119.491 Y131.059 E0.03956
G1 X118.413 Y130.198 E0.04327
G1 X117.639 Y129.152 E0.04079
G1 X117.146 Y127.932 E0.04126
G1 X116.977 Y126.703 E0.03890
G1 X116.976 Y67.828 E1.84600
G1 X120.045 Y46.879 E0.66384
G1 X120.422 Y45.395 E0.04800
; PURGING FINISHED
G1 F8640
G1 X120.874 Y44.384 E-0.25584
G1 X121.349 Y43.638 E-0.20427
G1 X121.922 Y42.945 E-0.20746
G1 X122.214 Y42.671 E-0.09243
G1 E-0.04000 F2100.00000
G1 Z0.800 F10800.000
G1 X124.613 Y127.201
G1 Z0.200
G1 E0.80000 F2100.00000
G1 F1800
G1 X163.395 Y127.194 E1.21600
G1 X163.836 Y127.139 E0.01394
G1 X164.273 Y127.027 E0.01413
G1 X164.692 Y126.861 E0.01413
G1 X165.087 Y126.644 E0.01413
G1 X165.451 Y126.379 E0.01413
G1 X165.780 Y126.070 E0.01413
G1 X166.067 Y125.723 E0.01413
G1 X166.309 Y125.343 E0.01413
G1 X166.500 Y124.935 E0.01413
G1 X166.640 Y124.506 E0.01413
G1 X166.724 Y124.064 E0.01413
G1 X166.751 Y123.633 E0.01355
G1 X166.751 Y70.846 E1.65510
G1 X166.724 Y70.414 E0.01355
G1 X166.640 Y69.972 E0.01413
G1 X166.500 Y69.543 E0.01413
G1 X166.309 Y69.135 E0.01413
G1 X166.067 Y68.755 E0.01413
G1 X165.780 Y68.408 E0.01413
G1 X165.451 Y68.099 E0.01412
G1 X165.087 Y67.834 E0.01413
G1 X164.692 Y67.617 E0.01413
G1 X164.273 Y67.451 E0.01413
G1 X163.836 Y67.339 E0.01413
G1 X163.389 Y67.283 E0.01412
G1 X124.613 Y67.277 E1.21582
G1 X124.557 Y68.166 E0.02794
G1 X124.500 Y68.464 E0.00950
G1 X124.407 Y68.752 E0.00950
G1 X124.278 Y69.026 E0.00950
G1 X124.116 Y69.280 E0.00942
G1 X123.922 Y69.515 E0.00957
G1 X123.701 Y69.722 E0.00949
G1 X123.456 Y69.900 E0.00950
G1 X123.191 Y70.046 E0.00950
G1 X122.909 Y70.158 E0.00950
G1 X122.616 Y70.233 E0.00950
G1 X122.316 Y70.271 E0.00950
G1 X122.013 Y70.271 E0.00950
G1 X121.712 Y70.233 E0.00950
G1 X121.419 Y70.158 E0.00950
G1 X121.137 Y70.046 E0.00950
G1 X120.872 Y69.900 E0.00950
G1 X120.627 Y69.722 E0.00950
G1 X120.406 Y69.515 E0.00950
G1 X120.213 Y69.282 E0.00949
G1 X120.051 Y69.026 E0.00950
G1 X119.922 Y68.752 E0.00950
G1 X119.828 Y68.464 E0.00950
G1 X119.771 Y68.166 E0.00950
G1 X119.752 Y67.866 E0.00943
G1 X119.771 Y67.562 E0.00957
G1 X119.828 Y67.264 E0.00949
G1 X119.922 Y66.976 E0.00950
G1 X120.051 Y66.702 E0.00950
G1 X120.213 Y66.446 E0.00950
G1 X120.406 Y66.213 E0.00949
G1 X120.627 Y66.006 E0.00950
G1 X120.872 Y65.828 E0.00950
G1 X121.137 Y65.682 E0.00950
G1 X121.419 Y65.570 E0.00950
G1 X121.712 Y65.495 E0.00950
G1 X122.013 Y65.457 E0.00950
G1 X122.751 Y65.457 E0.02316
G1 X122.751 Y47.786 E0.55406
G1 X122.786 Y47.315 E0.01482
G1 X122.891 Y46.767 E0.01748
G1 X123.062 Y46.240 E0.01737
G1 X123.298 Y45.739 E0.01737
G1 X123.595 Y45.271 E0.01737
G1 X123.948 Y44.844 E0.01737
G1 X124.352 Y44.465 E0.01737
G1 X124.800 Y44.139 E0.01737
G1 X125.286 Y43.872 E0.01737
G1 X125.801 Y43.668 E0.01737
G1 X126.337 Y43.531 E0.01737
G1 X126.887 Y43.461 E0.01737
G1 X170.441 Y43.461 E1.36561
G1 X170.991 Y43.531 E0.01737
G1 X171.527 Y43.668 E0.01737
G1 X172.043 Y43.872 E0.01737
G1 X172.528 Y44.139 E0.01737
G1 X172.976 Y44.465 E0.01737
G1 X173.380 Y44.844 E0.01737
G1 X173.731 Y45.268 E0.01725
G1 X174.030 Y45.739 E0.01750
G1 X174.266 Y46.240 E0.01737
G1 X174.437 Y46.767 E0.01737
G1 X174.542 Y47.315 E0.01748
G1 X174.577 Y47.786 E0.01482
G1 X174.577 Y53.277 E0.17217
G1 X168.215 Y53.277 E0.19946
G1 X168.077 Y52.474 E0.02554
G1 X167.860 Y51.807 E0.02200
G1 X167.561 Y51.172 E0.02201
G1 X167.187 Y50.583 E0.02186
G1 X166.738 Y50.039 E0.02213
G1 X166.226 Y49.558 E0.02201
G1 X165.658 Y49.146 E0.02200
G1 X165.043 Y48.808 E0.02200
G1 X164.391 Y48.549 E0.02201
G1 X163.711 Y48.375 E0.02200
G1 X163.015 Y48.287 E0.02200
G1 X133.146 Y48.277 E0.93653
G1 X132.473 Y48.319 E0.02114
G1 X132.108 Y48.377 E0.01158
G1 X131.446 Y48.547 E0.02142
G1 X131.099 Y48.672 E0.01159
G1 X130.472 Y48.967 E0.02171
G1 X129.887 Y49.338 E0.02171
G1 X129.595 Y49.565 E0.01159
G1 X129.097 Y50.032 E0.02142
G1 X128.853 Y50.309 E0.01158
G1 X128.446 Y50.870 E0.02171
G1 X128.108 Y51.485 E0.02200
G1 X127.854 Y52.127 E0.02164
G1 X127.750 Y52.483 E0.01165
G1 X127.620 Y53.164 E0.02171
G1 X127.577 Y53.853 E0.02165
G1 X127.622 Y54.574 E0.02265
G1 X127.750 Y55.245 E0.02142
G1 X127.853 Y55.600 E0.01158
G1 X128.107 Y56.241 E0.02164
G1 X128.446 Y56.858 E0.02207
G1 X128.853 Y57.419 E0.02172
G1 X129.097 Y57.696 E0.01158
G1 X129.595 Y58.164 E0.02143
G1 X129.887 Y58.390 E0.01159
G1 X130.472 Y58.761 E0.02171
G1 X131.099 Y59.056 E0.02171
G1 X131.438 Y59.178 E0.01130
G1 X131.783 Y59.278 E0.01129
G1 X132.464 Y59.408 E0.02171
G1 X133.146 Y59.451 E0.02142
G1 X170.441 Y59.461 E1.16937
G1 X170.991 Y59.531 E0.01737
G1 X171.527 Y59.668 E0.01737
G1 X172.043 Y59.872 E0.01737
G1 X172.528 Y60.139 E0.01737
G1 X172.976 Y60.465 E0.01737
G1 X173.380 Y60.844 E0.01737
G1 X173.733 Y61.271 E0.01737
G1 X174.030 Y61.739 E0.01737
G1 X174.266 Y62.240 E0.01737
G1 X174.437 Y62.767 E0.01737
G1 X174.542 Y63.315 E0.01748
G1 X174.577 Y63.786 E0.01482
G1 X174.577 Y124.692 E1.90967
G1 X174.542 Y125.164 E0.01482
G1 X174.437 Y125.711 E0.01748
G1 X174.266 Y126.238 E0.01737
G1 X174.030 Y126.739 E0.01737
G1 X173.733 Y127.207 E0.01737
G1 X173.380 Y127.634 E0.01737
G1 X172.976 Y128.013 E0.01737
G1 X172.528 Y128.339 E0.01737
G1 X172.043 Y128.606 E0.01737
G1 X171.527 Y128.810 E0.01737
G1 X170.991 Y128.948 E0.01737
G1 X170.251 Y129.027 E0.02334
G1 X122.192 Y129.027 E1.50685
G1 X121.703 Y128.981 E0.01539
G1 X121.419 Y128.908 E0.00921
G1 X121.137 Y128.796 E0.00950
G1 X120.872 Y128.650 E0.00950
G1 X120.627 Y128.472 E0.00950
G1 X120.406 Y128.265 E0.00950
G1 X120.214 Y128.033 E0.00942
G1 X120.051 Y127.776 E0.00957
G1 X119.922 Y127.502 E0.00949
G1 X119.828 Y127.214 E0.00950
G1 X119.771 Y126.916 E0.00950
G1 X119.752 Y126.616 E0.00943
G1 X119.771 Y126.312 E0.00957
G1 X119.828 Y126.014 E0.00949
G1 X119.922 Y125.726 E0.00950
G1 X120.051 Y125.452 E0.00950
G1 X120.212 Y125.198 E0.00943
G1 X120.406 Y124.963 E0.00957
G1 X120.627 Y124.756 E0.00949
G1 X120.872 Y124.578 E0.00950
G1 X121.137 Y124.432 E0.00950
G1 X121.419 Y124.320 E0.00950
G1 X121.710 Y124.246 E0.00943
G1 X122.013 Y124.207 E0.00957
G1 X122.316 Y124.207 E0.00949
G1 X122.616 Y124.245 E0.00950
G1 X122.909 Y124.320 E0.00950
G1 X123.191 Y124.432 E0.00950
G1 X123.456 Y124.578 E0.00950
G1 X123.701 Y124.756 E0.00950
G1 X123.922 Y124.963 E0.00950
G1 X124.115 Y125.196 E0.00950
G1 X124.278 Y125.452 E0.00950
G1 X124.407 Y125.726 E0.00950
G1 X124.500 Y126.014 E0.00950
G1 X124.557 Y126.312 E0.00950
G1 X124.609 Y127.141 E0.02606
G1 X124.967 Y126.824 F10800.000
G1 F1800
G1 X163.368 Y126.818 E1.20404
G1 X163.766 Y126.768 E0.01257
G1 X164.156 Y126.667 E0.01264
G1 X164.531 Y126.519 E0.01264
G1 X164.884 Y126.325 E0.01264
G1 X165.211 Y126.088 E0.01264
G1 X165.504 Y125.812 E0.01264
G1 X165.761 Y125.501 E0.01264
G1 X165.977 Y125.161 E0.01264
G1 X166.149 Y124.796 E0.01264
G1 X166.274 Y124.412 E0.01264
G1 X166.349 Y124.016 E0.01264
G1 X166.374 Y123.621 E0.01243
G1 X166.374 Y70.857 E1.65435
G1 X166.349 Y70.462 E0.01243
G1 X166.274 Y70.066 E0.01264
G1 X166.149 Y69.682 E0.01264
G1 X165.977 Y69.317 E0.01264
G1 X165.761 Y68.977 E0.01264
G1 X165.504 Y68.666 E0.01264
G1 X165.211 Y68.390 E0.01264
G1 X164.884 Y68.153 E0.01264
G1 X164.531 Y67.959 E0.01264
G1 X164.156 Y67.811 E0.01264
G1 X163.766 Y67.710 E0.01264
G1 X163.366 Y67.660 E0.01264
G1 X124.967 Y67.654 E1.20397
G1 X124.932 Y68.214 E0.01758
G1 X124.866 Y68.558 E0.01098
G1 X124.758 Y68.891 E0.01098
G1 X124.609 Y69.208 E0.01098
G1 X124.422 Y69.502 E0.01091
G1 X124.198 Y69.774 E0.01106
G1 X123.942 Y70.013 E0.01098
G1 X123.659 Y70.219 E0.01099
G1 X123.352 Y70.388 E0.01098
G1 X123.026 Y70.517 E0.01098
G1 X122.687 Y70.604 E0.01098
G1 X122.339 Y70.648 E0.01098
G1 X121.989 Y70.648 E0.01098
G1 X121.641 Y70.604 E0.01098
G1 X121.302 Y70.517 E0.01098
G1 X120.976 Y70.388 E0.01098
G1 X120.669 Y70.219 E0.01098
G1 X120.386 Y70.013 E0.01099
G1 X120.131 Y69.774 E0.01099
G1 X119.907 Y69.504 E0.01098
G1 X119.720 Y69.208 E0.01098
G1 X119.570 Y68.891 E0.01098
G1 X119.462 Y68.558 E0.01098
G1 X119.397 Y68.214 E0.01098
G1 X119.375 Y67.867 E0.01091
G1 X119.397 Y67.514 E0.01106
G1 X119.462 Y67.170 E0.01098
G1 X119.570 Y66.837 E0.01098
G1 X119.720 Y66.520 E0.01098
G1 X119.907 Y66.224 E0.01098
G1 X120.131 Y65.955 E0.01098
G1 X120.386 Y65.715 E0.01099
G1 X120.669 Y65.509 E0.01099
G1 X120.976 Y65.340 E0.01098
G1 X121.302 Y65.211 E0.01098
G1 X121.641 Y65.124 E0.01098
G1 X121.989 Y65.080 E0.01098
G1 X122.374 Y65.080 E0.01208
G1 X122.374 Y47.772 E0.54268
G1 X122.412 Y47.265 E0.01594
G1 X122.525 Y46.673 E0.01890
G1 X122.711 Y46.101 E0.01886
G1 X122.967 Y45.557 E0.01886
G1 X123.289 Y45.049 E0.01886
G1 X123.673 Y44.585 E0.01886
G1 X124.111 Y44.174 E0.01886
G1 X124.598 Y43.820 E0.01886
G1 X125.125 Y43.530 E0.01886
G1 X125.684 Y43.309 E0.01886
G1 X126.267 Y43.159 E0.01886
G1 X126.863 Y43.084 E0.01886
G1 X170.465 Y43.084 E1.36710
G1 X171.062 Y43.159 E0.01886
G1 X171.644 Y43.309 E0.01886
G1 X172.203 Y43.530 E0.01886
G1 X172.730 Y43.820 E0.01886
G1 X173.217 Y44.174 E0.01886
G1 X173.656 Y44.585 E0.01886
G1 X174.036 Y45.046 E0.01873
G1 X174.361 Y45.557 E0.01899
G1 X174.617 Y46.101 E0.01886
G1 X174.803 Y46.673 E0.01886
G1 X174.916 Y47.265 E0.01890
G1 X174.954 Y47.772 E0.01594
G1 X174.954 Y53.654 E0.18443
G1 X167.861 Y53.654 E0.22239
G1 X167.833 Y53.211 E0.01392
G1 X167.711 Y52.568 E0.02051
G1 X167.509 Y51.946 E0.02052
G1 X167.230 Y51.354 E0.02052
G1 X166.882 Y50.805 E0.02038
G1 X166.462 Y50.297 E0.02065
G1 X165.985 Y49.849 E0.02052
G1 X165.456 Y49.465 E0.02052
G1 X164.883 Y49.150 E0.02051
G1 X164.274 Y48.909 E0.02052
G1 X163.640 Y48.746 E0.02052
G1 X162.991 Y48.664 E0.02051
G1 X133.158 Y48.654 E0.93542
G1 X132.514 Y48.695 E0.02021
G1 X132.185 Y48.747 E0.01047
G1 X131.557 Y48.908 E0.02031
G1 X131.243 Y49.021 E0.01047
G1 X130.654 Y49.298 E0.02041
G1 X130.104 Y49.647 E0.02041
G1 X129.840 Y49.852 E0.01047
G1 X129.368 Y50.295 E0.02031
G1 X129.147 Y50.546 E0.01047
G1 X128.765 Y51.072 E0.02041
G1 X128.450 Y51.646 E0.02051
G1 X128.211 Y52.249 E0.02035
G1 X128.117 Y52.572 E0.01054
G1 X127.995 Y53.211 E0.02041
G1 X127.954 Y53.859 E0.02035
G1 X127.995 Y54.520 E0.02079
G1 X128.117 Y55.157 E0.02031
G1 X128.210 Y55.477 E0.01047
G1 X128.449 Y56.081 E0.02035
G1 X128.765 Y56.656 E0.02058
G1 X129.147 Y57.183 E0.02041
G1 X129.368 Y57.433 E0.01047
G1 X129.840 Y57.877 E0.02031
G1 X130.104 Y58.081 E0.01047
G1 X130.654 Y58.430 E0.02041
G1 X131.243 Y58.707 E0.02041
G1 X131.554 Y58.819 E0.01037
G1 X131.872 Y58.911 E0.01037
G1 X132.511 Y59.033 E0.02041
G1 X133.157 Y59.074 E0.02031
G1 X170.465 Y59.084 E1.16975
G1 X171.062 Y59.159 E0.01886
G1 X171.644 Y59.309 E0.01886
G1 X172.203 Y59.530 E0.01886
G1 X172.730 Y59.820 E0.01886
G1 X173.217 Y60.174 E0.01886
G1 X173.656 Y60.585 E0.01886
G1 X174.039 Y61.049 E0.01886
G1 X174.361 Y61.557 E0.01886
G1 X174.617 Y62.101 E0.01886
G1 X174.803 Y62.673 E0.01886
G1 X174.916 Y63.265 E0.01890
G1 X174.954 Y63.772 E0.01594
G1 X174.954 Y124.706 E1.91055
G1 X174.916 Y125.213 E0.01594
G1 X174.803 Y125.805 E0.01890
G1 X174.617 Y126.377 E0.01886
G1 X174.361 Y126.921 E0.01886
G1 X174.039 Y127.429 E0.01886
G1 X173.656 Y127.893 E0.01886
G1 X173.217 Y128.305 E0.01886
G1 X172.730 Y128.658 E0.01886
G1 X172.203 Y128.948 E0.01886
G1 X171.644 Y129.169 E0.01886
G1 X171.062 Y129.319 E0.01886
G1 X170.460 Y129.395 E0.01901
G1 X122.174 Y129.404 E1.51398
G1 X121.638 Y129.353 E0.01688
G1 X121.302 Y129.267 E0.01088
G1 X120.976 Y129.138 E0.01098
G1 X120.669 Y128.969 E0.01098
G1 X120.386 Y128.763 E0.01098
G1 X120.131 Y128.524 E0.01098
G1 X119.909 Y128.256 E0.01091
G1 X119.720 Y127.958 E0.01106
G1 X119.570 Y127.641 E0.01098
G1 X119.462 Y127.308 E0.01098
G1 X119.397 Y126.964 E0.01098
G1 X119.375 Y126.617 E0.01091
G1 X119.397 Y126.264 E0.01106
G1 X119.462 Y125.920 E0.01098
G1 X119.570 Y125.587 E0.01098
G1 X119.720 Y125.270 E0.01098
G1 X119.906 Y124.976 E0.01091
G1 X120.131 Y124.704 E0.01106
G1 X120.386 Y124.465 E0.01098
G1 X120.669 Y124.259 E0.01098
G1 X120.976 Y124.090 E0.01098
G1 X121.302 Y123.961 E0.01098
G1 X121.639 Y123.875 E0.01091
G1 X121.989 Y123.830 E0.01106
G1 X122.339 Y123.830 E0.01098
G1 X122.687 Y123.874 E0.01098
G1 X123.026 Y123.961 E0.01098
G1 X123.352 Y124.090 E0.01098
G1 X123.659 Y124.259 E0.01098
G1 X123.942 Y124.465 E0.01098
G1 X124.198 Y124.704 E0.01098
G1 X124.421 Y124.974 E0.01098
G1 X124.609 Y125.270 E0.01098
G1 X124.758 Y125.587 E0.01098
G1 X124.866 Y125.920 E0.01098
G1 X124.932 Y126.264 E0.01098
G1 X124.963 Y126.764 E0.01570
G1 X124.982 Y127.224 F10800.000
G1 F8640
G1 X128.255 Y126.769 E-0.76000
G1 E-0.04000 F2100.00000
G1 Z0.800 F10800.000
G1 X124.359 Y125.945
G1 Z0.200
G1 E0.80000 F2100.00000
G1 F1800
G1 X123.141 Y124.727 E0.05406
G1 X122.822 Y124.590 E0.01089
G1 X122.563 Y124.523 E0.00839
G1 X122.380 Y124.500 E0.00578
G1 X124.279 Y126.399 E0.08428
G1 X124.315 Y126.969 E0.01792
G1 X121.709 Y124.363 E0.11568
G1 F8640
G1 X124.036 Y126.690 E-0.76000
G1 E-0.04000 F2100.00000
G1 Z0.800 F10800.000
G1 X120.050 Y127.508
G1 Z0.200
G1 E0.80000 F2100.00000
G1 F1800
G1 X121.268 Y128.726 E0.05409
G1 X121.968 Y128.892 F10800.000
G1 F1800
G1 X120.075 Y127.000 E0.08401
G1 X120.036 Y126.616 E0.01210
G1 X120.047 Y126.438 E0.00562
G1 X122.353 Y128.744 E0.10239
G1 X122.887 Y128.744 E0.01676
G1 X120.133 Y125.990 E0.12225
G1 X120.288 Y125.611 E0.01285
G1 X123.421 Y128.744 E0.13906
G1 X123.955 Y128.744 E0.01676
G1 X120.502 Y125.291 E0.15328
G1 X120.762 Y125.017 E0.01185
G1 X124.489 Y128.744 E0.16544
G1 X125.023 Y128.744 E0.01676
G1 X121.070 Y124.792 E0.17545
G1 X121.258 Y124.688 E0.00673
G1 X121.432 Y124.619 E0.00587
G1 X125.557 Y128.744 E0.18309
G1 X126.090 Y128.744 E0.01676
G1 X124.830 Y127.484 E0.05594
G1 X125.364 Y127.484 E0.01676
G1 X126.624 Y128.744 E0.05594
G1 X127.158 Y128.744 E0.01676
G1 X125.898 Y127.484 E0.05594
G1 X126.432 Y127.484 E0.01676
G1 X127.692 Y128.744 E0.05594
G1 X128.226 Y128.744 E0.01676
