; generated by Slic3r Prusa Edition 1.41.0+win64 on 2018-10-23 at 13:37:25

; 

; external perimeters extrusion width = 0.45mm
; perimeters extrusion width = 0.45mm
; infill extrusion width = 0.45mm
; solid infill extrusion width = 0.45mm
; top infill extrusion width = 0.40mm
; first layer extrusion width = 0.42mm

M201 X1000 Y1000 Z1000 E5000 ; sets maximum accelerations, mm/sec^2
M203 X200 Y200 Z12 E120 ; sets maximum feedrates, mm/sec
M204 P1250 R1250 T1250 ; sets acceleration (P, T) and retract acceleration (R), mm/sec^2
M205 X8.00 Y8.00 Z0.40 E1.50 ; sets the jerk limits, mm/sec
M205 S0 T0 ; sets the minimum extruding and travel feed rate, mm/sec
M107
M115 U3.4.0 ; tell printer latest fw version
M83  ; extruder relative mode
M104 S215 ; set extruder temp
M140 S60 ; set bed temp
M190 S60 ; wait for bed temp
M109 S215 ; wait for extruder temp
G28 W ; home all without mesh bed level
G80 ; mesh bed leveling
G1 Y-3.0 F1000.0 ; go outside print area
G92 E0.0
G1 X60.0 E9.0  F1000.0 ; intro line
M73 Q0 S45
M73 P0 R44
G1 X100.0 E12.5  F1000.0 ; intro line
G92 E0.0
M221 S95
M900 K30; Filament gcode
G21 ; set units to millimeters
G90 ; use absolute coordinates
M83 ; use relative distances for extrusion
;BEFORE_LAYER_CHANGE
G92 E0.0
;0.3


G1 E-0.80000 F2100.00000
G1 Z0.600 F10800.000
;AFTER_LAYER_CHANGE
;0.3
G1 X120.449 Y45.337
G1 Z0.300
G1 E0.80000 F2100.00000
M204 S1000
G1 F1500
G1 X120.884 Y44.389 E0.04626
G1 X121.355 Y43.649 E0.03890
G1 X121.929 Y42.954 E0.03998
G1 X122.587 Y42.335 E0.04008
G1 X123.317 Y41.805 E0.04000
G1 X124.106 Y41.370 E0.03997
G1 X124.941 Y41.039 E0.03981
G1 X125.814 Y40.814 E0.04000
G1 X126.686 Y40.702 E0.03900
G1 X170.268 Y40.686 E1.93306
G1 X171.582 Y40.829 E0.05864
G1 X173.159 Y41.342 E0.07354
G1 X174.102 Y41.866 E0.04787
G1 X175.331 Y42.884 E0.07080
G1 X176.036 Y43.740 E0.04915
G1 X176.815 Y45.167 E0.07213
G1 X177.137 Y46.166 E0.04655
G1 X177.336 Y47.610 E0.06464
G1 X177.342 Y124.736 E3.42092
G1 X177.110 Y126.422 E0.07549
G1 X176.838 Y127.255 E0.03888
G1 X176.444 Y128.090 E0.04092
G1 X175.968 Y128.837 E0.03932
G1 X175.393 Y129.532 E0.04000
G1 X174.738 Y130.146 E0.03981
G1 X174.006 Y130.677 E0.04015
G1 X173.219 Y131.109 E0.03981
G1 X172.377 Y131.442 E0.04014
G1 X171.504 Y131.666 E0.03998
G1 X170.591 Y131.779 E0.04078
G1 X122.135 Y131.792 E2.14927
G1 X121.271 Y131.714 E0.03847
G1 X120.646 Y131.563 E0.02853
G1 X119.491 Y131.046 E0.05611
G1 X118.414 Y130.184 E0.06123
G1 X117.649 Y129.148 E0.05708
G1 X117.156 Y127.928 E0.05838
G1 X116.988 Y126.700 E0.05500
G1 X116.987 Y67.828 E2.61126
G1 X120.055 Y46.881 E0.93902
G1 X120.434 Y45.395 E0.06801
; PURGING FINISHED
G1 F8640
G1 X120.884 Y44.389 E-0.25448
G1 X121.355 Y43.649 E-0.20252
G1 X121.929 Y42.954 E-0.20813
G1 X122.228 Y42.673 E-0.09487
G1 E-0.04000 F2100.00000
G1 Z0.900 F10800.000
G1 X124.633 Y127.180
G1 Z0.300
G1 E0.80000 F2100.00000
G1 F1500
G1 X163.394 Y127.173 E1.71923
G1 X163.832 Y127.118 E0.01960
G1 X164.266 Y127.006 E0.01987
G1 X164.683 Y126.841 E0.01986
G1 X165.075 Y126.626 E0.01987
G1 X165.438 Y126.362 E0.01987
G1 X165.764 Y126.056 E0.01986
G1 X166.050 Y125.711 E0.01987
G1 X166.290 Y125.332 E0.01987
G1 X166.480 Y124.927 E0.01986
G1 X166.619 Y124.501 E0.01987
G1 X166.703 Y124.061 E0.01987
G1 X166.730 Y123.632 E0.01907
G1 X166.730 Y70.846 E2.34130
G1 X166.703 Y70.417 E0.01907
G1 X166.619 Y69.977 E0.01987
G1 X166.480 Y69.551 E0.01987
G1 X166.290 Y69.146 E0.01986
G1 X166.050 Y68.768 E0.01987
G1 X165.764 Y68.422 E0.01987
G1 X165.438 Y68.116 E0.01986
G1 X165.075 Y67.853 E0.01987
G1 X164.683 Y67.637 E0.01987
G1 X164.266 Y67.472 E0.01986
G1 X163.832 Y67.360 E0.01987
G1 X163.388 Y67.304 E0.01986
G1 X124.633 Y67.298 E1.71898
G1 X124.578 Y68.169 E0.03869
G1 X124.521 Y68.469 E0.01355
G1 X124.426 Y68.760 E0.01355
G1 X124.296 Y69.036 E0.01355
G1 X124.133 Y69.294 E0.01354
G1 X123.935 Y69.532 E0.01372
G1 X123.715 Y69.739 E0.01341
G1 X123.468 Y69.919 E0.01356
G1 X123.200 Y70.066 E0.01355
G1 X122.916 Y70.178 E0.01355
G1 X122.620 Y70.254 E0.01355
G1 X122.317 Y70.293 E0.01355
G1 X122.011 Y70.293 E0.01355
G1 X121.708 Y70.254 E0.01355
G1 X121.412 Y70.178 E0.01355
G1 X121.128 Y70.066 E0.01355
G1 X120.860 Y69.919 E0.01355
G1 X120.613 Y69.739 E0.01356
G1 X120.390 Y69.530 E0.01356
G1 X120.196 Y69.294 E0.01355
G1 X120.032 Y69.036 E0.01355
G1 X119.902 Y68.760 E0.01355
G1 X119.807 Y68.469 E0.01355
G1 X119.750 Y68.169 E0.01355
G1 X119.731 Y67.867 E0.01340
G1 X119.750 Y67.559 E0.01372
G1 X119.807 Y67.259 E0.01354
G1 X119.902 Y66.968 E0.01355
G1 X120.032 Y66.692 E0.01355
G1 X120.196 Y66.434 E0.01355
G1 X120.390 Y66.198 E0.01355
G1 X120.613 Y65.989 E0.01356
G1 X120.860 Y65.810 E0.01356
G1 X121.128 Y65.662 E0.01355
G1 X121.412 Y65.550 E0.01355
G1 X121.708 Y65.474 E0.01355
G1 X122.011 Y65.436 E0.01355
G1 X122.730 Y65.436 E0.03187
G1 X122.730 Y47.785 E0.78288
G1 X122.765 Y47.312 E0.02106
G1 X122.870 Y46.762 E0.02484
G1 X123.042 Y46.232 E0.02470
G1 X123.279 Y45.728 E0.02470
G1 X123.578 Y45.258 E0.02469
G1 X123.932 Y44.829 E0.02470
G1 X124.338 Y44.448 E0.02469
G1 X124.789 Y44.121 E0.02469
G1 X125.277 Y43.853 E0.02470
G1 X125.794 Y43.648 E0.02469
G1 X126.333 Y43.509 E0.02469
G1 X126.886 Y43.440 E0.02470
G1 X170.443 Y43.440 E1.93195
G1 X170.995 Y43.509 E0.02469
G1 X171.534 Y43.648 E0.02469
G1 X172.052 Y43.853 E0.02469
G1 X172.540 Y44.121 E0.02469
G1 X172.990 Y44.448 E0.02469
G1 X173.396 Y44.829 E0.02469
G1 X173.751 Y45.258 E0.02470
G1 X174.049 Y45.728 E0.02469
G1 X174.286 Y46.232 E0.02470
G1 X174.458 Y46.762 E0.02470
G1 X174.563 Y47.312 E0.02484
G1 X174.598 Y47.785 E0.02106
G1 X174.598 Y53.298 E0.24454
G1 X168.195 Y53.298 E0.28401
G1 X168.187 Y53.166 E0.00587
G1 X168.056 Y52.480 E0.03100
G1 X167.840 Y51.815 E0.03101
G1 X167.542 Y51.182 E0.03101
G1 X167.168 Y50.592 E0.03100
G1 X166.722 Y50.053 E0.03101
G1 X166.212 Y49.575 E0.03101
G1 X165.647 Y49.164 E0.03101
G1 X165.034 Y48.827 E0.03100
G1 X164.384 Y48.570 E0.03101
G1 X163.707 Y48.396 E0.03101
G1 X163.014 Y48.308 E0.03100
G1 X133.146 Y48.298 E1.32476
G1 X132.475 Y48.341 E0.02983
G1 X132.112 Y48.398 E0.01630
G1 X131.453 Y48.568 E0.03021
G1 X131.107 Y48.692 E0.01630
G1 X130.482 Y48.986 E0.03061
G1 X129.900 Y49.356 E0.03061
G1 X129.609 Y49.581 E0.01630
G1 X129.113 Y50.047 E0.03022
G1 X128.870 Y50.323 E0.01630
G1 X128.464 Y50.881 E0.03061
G1 X128.127 Y51.494 E0.03100
G1 X127.874 Y52.132 E0.03047
G1 X127.771 Y52.488 E0.01644
G1 X127.641 Y53.166 E0.03061
G1 X127.598 Y53.852 E0.03047
G1 X127.643 Y54.571 E0.03194
G1 X127.771 Y55.240 E0.03022
G1 X127.873 Y55.593 E0.01630
G1 X128.126 Y56.231 E0.03047
G1 X128.464 Y56.847 E0.03114
G1 X128.868 Y57.403 E0.03047
G1 X129.112 Y57.681 E0.01644
G1 X129.609 Y58.147 E0.03023
G1 X129.900 Y58.372 E0.01630
G1 X130.482 Y58.742 E0.03061
G1 X131.107 Y59.036 E0.03061
G1 X131.444 Y59.158 E0.01591
G1 X131.788 Y59.258 E0.01590
G1 X132.466 Y59.387 E0.03061
G1 X133.146 Y59.430 E0.03022
G1 X170.442 Y59.440 E1.65426
G1 X170.995 Y59.509 E0.02470
G1 X171.534 Y59.648 E0.02469
G1 X172.052 Y59.853 E0.02469
G1 X172.540 Y60.121 E0.02469
G1 X172.990 Y60.448 E0.02469
G1 X173.396 Y60.829 E0.02470
G1 X173.751 Y61.258 E0.02470
G1 X174.049 Y61.728 E0.02469
G1 X174.286 Y62.232 E0.02470
G1 X174.458 Y62.762 E0.02470
G1 X174.563 Y63.312 E0.02484
G1 X174.598 Y63.785 E0.02106
G1 X174.598 Y124.693 E2.70155
G1 X174.563 Y125.166 E0.02106
G1 X174.458 Y125.717 E0.02484
G1 X174.286 Y126.246 E0.02469
G1 X174.049 Y126.750 E0.02470
G1 X173.751 Y127.220 E0.02469
G1 X173.396 Y127.649 E0.02469
G1 X172.990 Y128.030 E0.02469
G1 X172.540 Y128.357 E0.02469
G1 X172.052 Y128.625 E0.02469
G1 X171.534 Y128.830 E0.02469
G1 X170.995 Y128.969 E0.02469
G1 X170.251 Y129.048 E0.03318
G1 X122.191 Y129.048 E2.13171
G1 X121.700 Y129.002 E0.02189
G1 X121.412 Y128.928 E0.01316
G1 X121.128 Y128.816 E0.01355
G1 X120.860 Y128.669 E0.01355
G1 X120.613 Y128.489 E0.01355
G1 X120.390 Y128.280 E0.01355
G1 X120.198 Y128.047 E0.01340
G1 X120.032 Y127.786 E0.01372
G1 X119.902 Y127.510 E0.01354
G1 X119.807 Y127.219 E0.01355
G1 X119.750 Y126.919 E0.01355
G1 X119.731 Y126.617 E0.01340
G1 X119.750 Y126.309 E0.01372
G1 X119.807 Y126.009 E0.01354
G1 X119.902 Y125.718 E0.01355
G1 X120.030 Y125.445 E0.01340
G1 X120.196 Y125.184 E0.01372
G1 X120.390 Y124.948 E0.01354
G1 X120.613 Y124.739 E0.01355
G1 X120.860 Y124.560 E0.01355
G1 X121.128 Y124.412 E0.01355
G1 X121.409 Y124.301 E0.01340
G1 X121.709 Y124.224 E0.01372
G1 X122.011 Y124.186 E0.01354
G1 X122.317 Y124.186 E0.01355
G1 X122.620 Y124.224 E0.01355
G1 X122.916 Y124.300 E0.01355
G1 X123.200 Y124.412 E0.01355
G1 X123.468 Y124.559 E0.01354
G1 X123.718 Y124.742 E0.01372
G1 X123.938 Y124.948 E0.01340
G1 X124.133 Y125.184 E0.01355
G1 X124.296 Y125.442 E0.01355
G1 X124.427 Y125.718 E0.01355
G1 X124.521 Y126.009 E0.01355
G1 X124.578 Y126.309 E0.01355
G1 X124.629 Y127.120 E0.03603
G1 X124.967 Y126.824 F10800.000
G1 F1500
G1 X163.368 Y126.818 E1.70327
G1 X163.766 Y126.768 E0.01778
G1 X164.156 Y126.667 E0.01789
G1 X164.531 Y126.519 E0.01788
G1 X164.884 Y126.325 E0.01788
G1 X165.211 Y126.088 E0.01788
G1 X165.504 Y125.812 E0.01788
G1 X165.761 Y125.501 E0.01788
G1 X165.977 Y125.161 E0.01788
G1 X166.149 Y124.796 E0.01788
G1 X166.274 Y124.412 E0.01788
G1 X166.349 Y124.016 E0.01788
G1 X166.374 Y123.621 E0.01759
G1 X166.374 Y70.857 E2.34030
G1 X166.349 Y70.462 E0.01759
G1 X166.274 Y70.066 E0.01788
G1 X166.149 Y69.682 E0.01788
G1 X165.977 Y69.317 E0.01788
G1 X165.761 Y68.977 E0.01788
G1 X165.504 Y68.666 E0.01788
G1 X165.211 Y68.390 E0.01788
G1 X164.884 Y68.153 E0.01788
G1 X164.531 Y67.959 E0.01788
G1 X164.156 Y67.811 E0.01788
G1 X163.766 Y67.710 E0.01789
G1 X163.366 Y67.660 E0.01788
G1 X124.967 Y67.654 E1.70317
G1 X124.932 Y68.214 E0.02487
G1 X124.866 Y68.558 E0.01554
G1 X124.758 Y68.891 E0.01554
G1 X124.609 Y69.208 E0.01554
G1 X124.421 Y69.504 E0.01553
G1 X124.195 Y69.776 E0.01570
G1 X123.942 Y70.013 E0.01538
G1 X123.659 Y70.219 E0.01554
G1 X123.352 Y70.388 E0.01554
G1 X123.026 Y70.517 E0.01554
G1 X122.687 Y70.604 E0.01554
G1 X122.339 Y70.648 E0.01554
G1 X121.989 Y70.648 E0.01554
G1 X121.641 Y70.604 E0.01554
G1 X121.302 Y70.517 E0.01554
G1 X120.976 Y70.388 E0.01554
G1 X120.669 Y70.219 E0.01554
G1 X120.386 Y70.013 E0.01554
G1 X120.131 Y69.774 E0.01554
G1 X119.907 Y69.504 E0.01554
G1 X119.720 Y69.208 E0.01554
G1 X119.570 Y68.891 E0.01554
G1 X119.462 Y68.558 E0.01554
G1 X119.397 Y68.214 E0.01554
G1 X119.375 Y67.868 E0.01538
G1 X119.397 Y67.514 E0.01570
G1 X119.462 Y67.170 E0.01553
G1 X119.570 Y66.837 E0.01554
G1 X119.720 Y66.520 E0.01554
G1 X119.907 Y66.224 E0.01554
G1 X120.131 Y65.955 E0.01554
G1 X120.386 Y65.715 E0.01554
G1 X120.669 Y65.509 E0.01554
G1 X120.976 Y65.340 E0.01554
G1 X121.302 Y65.211 E0.01554
G1 X121.641 Y65.124 E0.01554
G1 X121.989 Y65.080 E0.01554
G1 X122.374 Y65.080 E0.01708
G1 X122.374 Y47.772 E0.76770
G1 X122.412 Y47.265 E0.02255
G1 X122.525 Y46.673 E0.02673
G1 X122.711 Y46.101 E0.02668
G1 X122.967 Y45.557 E0.02668
G1 X123.289 Y45.049 E0.02668
G1 X123.673 Y44.585 E0.02668
G1 X124.111 Y44.174 E0.02668
G1 X124.598 Y43.820 E0.02668
G1 X125.125 Y43.530 E0.02668
G1 X125.684 Y43.309 E0.02668
G1 X126.267 Y43.159 E0.02668
G1 X126.863 Y43.084 E0.02668
G1 X170.465 Y43.084 E1.93394
G1 X171.062 Y43.159 E0.02668
G1 X171.644 Y43.309 E0.02668
G1 X172.203 Y43.530 E0.02668
G1 X172.730 Y43.820 E0.02668
G1 X173.217 Y44.174 E0.02668
G1 X173.656 Y44.585 E0.02668
G1 X174.039 Y45.049 E0.02668
G1 X174.361 Y45.557 E0.02668
G1 X174.617 Y46.101 E0.02668
G1 X174.803 Y46.673 E0.02668
G1 X174.916 Y47.265 E0.02673
G1 X174.954 Y47.772 E0.02255
G1 X174.954 Y53.654 E0.26090
G1 X167.861 Y53.654 E0.31460
G1 X167.833 Y53.211 E0.01969
G1 X167.711 Y52.568 E0.02902
G1 X167.509 Y51.946 E0.02902
G1 X167.230 Y51.354 E0.02903
G1 X166.879 Y50.801 E0.02902
G1 X166.462 Y50.297 E0.02902
G1 X165.985 Y49.849 E0.02902
G1 X165.456 Y49.465 E0.02902
G1 X164.883 Y49.150 E0.02902
G1 X164.274 Y48.909 E0.02902
G1 X163.640 Y48.746 E0.02902
G1 X162.991 Y48.664 E0.02902
G1 X133.158 Y48.654 E1.32327
G1 X132.514 Y48.695 E0.02859
G1 X132.185 Y48.747 E0.01481
G1 X131.557 Y48.908 E0.02873
G1 X131.243 Y49.021 E0.01481
G1 X130.654 Y49.298 E0.02888
G1 X130.104 Y49.647 E0.02887
G1 X129.840 Y49.852 E0.01481
G1 X129.368 Y50.295 E0.02873
G1 X129.147 Y50.546 E0.01481
G1 X128.765 Y51.072 E0.02888
G1 X128.450 Y51.646 E0.02902
G1 X128.211 Y52.248 E0.02873
G1 X128.117 Y52.572 E0.01495
G1 X127.995 Y53.211 E0.02887
G1 X127.954 Y53.858 E0.02874
G1 X127.995 Y54.520 E0.02946
G1 X128.117 Y55.157 E0.02873
G1 X128.210 Y55.477 E0.01481
G1 X128.448 Y56.080 E0.02873
G1 X128.765 Y56.656 E0.02916
G1 X129.145 Y57.180 E0.02874
G1 X129.368 Y57.433 E0.01495
G1 X129.840 Y57.877 E0.02873
G1 X130.104 Y58.081 E0.01481
G1 X130.654 Y58.430 E0.02887
G1 X131.243 Y58.707 E0.02888
G1 X131.554 Y58.819 E0.01466
G1 X131.872 Y58.911 E0.01466
G1 X132.511 Y59.033 E0.02887
G1 X133.157 Y59.074 E0.02873
G1 X170.465 Y59.084 E1.65476
G1 X171.062 Y59.159 E0.02668
G1 X171.644 Y59.309 E0.02668
G1 X172.203 Y59.530 E0.02668
G1 X172.730 Y59.820 E0.02668
G1 X173.217 Y60.174 E0.02668
G1 X173.656 Y60.585 E0.02668
G1 X174.039 Y61.049 E0.02668
G1 X174.361 Y61.557 E0.02668
G1 X174.617 Y62.101 E0.02668
G1 X174.803 Y62.673 E0.02668
G1 X174.916 Y63.265 E0.02673
G1 X174.954 Y63.772 E0.02255
G1 X174.954 Y124.706 E2.70273
G1 X174.916 Y125.213 E0.02255
G1 X174.803 Y125.805 E0.02673
G1 X174.617 Y126.377 E0.02668
G1 X174.361 Y126.921 E0.02668
G1 X174.039 Y127.429 E0.02668
G1 X173.656 Y127.893 E0.02668
G1 X173.217 Y128.305 E0.02668
G1 X172.730 Y128.658 E0.02668
G1 X172.203 Y128.948 E0.02668
G1 X171.644 Y129.169 E0.02668
G1 X171.062 Y129.319 E0.02668
G1 X170.460 Y129.395 E0.02689
G1 X122.174 Y129.404 E2.14172
G1 X121.638 Y129.353 E0.02387
G1 X121.302 Y129.267 E0.01539
G1 X120.976 Y129.138 E0.01554
G1 X120.669 Y128.969 E0.01554
G1 X120.386 Y128.763 E0.01554
G1 X120.131 Y128.524 E0.01554
G1 X119.910 Y128.257 E0.01538
G1 X119.720 Y127.958 E0.01570
G1 X119.570 Y127.641 E0.01553
G1 X119.462 Y127.308 E0.01554
G1 X119.397 Y126.964 E0.01554
G1 X119.375 Y126.618 E0.01538
G1 X119.397 Y126.264 E0.01570
G1 X119.462 Y125.920 E0.01553
G1 X119.570 Y125.587 E0.01554
G1 X119.718 Y125.273 E0.01538
G1 X119.907 Y124.974 E0.01570
G1 X120.131 Y124.704 E0.01553
G1 X120.386 Y124.465 E0.01554
G1 X120.669 Y124.259 E0.01554
G1 X120.976 Y124.090 E0.01554
G1 X121.299 Y123.962 E0.01538
G1 X121.642 Y123.874 E0.01570
G1 X121.989 Y123.830 E0.01553
G1 X122.339 Y123.830 E0.01554
G1 X122.687 Y123.874 E0.01554
G1 X123.026 Y123.961 E0.01554
G1 X123.352 Y124.090 E0.01554
G1 X123.659 Y124.259 E0.01553
G1 X123.945 Y124.467 E0.01570
G1 X124.198 Y124.704 E0.01538
G1 X124.421 Y124.974 E0.01554
G1 X124.609 Y125.270 E0.01554
G1 X124.758 Y125.587 E0.01554
G1 X124.866 Y125.920 E0.01554
G1 X124.932 Y126.264 E0.01554
G1 X124.963 Y126.764 E0.02221
G1 X124.982 Y127.224 F10800.000
G1 X124.820 Y127.286
G1 F1500
G1 X126.315 Y128.782 E0.09409
G1 X126.820 Y128.782 E0.02244
G1 X125.484 Y127.446 E0.08402
G1 X125.989 Y127.446 E0.02244
G1 X127.324 Y128.782 E0.08402
G1 X127.829 Y128.782 E0.02244
G1 X126.493 Y127.446 E0.08402
G1 X126.998 Y127.446 E0.02244
G1 X128.333 Y128.782 E0.08402
G1 X128.838 Y128.782 E0.02244
G1 X127.502 Y127.446 E0.08402
G1 X128.007 Y127.446 E0.02244
G1 X129.342 Y128.782 E0.08402
G1 X129.846 Y128.782 E0.02244
G1 X128.511 Y127.446 E0.08402
G1 X129.016 Y127.446 E0.02244
G1 X130.351 Y128.782 E0.08402
G1 X130.855 Y128.782 E0.02244
G1 X129.520 Y127.446 E0.08402
G1 X130.024 Y127.446 E0.02244
G1 X131.360 Y128.782 E0.08402
G1 X131.864 Y128.782 E0.02244
G1 X130.529 Y127.446 E0.08402
G1 X131.033 Y127.446 E0.02244
G1 X132.369 Y128.782 E0.08402
G1 X132.873 Y128.782 E0.02244
G1 X131.538 Y127.446 E0.08402
G1 X132.042 Y127.446 E0.02244
G1 X133.378 Y128.782 E0.08402
G1 X133.882 Y128.782 E0.02244
G1 X132.547 Y127.446 E0.08402
G1 X133.051 Y127.446 E0.02244
G1 X134.387 Y128.782 E0.08402
G1 X134.891 Y128.782 E0.02244
G1 X133.556 Y127.446 E0.08402
G1 X134.060 Y127.446 E0.02244
G1 X135.396 Y128.782 E0.08402
G1 X135.900 Y128.782 E0.02244
G1 X134.565 Y127.446 E0.08402
G1 X135.069 Y127.446 E0.02244
G1 X136.404 Y128.782 E0.08402
G1 X136.909 Y128.782 E0.02244
G1 X135.574 Y127.446 E0.08402
