; generated by Slic3r Prusa Edition 1.41.0+win64 on 2018-10-15 at 17:47:24

; 

; external perimeters extrusion width = 0.45mm
; perimeters extrusion width = 0.45mm
; infill extrusion width = 0.45mm
; solid infill extrusion width = 0.45mm
; top infill extrusion width = 0.40mm
; first layer extrusion width = 0.42mm

M201 X1000 Y1000 Z1000 E5000 ; sets maximum accelerations, mm/sec^2
M203 X200 Y200 Z12 E120 ; sets maximum feedrates, mm/sec
M204 P1250 R1250 T1250 ; sets acceleration (P, T) and retract acceleration (R), mm/sec^2
M205 X8.00 Y8.00 Z0.40 E1.50 ; sets the jerk limits, mm/sec
M205 S0 T0 ; sets the minimum extruding and travel feed rate, mm/sec
M107
M115 U3.4.0 ; tell printer latest fw version
M83  ; extruder relative mode
M104 S215 ; set extruder temp
M140 S60 ; set bed temp
M190 S60 ; wait for bed temp
M109 S215 ; wait for extruder temp
G28 W ; home all without mesh bed level
G80 ; mesh bed leveling
G1 Y-3.0 F1000.0 ; go outside print area
G92 E0.0
G1 X60.0 E9.0  F1000.0 ; intro line
M73 Q0 S261
M73 P0 R246
G1 X100.0 E12.5  F1000.0 ; intro line
G92 E0.0
M221 S95
M900 K30; Filament gcode
G21 ; set units to millimeters
G90 ; use absolute coordinates
M83 ; use relative distances for extrusion
;BEFORE_LAYER_CHANGE
G92 E0.0
;0.2


G1 E-0.80000 F2100.00000
G1 Z0.600 F10800.000
;AFTER_LAYER_CHANGE
;0.2
G1 X131.521 Y52.138
G1 Z0.200
G1 E0.80000 F2100.00000
M204 S1000
G1 F1800
G1 X132.838 Y48.991 E0.10054
G1 X134.408 Y45.802 E0.10478
G1 X136.097 Y42.844 E0.10039
G1 X137.991 Y39.951 E0.10192
G1 X140.057 Y37.178 E0.10192
G1 X142.255 Y34.575 E0.10040
G1 X144.682 Y32.031 E0.10363
G1 X147.214 Y29.686 E0.10173
G1 X149.849 Y27.526 E0.10040
G1 X152.728 Y25.447 E0.10467
G1 X155.615 Y23.621 E0.10069
G1 X158.671 Y21.940 E0.10279
G1 X161.798 Y20.461 E0.10195
G1 X164.332 Y19.440 E0.08052
G1 X168.492 Y18.031 E0.12945
G1 X171.650 Y17.201 E0.09624
G1 X175.026 Y16.525 E0.10148
G1 X178.456 Y16.053 E0.10204
G1 X181.191 Y15.840 E0.08084
G1 X185.345 Y15.741 E0.12247
G1 X188.816 Y15.902 E0.10242
G1 X191.557 Y16.191 E0.08122
G1 X195.893 Y16.900 E0.12949
G1 X199.046 Y17.642 E0.09549
G1 X202.351 Y18.631 E0.10167
G1 X205.596 Y19.821 E0.10185
G1 X208.130 Y20.922 E0.08144
G1 X212.053 Y22.903 E0.12952
G1 X214.785 Y24.524 E0.09363
G1 X217.639 Y26.455 E0.10157
G1 X220.428 Y28.603 E0.10373
G1 X222.995 Y30.841 E0.10039
G1 X225.459 Y33.268 E0.10192
G1 X227.828 Y35.911 E0.10463
G1 X229.920 Y38.548 E0.09921
G1 X231.902 Y41.382 E0.10192
G1 X233.706 Y44.332 E0.10192
G1 X235.304 Y47.341 E0.10040
G1 X236.779 Y50.582 E0.10496
G1 X237.997 Y53.763 E0.10039
G1 X239.036 Y57.062 E0.10192
G1 X239.871 Y60.417 E0.10192
G1 X240.492 Y63.767 E0.10040
G1 X240.925 Y67.302 E0.10496
G1 X241.132 Y70.702 E0.10039
G1 X241.133 Y74.153 E0.10173
G1 X240.916 Y77.663 E0.10364
G1 X240.501 Y81.044 E0.10039
G1 X239.871 Y84.444 E0.10192
G1 X239.036 Y87.800 E0.10192
G1 X238.014 Y91.049 E0.10040
G1 X236.739 Y94.375 E0.10497
G1 X235.328 Y97.475 E0.10039
G1 X233.706 Y100.529 E0.10192
G1 X231.902 Y103.479 E0.10192
G1 X229.951 Y106.272 E0.10040
G1 X227.736 Y109.061 E0.10497
G1 X225.459 Y111.594 E0.10039
G1 X223.000 Y114.016 E0.10173
G1 X220.316 Y116.349 E0.10482
G1 X217.648 Y118.401 E0.09921
G1 X214.783 Y120.339 E0.10192
G1 X211.806 Y122.098 E0.10192
G1 X208.774 Y123.650 E0.10040
G1 X205.516 Y125.073 E0.10476
G1 X202.311 Y126.245 E0.10059
G1 X199.022 Y127.226 E0.10116
G1 X195.651 Y128.013 E0.10201
G1 X192.251 Y128.590 E0.10166
G1 X188.830 Y128.959 E0.10142
G1 X185.412 Y129.119 E0.10085
G1 X182.357 Y129.087 E0.09003
G1 X178.987 Y128.860 E0.09955
G1 X177.313 Y128.665 E0.04967
G1 X174.982 Y128.330 E0.06943
G1 X171.611 Y127.652 E0.10131
G1 X168.213 Y126.749 E0.10364
G1 X164.980 Y125.676 E0.10039
G1 X161.774 Y124.390 E0.10183
G1 X158.599 Y122.885 E0.10355
G1 X155.616 Y121.241 E0.10039
G1 X152.691 Y119.390 E0.10201
G1 X149.890 Y117.368 E0.10183
G1 X147.252 Y115.208 E0.10050
G1 X144.526 Y112.674 E0.10969
G1 X142.280 Y110.316 E0.09598
G1 X140.121 Y107.763 E0.09855
G1 X137.658 Y104.414 E0.12251
G1 X136.123 Y102.060 E0.08283
G1 X134.353 Y98.956 E0.10529
G1 X132.873 Y95.948 E0.09881
G1 X131.660 Y93.073 E0.09199
G1 X130.265 Y89.066 E0.12503
G1 X129.430 Y86.068 E0.09172
G1 X128.704 Y82.708 E0.10133
G1 X128.184 Y79.309 E0.10133
G1 X127.934 Y76.625 E0.07947
G1 X127.770 Y72.020 E0.13579
G1 X127.870 Y68.990 E0.08937
G1 X128.193 Y65.485 E0.10373
G1 X128.720 Y62.073 E0.10177
G1 X129.303 Y59.359 E0.08182
G1 X130.467 Y55.143 E0.12889
G1 X131.501 Y52.195 E0.09209
G1 X131.857 Y52.320 F10800.000
G1 F1800
G1 X133.185 Y49.138 E0.10163
G1 X134.736 Y45.989 E0.10344
G1 X136.419 Y43.041 E0.10004
G1 X138.300 Y40.167 E0.10124
G1 X140.353 Y37.413 E0.10124
G1 X142.543 Y34.819 E0.10007
G1 X144.946 Y32.301 E0.10258
G1 X147.462 Y29.970 E0.10107
G1 X150.088 Y27.818 E0.10007
G1 X152.933 Y25.764 E0.10341
G1 X155.807 Y23.946 E0.10024
G1 X158.844 Y22.275 E0.10215
G1 X161.953 Y20.805 E0.10135
G1 X164.473 Y19.790 E0.08006
G1 X168.594 Y18.394 E0.12826
G1 X171.732 Y17.569 E0.09563
G1 X175.090 Y16.897 E0.10094
G1 X178.497 Y16.428 E0.10135
G1 X181.219 Y16.216 E0.08048
G1 X185.345 Y16.119 E0.12162
G1 X188.791 Y16.278 E0.10169
G1 X191.516 Y16.565 E0.08076
G1 X195.809 Y17.268 E0.12821
G1 X198.946 Y18.006 E0.09497
G1 X202.233 Y18.989 E0.10110
G1 X205.458 Y20.172 E0.10127
G1 X207.979 Y21.267 E0.08101
G1 X211.863 Y23.229 E0.12824
G1 X214.584 Y24.843 E0.09324
G1 X217.419 Y26.761 E0.10090
G1 X220.186 Y28.892 E0.10293
G1 X222.739 Y31.117 E0.09981
G1 X225.186 Y33.528 E0.10124
G1 X227.508 Y36.114 E0.10244
G1 X229.618 Y38.773 E0.10005
G1 X231.586 Y41.589 E0.10124
G1 X233.378 Y44.519 E0.10124
G1 X234.971 Y47.518 E0.10007
G1 X236.427 Y50.717 E0.10361
G1 X237.641 Y53.887 E0.10004
G1 X238.673 Y57.164 E0.10124
G1 X239.503 Y60.497 E0.10124
G1 X240.121 Y63.835 E0.10007
G1 X240.549 Y67.325 E0.10361
G1 X240.755 Y70.713 E0.10005
G1 X240.756 Y74.142 E0.10107
G1 X240.541 Y77.624 E0.10283
G1 X240.128 Y80.986 E0.09982
G1 X239.503 Y84.364 E0.10124
G1 X238.673 Y87.697 E0.10124
G1 X237.654 Y90.936 E0.10007
G1 X236.393 Y94.226 E0.10385
G1 X234.990 Y97.308 E0.09981
G1 X233.379 Y100.342 E0.10124
G1 X231.586 Y103.272 E0.10124
G1 X229.642 Y106.056 E0.10007
G1 X227.451 Y108.815 E0.10385
G1 X225.187 Y111.333 E0.09981
G1 X222.744 Y113.740 E0.10107
G1 X220.112 Y116.030 E0.10283
G1 X217.427 Y118.095 E0.09982
G1 X214.582 Y120.020 E0.10124
G1 X211.625 Y121.768 E0.10124
G1 X208.602 Y123.314 E0.10007
G1 X205.387 Y124.719 E0.10341
G1 X202.193 Y125.887 E0.10024
G1 X198.920 Y126.863 E0.10066
G1 X195.572 Y127.644 E0.10133
G1 X192.203 Y128.216 E0.10071
G1 X188.804 Y128.583 E0.10075
G1 X185.404 Y128.742 E0.10034
G1 X182.368 Y128.710 E0.08947
G1 X179.020 Y128.485 E0.09890
G1 X177.362 Y128.291 E0.04921
G1 X175.047 Y127.958 E0.06892
G1 X171.696 Y127.285 E0.10073
G1 X168.324 Y126.388 E0.10283
G1 X165.110 Y125.322 E0.09982
G1 X161.924 Y124.045 E0.10116
G1 X158.775 Y122.551 E0.10275
G1 X155.808 Y120.917 E0.09982
G1 X152.903 Y119.078 E0.10133
G1 X150.120 Y117.069 E0.10116
G1 X147.491 Y114.916 E0.10015
G1 X144.797 Y112.411 E0.10843
G1 X142.561 Y110.064 E0.09553
G1 X140.411 Y107.523 E0.09811
G1 X137.974 Y104.208 E0.12126
G1 X136.446 Y101.865 E0.08245
G1 X134.686 Y98.779 E0.10468
G1 X133.215 Y95.791 E0.09817
G1 X132.009 Y92.931 E0.09149
G1 X130.628 Y88.966 E0.12373
G1 X129.796 Y85.976 E0.09147
G1 X129.075 Y82.637 E0.10070
G1 X128.558 Y79.262 E0.10061
G1 X128.309 Y76.590 E0.07911
G1 X128.147 Y72.031 E0.13445
G1 X128.246 Y69.016 E0.08892
G1 X128.567 Y65.528 E0.10322
G1 X129.091 Y62.138 E0.10111
G1 X129.671 Y59.439 E0.08137
G1 X130.824 Y55.265 E0.12761
G1 X131.837 Y52.376 E0.09023
G1 X132.193 Y52.501 F10800.000
G1 F1800
G1 X133.532 Y49.286 E0.10264
G1 X135.063 Y46.176 E0.10218
G1 X136.741 Y43.237 E0.09972
G1 X138.609 Y40.382 E0.10056
G1 X140.648 Y37.647 E0.10056
G1 X142.831 Y35.062 E0.09972
G1 X145.209 Y32.571 E0.10148
G1 X147.710 Y30.254 E0.10049
G1 X150.327 Y28.110 E0.09972
G1 X153.136 Y26.082 E0.10212
G1 X155.999 Y24.270 E0.09986
G1 X159.019 Y22.609 E0.10158
G1 X162.105 Y21.150 E0.10059
G1 X164.613 Y20.140 E0.07969
G1 X168.691 Y18.758 E0.12692
G1 X171.818 Y17.936 E0.09527
G1 X175.155 Y17.268 E0.10031
G1 X178.538 Y16.803 E0.10066
G1 X181.248 Y16.592 E0.08011
G1 X185.344 Y16.496 E0.12077
G1 X188.763 Y16.654 E0.10087
G1 X191.476 Y16.940 E0.08038
G1 X195.726 Y17.636 E0.12694
G1 X198.849 Y18.370 E0.09455
G1 X202.114 Y19.347 E0.10045
G1 X205.319 Y20.522 E0.10059
G1 X207.828 Y21.613 E0.08066
G1 X211.674 Y23.555 E0.12696
G1 X214.381 Y25.161 E0.09278
G1 X217.202 Y27.069 E0.10039
G1 X219.938 Y29.177 E0.10179
G1 X222.483 Y31.394 E0.09948
G1 X224.914 Y33.789 E0.10056
G1 X227.194 Y36.327 E0.10056
G1 X229.298 Y38.976 E0.09972
G1 X231.271 Y41.796 E0.10141
G1 X233.051 Y44.706 E0.10056
G1 X234.638 Y47.694 E0.09972
G1 X236.089 Y50.890 E0.10343
G1 X237.285 Y54.012 E0.09854
G1 X238.310 Y57.266 E0.10056
G1 X239.134 Y60.577 E0.10056
G1 X239.750 Y63.904 E0.09972
G1 X240.173 Y67.348 E0.10225
G1 X240.379 Y70.725 E0.09972
G1 X240.379 Y74.132 E0.10042
G1 X240.167 Y77.579 E0.10177
G1 X239.755 Y80.929 E0.09950
G1 X239.134 Y84.285 E0.10056
G1 X238.310 Y87.596 E0.10056
G1 X237.294 Y90.823 E0.09972
G1 X236.050 Y94.069 E0.10248
G1 X234.651 Y97.142 E0.09950
G1 X233.051 Y100.156 E0.10056
G1 X231.271 Y103.066 E0.10056
G1 X229.333 Y105.840 E0.09972
G1 X227.170 Y108.563 E0.10248
G1 X224.914 Y111.073 E0.09950
G1 X222.486 Y113.464 E0.10042
G1 X219.882 Y115.732 E0.10178
G1 X217.206 Y117.790 E0.09949
G1 X214.380 Y119.701 E0.10056
G1 X211.442 Y121.437 E0.10056
G1 X208.430 Y122.978 E0.09972
G1 X205.255 Y124.365 E0.10212
G1 X202.073 Y125.529 E0.09986
G1 X198.817 Y126.500 E0.10014
G1 X195.492 Y127.275 E0.10063
G1 X192.155 Y127.842 E0.09977
G1 X188.778 Y128.207 E0.10009
G1 X185.396 Y128.365 E0.09981
G1 X182.378 Y128.333 E0.08893
G1 X179.050 Y128.109 E0.09832
G1 X177.413 Y127.917 E0.04858
G1 X175.115 Y127.587 E0.06843
G1 X171.781 Y126.917 E0.10023
G1 X168.443 Y126.030 E0.10178
G1 X165.239 Y124.967 E0.09949
G1 X162.074 Y123.699 E0.10049
G1 X158.956 Y122.220 E0.10170
G1 X155.999 Y120.592 E0.09949
G1 X153.114 Y118.766 E0.10064
G1 X150.350 Y116.770 E0.10049
G1 X147.730 Y114.625 E0.09979
G1 X145.070 Y112.152 E0.10704
G1 X142.843 Y109.814 E0.09518
G1 X140.700 Y107.280 E0.09779
G1 X138.289 Y104.002 E0.11994
G1 X136.769 Y101.669 E0.08206
G1 X135.019 Y98.602 E0.10407
G1 X133.559 Y95.635 E0.09746
G1 X132.357 Y92.786 E0.09115
G1 X130.990 Y88.860 E0.12251
G1 X130.162 Y85.887 E0.09095
G1 X129.446 Y82.569 E0.10006
G1 X128.932 Y79.215 E0.09999
G1 X128.685 Y76.557 E0.07867
G1 X128.524 Y72.041 E0.13319
G1 X128.622 Y69.038 E0.08854
G1 X128.941 Y65.574 E0.10253
G1 X129.462 Y62.206 E0.10045
G1 X130.040 Y59.519 E0.08101
G1 X131.181 Y55.387 E0.12635
G1 X132.173 Y52.558 E0.08836
G1 X132.528 Y52.682 F10800.000
G1 F1800
G1 X133.879 Y49.432 E0.10373
G1 X135.391 Y46.363 E0.10085
G1 X137.062 Y43.435 E0.09936
G1 X138.918 Y40.599 E0.09989
G1 X140.943 Y37.882 E0.09989
G1 X143.119 Y35.305 E0.09939
G1 X145.473 Y32.841 E0.10043
G1 X147.957 Y30.539 E0.09983
G1 X150.566 Y28.402 E0.09939
G1 X153.340 Y26.399 E0.10082
G1 X156.191 Y24.595 E0.09945
G1 X159.193 Y22.944 E0.10097
G1 X162.257 Y21.495 E0.09991
G1 X164.753 Y20.490 E0.07930
G1 X168.792 Y19.122 E0.12567
G1 X171.902 Y18.304 E0.09478
G1 X175.222 Y17.639 E0.09980
G1 X178.580 Y17.178 E0.09991
G1 X181.277 Y16.968 E0.07972
G1 X185.344 Y16.873 E0.11992
G1 X188.736 Y17.030 E0.10007
G1 X191.435 Y17.315 E0.07999
G1 X195.641 Y18.003 E0.12563
G1 X198.753 Y18.735 E0.09419
G1 X201.997 Y19.705 E0.09980
G1 X205.179 Y20.872 E0.09991
G1 X207.677 Y21.959 E0.08029
G1 X211.484 Y23.881 E0.12569
G1 X214.179 Y25.479 E0.09234
G1 X216.982 Y27.376 E0.09974
G1 X219.691 Y29.461 E0.10075
G1 X222.226 Y31.671 E0.09913
G1 X224.641 Y34.049 E0.09989
G1 X226.906 Y36.570 E0.09989
G1 X229.003 Y39.211 E0.09939
G1 X230.956 Y42.003 E0.10043
G1 X232.723 Y44.893 E0.09983
G1 X234.305 Y47.871 E0.09939
G1 X235.737 Y51.025 E0.10208
G1 X236.929 Y54.135 E0.09819
G1 X237.947 Y57.368 E0.09989
G1 X238.766 Y60.657 E0.09989
G1 X239.380 Y63.973 E0.09939
G1 X239.796 Y67.371 E0.10090
G1 X240.002 Y70.736 E0.09936
G1 X240.002 Y74.123 E0.09983
G1 X239.792 Y77.533 E0.10070
G1 X239.383 Y80.872 E0.09913
G1 X238.766 Y84.204 E0.09989
G1 X237.947 Y87.493 E0.09989
G1 X236.935 Y90.710 E0.09939
G1 X235.706 Y93.913 E0.10113
G1 X234.313 Y96.975 E0.09914
G1 X232.724 Y99.968 E0.09989
G1 X230.955 Y102.859 E0.09989
G1 X229.024 Y105.624 E0.09939
G1 X226.890 Y108.311 E0.10113
G1 X224.641 Y110.812 E0.09914
G1 X222.228 Y113.189 E0.09983
G1 X219.652 Y115.433 E0.10069
G1 X216.986 Y117.484 E0.09913
G1 X214.179 Y119.383 E0.09989
G1 X211.261 Y121.107 E0.09989
G1 X208.259 Y122.643 E0.09939
G1 X205.124 Y124.012 E0.10082
G1 X201.955 Y125.171 E0.09945
G1 X198.716 Y126.137 E0.09961
G1 X195.414 Y126.907 E0.09994
G1 X192.106 Y127.468 E0.09888
G1 X188.752 Y127.830 E0.09943
G1 X185.388 Y127.988 E0.09926
G1 X182.388 Y127.956 E0.08841
G1 X179.082 Y127.733 E0.09766
G1 X177.461 Y127.543 E0.04810
G1 X175.179 Y127.216 E0.06796
G1 X171.864 Y126.550 E0.09967
G1 X168.562 Y125.673 E0.10070
G1 X165.369 Y124.613 E0.09913
G1 X162.225 Y123.353 E0.09983
G1 X159.138 Y121.890 E0.10069
G1 X156.192 Y120.268 E0.09913
G1 X153.326 Y118.454 E0.09994
G1 X150.580 Y116.471 E0.09983
G1 X147.971 Y114.335 E0.09939
G1 X145.342 Y111.891 E0.10580
G1 X143.123 Y109.561 E0.09482
G1 X140.991 Y107.040 E0.09733
G1 X138.603 Y103.793 E0.11877
G1 X137.092 Y101.474 E0.08158
G1 X135.353 Y98.427 E0.10340
G1 X133.901 Y95.477 E0.09689
G1 X132.705 Y92.641 E0.09072
G1 X131.353 Y88.758 E0.12118
G1 X130.529 Y85.798 E0.09058
G1 X129.816 Y82.500 E0.09943
G1 X129.306 Y79.167 E0.09937
G1 X129.061 Y76.526 E0.07818
G1 X128.901 Y72.051 E0.13199
G1 X128.998 Y69.063 E0.08808
G1 X129.316 Y65.620 E0.10193
G1 X129.833 Y62.272 E0.09984
G1 X130.408 Y59.600 E0.08056
G1 X131.538 Y55.508 E0.12511
G1 X132.509 Y52.739 E0.08648
G1 X132.864 Y52.864 F10800.000
G1 F1800
G1 X134.227 Y49.579 E0.10482
G1 X135.722 Y46.543 E0.09975
G1 X137.384 Y43.631 E0.09879
G1 X139.227 Y40.815 E0.09921
G1 X141.239 Y38.116 E0.09921
G1 X143.407 Y35.549 E0.09905
G1 X145.737 Y33.110 E0.09940
G1 X148.205 Y30.823 E0.09918
G1 X150.805 Y28.693 E0.09905
G1 X153.543 Y26.717 E0.09952
G1 X156.383 Y24.919 E0.09905
G1 X159.365 Y23.279 E0.10032
G1 X162.409 Y21.840 E0.09923
G1 X164.893 Y20.840 E0.07894
G1 X168.891 Y19.486 E0.12439
G1 X171.987 Y18.671 E0.09436
G1 X175.287 Y18.011 E0.09920
G1 X178.623 Y17.552 E0.09923
G1 X181.305 Y17.344 E0.07931
G1 X185.344 Y17.250 E0.11906
G1 X188.709 Y17.406 E0.09929
G1 X191.393 Y17.690 E0.07953
G1 X195.558 Y18.371 E0.12440
G1 X198.655 Y19.099 E0.09376
G1 X201.880 Y20.063 E0.09920
G1 X205.040 Y21.223 E0.09923
G1 X207.526 Y22.304 E0.07990
G1 X211.294 Y24.206 E0.12440
G1 X213.977 Y25.798 E0.09192
G1 X216.763 Y27.683 E0.09916
G1 X219.443 Y29.745 E0.09965
G1 X221.970 Y31.947 E0.09879
G1 X224.368 Y34.309 E0.09921
G1 X226.627 Y36.824 E0.09962
G1 X228.711 Y39.449 E0.09879
G1 X230.639 Y42.208 E0.09921
G1 X232.396 Y45.080 E0.09921
G1 X233.972 Y48.048 E0.09905
G1 X235.385 Y51.160 E0.10072
G1 X236.573 Y54.260 E0.09785
G1 X237.584 Y57.470 E0.09921
G1 X238.397 Y60.737 E0.09921
G1 X239.009 Y64.041 E0.09905
G1 X239.421 Y67.418 E0.10025
G1 X239.625 Y70.748 E0.09832
G1 X239.625 Y74.114 E0.09921
G1 X239.418 Y77.487 E0.09962
G1 X239.010 Y80.814 E0.09880
G1 X238.397 Y84.124 E0.09921
G1 X237.584 Y87.391 E0.09921
G1 X236.575 Y90.596 E0.09905
G1 X235.363 Y93.757 E0.09978
G1 X233.975 Y96.808 E0.09880
G1 X232.396 Y99.782 E0.09921
G1 X230.640 Y102.653 E0.09921
G1 X228.715 Y105.408 E0.09905
G1 X226.609 Y108.059 E0.09978
G1 X224.369 Y110.552 E0.09879
G1 X221.971 Y112.913 E0.09918
G1 X219.422 Y115.134 E0.09965
G1 X216.765 Y117.178 E0.09879
G1 X213.977 Y119.064 E0.09921
G1 X211.079 Y120.777 E0.09921
G1 X208.087 Y122.307 E0.09905
G1 X204.992 Y123.659 E0.09952
G1 X201.836 Y124.813 E0.09905
G1 X198.614 Y125.774 E0.09911
G1 X195.334 Y126.538 E0.09924
G1 X192.058 Y127.094 E0.09794
G1 X188.726 Y127.454 E0.09877
G1 X185.381 Y127.611 E0.09870
G1 X182.397 Y127.579 E0.08795
G1 X179.114 Y127.357 E0.09700
G1 X177.512 Y127.170 E0.04754
G1 X175.246 Y126.845 E0.06746
G1 X171.948 Y126.182 E0.09913
