; generated by Slic3r Prusa Edition 1.41.0+win64 on 2018-11-05 at 12:03:56

; 

; external perimeters extrusion width = 0.45mm
; perimeters extrusion width = 0.45mm
; infill extrusion width = 0.45mm
; solid infill extrusion width = 0.45mm
; top infill extrusion width = 0.40mm
; first layer extrusion width = 0.42mm

M201 X1000 Y1000 Z1000 E5000 ; sets maximum accelerations, mm/sec^2
M203 X200 Y200 Z12 E120 ; sets maximum feedrates, mm/sec
M204 P1250 R1250 T1250 ; sets acceleration (P, T) and retract acceleration (R), mm/sec^2
M205 X8.00 Y8.00 Z0.40 E1.50 ; sets the jerk limits, mm/sec
M205 S0 T0 ; sets the minimum extruding and travel feed rate, mm/sec
M107
M115 U3.4.1 ; tell printer latest fw version
M83  ; extruder relative mode
M104 S230 ; set extruder temp
M140 S85 ; set bed temp
M190 S85 ; wait for bed temp
M109 S230 ; wait for extruder temp
G28 W ; home all without mesh bed level
G80 ; mesh bed leveling
G1 Y-3.0 F1000.0 ; go outside print area
G92 E0.0
G1 X60.0 E9.0  F1000.0 ; intro line
M73 Q0 S79
M73 P0 R79
G1 X100.0 E12.5  F1000.0 ; intro line
G92 E0.0
M221 S95
M900 K45; Filament gcode
G21 ; set units to millimeters
G90 ; use absolute coordinates
M83 ; use relative distances for extrusion
;BEFORE_LAYER_CHANGE
G92 E0.0
;0.2


G1 E-0.80000 F2100.00000
G1 Z0.600 F10800.000
;AFTER_LAYER_CHANGE
;0.2
G1 X8.643 Y29.493
G1 Z0.200
G1 E0.80000 F2100.00000
M204 S1000
G1 F1500
G1 X89.775 Y7.081 E2.63911
G1 X90.767 Y6.881 E0.03172
G1 X91.776 Y6.814 E0.03172
G1 X92.772 Y6.881 E0.03130
G1 X93.757 Y7.081 E0.03151
G1 X174.897 Y29.493 E2.63934
G1 X176.227 Y30.139 E0.04637
G1 X177.411 Y31.037 E0.04659
G1 X178.397 Y32.149 E0.04659
G1 X179.143 Y33.425 E0.04637
G1 X179.629 Y34.829 E0.04659
G1 X179.831 Y36.301 E0.04659
G1 X179.742 Y37.778 E0.04637
G1 X179.365 Y39.215 E0.04659
G1 X178.836 Y40.347 E0.03916
G1 X175.319 Y46.277 E0.21620
G1 X169.851 Y53.858 E0.29306
G1 X163.508 Y61.145 E0.30291
G1 X156.699 Y68.429 E0.31264
G1 X149.887 Y74.655 E0.28937
G1 X145.086 Y78.386 E0.19064
G1 X139.866 Y82.045 E0.19987
G1 X134.416 Y85.488 E0.20212
G1 X129.663 Y87.976 E0.16823
G1 X122.006 Y91.156 E0.25995
G1 X117.480 Y92.476 E0.14780
G1 X116.135 Y92.703 E0.04277
G1 X67.988 Y92.726 E1.50961
G1 X67.080 Y92.671 E0.02853
G1 X66.178 Y92.506 E0.02875
G1 X61.353 Y91.090 E0.15767
G1 X54.036 Y88.050 E0.24844
G1 X49.602 Y85.761 E0.15644
G1 X43.546 Y81.957 E0.22426
G1 X38.399 Y78.345 E0.19713
G1 X33.719 Y74.710 E0.18580
G1 X26.686 Y68.272 E0.29896
G1 X20.034 Y61.147 E0.30562
G1 X13.853 Y54.062 E0.29480
G1 X8.230 Y46.290 E0.30077
G1 X4.705 Y40.348 E0.21663
G1 X4.174 Y39.210 E0.03937
G1 X3.799 Y37.779 E0.04637
G1 X3.711 Y36.296 E0.04659
G1 X3.912 Y34.831 E0.04637
G1 X4.397 Y33.427 E0.04659
G1 X5.143 Y32.150 E0.04637
G1 X6.129 Y31.038 E0.04659
G1 X7.313 Y30.140 E0.04659
G1 X8.589 Y29.519 E0.04449
G1 X8.753 Y29.861 F10800.000
G1 F1500
G1 X89.875 Y7.445 E2.63884
G1 X90.816 Y7.255 E0.03009
G1 X91.773 Y7.191 E0.03009
G1 X92.724 Y7.255 E0.02988
G1 X93.658 Y7.445 E0.02988
G1 X174.737 Y29.836 E2.63733
G1 X176.007 Y30.447 E0.04417
G1 X177.132 Y31.293 E0.04417
G1 X178.072 Y32.343 E0.04417
G1 X178.788 Y33.556 E0.04417
G1 X179.254 Y34.885 E0.04417
G1 X179.452 Y36.279 E0.04417
G1 X179.375 Y37.686 E0.04417
G1 X179.022 Y39.056 E0.04437
G1 X178.509 Y40.160 E0.03817
G1 X175.002 Y46.073 E0.21554
G1 X169.554 Y53.627 E0.29203
G1 X163.231 Y60.889 E0.30192
G1 X156.434 Y68.161 E0.31208
G1 X149.642 Y74.368 E0.28850
G1 X144.865 Y78.080 E0.18967
G1 X139.659 Y81.730 E0.19936
G1 X134.216 Y85.168 E0.20187
G1 X129.494 Y87.639 E0.16708
G1 X121.884 Y90.799 E0.25837
G1 X117.386 Y92.111 E0.14689
G1 X116.101 Y92.328 E0.04086
G1 X67.988 Y92.349 E1.50854
G1 X67.116 Y92.295 E0.02740
G1 X66.257 Y92.137 E0.02740
G1 X61.479 Y90.734 E0.15613
G1 X54.186 Y87.704 E0.24762
G1 X49.771 Y85.424 E0.15580
G1 X43.760 Y81.646 E0.22261
G1 X38.619 Y78.039 E0.19690
G1 X33.956 Y74.417 E0.18514
G1 X26.959 Y68.011 E0.29744
G1 X20.312 Y60.892 E0.30539
G1 X14.145 Y53.822 E0.29415
G1 X8.545 Y46.082 E0.29954
G1 X5.034 Y40.164 E0.21576
G1 X4.518 Y39.054 E0.03838
G1 X4.167 Y37.690 E0.04417
G1 X4.088 Y36.283 E0.04417
G1 X4.286 Y34.889 E0.04417
G1 X4.754 Y33.553 E0.04437
G1 X5.471 Y32.341 E0.04417
G1 X6.410 Y31.291 E0.04417
G1 X7.537 Y30.445 E0.04417
G1 X8.699 Y29.887 E0.04043
; PURGING FINISHED
G1 F8640
G1 X11.871 Y29.010 E-0.76000
G1 E-0.04000 F2100.00000
G1 Z0.800 F10800.000
G1 X57.764 Y73.840
G1 Z0.200
G1 E0.80000 F2100.00000
G1 F1500
G1 X58.451 Y73.153 E0.03046
G1 X59.328 Y72.712 E0.03077
G1 X60.270 Y72.562 E0.02992
G1 X61.227 Y72.715 E0.03037
G1 X62.091 Y73.154 E0.03038
G1 X62.777 Y73.840 E0.03041
G1 X63.216 Y74.704 E0.03039
G1 X63.367 Y75.660 E0.03036
G1 X63.216 Y76.616 E0.03036
G1 X62.777 Y77.480 E0.03039
G1 X62.091 Y78.166 E0.03041
G1 X61.227 Y78.605 E0.03039
G1 X60.270 Y78.756 E0.03036
G1 X59.314 Y78.605 E0.03036
G1 X58.450 Y78.166 E0.03039
G1 X57.764 Y77.480 E0.03041
G1 X57.325 Y76.617 E0.03038
G1 X57.173 Y75.660 E0.03037
G1 X57.325 Y74.703 E0.03037
G1 X57.737 Y73.893 E0.02850
G1 X58.073 Y74.064 F10800.000
G1 F1500
G1 X58.675 Y73.463 E0.02668
G1 X59.445 Y73.076 E0.02703
G1 X60.270 Y72.944 E0.02620
G1 X61.109 Y73.078 E0.02663
G1 X61.866 Y73.463 E0.02664
G1 X62.468 Y74.064 E0.02666
G1 X62.853 Y74.821 E0.02664
G1 X62.985 Y75.660 E0.02662
G1 X62.853 Y76.499 E0.02662
G1 X62.468 Y77.256 E0.02664
G1 X61.866 Y77.857 E0.02666
G1 X61.109 Y78.242 E0.02664
G1 X60.270 Y78.375 E0.02662
G1 X59.432 Y78.242 E0.02662
G1 X58.675 Y77.857 E0.02664
G1 X58.073 Y77.256 E0.02666
G1 X57.688 Y76.499 E0.02664
G1 X57.555 Y75.660 E0.02663
G1 X57.688 Y74.821 E0.02663
G1 X58.046 Y74.118 E0.02475
G1 X57.911 Y73.699 F10800.000
G1 F8640
G1 X58.675 Y73.463 E-0.20968
G1 X59.445 Y73.076 E-0.19903
G1 X60.270 Y72.944 E-0.19296
G1 X60.948 Y73.052 E-0.15834
G1 E-0.04000 F2100.00000
G1 Z0.800 F10800.000
G1 X67.297 Y68.244
G1 Z0.200
G1 E0.80000 F2100.00000
G1 F1500
G1 X59.088 Y55.316 E0.48017
G1 X63.507 Y49.876 E0.21974
G1 X64.368 Y50.203 E0.02887
G1 X64.253 Y52.799 E0.08149
G1 X64.223 Y54.218 E0.04450
G1 X64.223 Y55.832 E0.05060
G1 X64.335 Y57.056 E0.03853
G1 X64.683 Y58.949 E0.06034
G1 X65.312 Y60.699 E0.05830
G1 X66.161 Y62.215 E0.05448
G1 X67.230 Y63.771 E0.05921
G1 X68.577 Y65.387 E0.06597
G1 X69.599 Y66.734 E0.05300
G1 X71.072 Y68.871 E0.08137
G1 X67.375 Y68.368 E0.11697
G1 X67.329 Y68.295 E0.00270
G1 X67.600 Y68.018 F10800.000
G1 F1500
G1 X59.552 Y55.343 E0.47075
G1 X63.628 Y50.325 E0.20269
G1 X63.979 Y50.458 E0.01178
G1 X63.876 Y52.787 E0.07308
G1 X63.845 Y54.214 E0.04477
G1 X63.845 Y55.849 E0.05127
G1 X63.961 Y57.107 E0.03961
G1 X64.318 Y59.047 E0.06184
G1 X64.967 Y60.856 E0.06025
G1 X65.840 Y62.414 E0.05600
G1 X66.929 Y63.999 E0.06030
G1 X68.282 Y65.622 E0.06625
G1 X69.294 Y66.955 E0.05246
G1 X70.277 Y68.382 E0.05434
G1 X67.659 Y68.026 E0.08284
G1 X67.261 Y68.232 F10800.000
G1 F8640
G1 X65.886 Y65.253 E-0.76000
G1 E-0.04000 F2100.00000
G1 Z0.800 F10800.000
G1 X84.446 Y26.644
G1 Z0.200
G1 E0.80000 F2100.00000
G1 F1500
G1 X85.579 Y24.490 E0.07631
G1 X92.105 Y17.863 E0.29163
G1 X100.405 Y25.465 E0.35290
G1 X95.816 Y25.353 E0.14394
G1 X93.335 Y25.390 E0.07780
G1 X91.336 Y25.497 E0.06276
G1 X89.894 Y25.687 E0.04558
G1 X87.431 Y26.081 E0.07821
G1 X84.505 Y26.633 E0.09335
G1 X85.143 Y26.129 F10800.000
G1 F1500
G1 X85.887 Y24.715 E0.05010
G1 X92.119 Y18.386 E0.27848
G1 X99.408 Y25.064 E0.30995
G1 X95.817 Y24.976 E0.11263
G1 X93.322 Y25.013 E0.07826
G1 X91.301 Y25.121 E0.06345
G1 X89.840 Y25.314 E0.04621
G1 X87.367 Y25.710 E0.07854
G1 X85.202 Y26.118 E0.06905
G1 X84.757 Y26.024 F10800.000
G1 F8640
G1 X85.887 Y24.715 E-0.36047
G1 X87.101 Y23.482 E-0.39953
G1 E-0.04000 F2100.00000
G1 Z0.800 F10800.000
G1 X71.900 Y41.454
G1 Z0.200
G1 E0.80000 F2100.00000
G1 F1500
G1 X76.097 Y35.329 E0.23280
G1 X77.776 Y33.610 E0.07535
G1 X79.579 Y32.327 E0.06938
G1 X82.117 Y30.980 E0.09007
G1 X85.079 Y29.881 E0.09906
G1 X87.514 Y29.121 E0.08000
G1 X89.414 Y28.636 E0.06146
G1 X92.340 Y28.223 E0.09265
G1 X94.493 Y28.159 E0.06754
G1 X97.147 Y28.159 E0.08322
G1 X99.661 Y28.231 E0.07886
G1 X102.175 Y28.869 E0.08133
G1 X103.913 Y29.739 E0.06094
G1 X105.056 Y31.082 E0.05530
G1 X105.581 Y32.635 E0.05141
G1 X105.369 Y34.027 E0.04414
G1 X104.691 Y34.933 E0.03548
G1 X102.665 Y36.658 E0.08343
G1 X99.978 Y38.036 E0.09468
G1 X97.827 Y38.889 E0.07255
G1 X95.913 Y39.440 E0.06244
G1 X92.785 Y40.145 E0.10055
G1 X90.147 Y40.582 E0.08385
G1 X86.331 Y41.081 E0.12065
G1 X83.188 Y41.387 E0.09900
G1 X78.415 Y41.573 E0.14979
G1 X71.960 Y41.455 E0.20240
G1 X72.607 Y41.090 F10800.000
G1 F1500
G1 X76.390 Y35.569 E0.20983
G1 X78.022 Y33.898 E0.07327
G1 X79.778 Y32.649 E0.06755
G1 X82.271 Y31.325 E0.08852
G1 X85.201 Y30.238 E0.09796
G1 X87.617 Y29.484 E0.07937
G1 X89.487 Y29.007 E0.06050
G1 X92.372 Y28.599 E0.09135
G1 X94.498 Y28.536 E0.06671
G1 X97.142 Y28.536 E0.08287
G1 X99.609 Y28.607 E0.07739
G1 X102.043 Y29.224 E0.07875
G1 X103.676 Y30.041 E0.05725
G1 X104.722 Y31.272 E0.05063
G1 X105.195 Y32.669 E0.04626
G1 X105.010 Y33.877 E0.03830
G1 X104.415 Y34.674 E0.03119
G1 X102.454 Y36.343 E0.08073
G1 X99.822 Y37.692 E0.09274
G1 X97.705 Y38.532 E0.07140
G1 X95.820 Y39.074 E0.06152
G1 X92.713 Y39.775 E0.09986
G1 X90.091 Y40.209 E0.08331
G1 X86.288 Y40.707 E0.12026
G1 X83.163 Y41.011 E0.09846
G1 X78.411 Y41.196 E0.14911
G1 X72.667 Y41.091 E0.18012
G1 X72.238 Y40.935 F10800.000
G1 F8640
G1 X74.507 Y38.362 E-0.76000
G1 E-0.04000 F2100.00000
G1 Z0.800 F10800.000
G1 X117.521 Y44.121
G1 Z0.200
G1 E0.80000 F2100.00000
G1 F1500
G1 X121.160 Y49.278 E0.19788
G1 X120.037 Y51.720 E0.08427
G1 X118.387 Y54.206 E0.09357
G1 X117.175 Y55.522 E0.05608
G1 X115.648 Y57.120 E0.06931
G1 X113.773 Y59.012 E0.08353
G1 X111.487 Y61.011 E0.09520
G1 X108.814 Y63.027 E0.10497
G1 X106.845 Y64.278 E0.07315
G1 X104.829 Y65.340 E0.07143
G1 X102.001 Y66.619 E0.09733
G1 X99.638 Y67.521 E0.07932
G1 X97.321 Y68.236 E0.07602
G1 X95.442 Y68.683 E0.06057
G1 X92.919 Y69.067 E0.08001
G1 X87.917 Y69.414 E0.15722
G1 X84.086 Y69.294 E0.12017
G1 X82.325 Y68.983 E0.05606
G1 X80.032 Y68.225 E0.07573
G1 X77.733 Y67.089 E0.08040
G1 X76.471 Y65.876 E0.05487
G1 X75.717 Y64.537 E0.04821
G1 X75.458 Y62.886 E0.05238
G1 X75.651 Y61.912 E0.03112
G1 X76.321 Y60.989 E0.03578
G1 X78.202 Y60.016 E0.06639
G1 X79.708 Y59.623 E0.04881
G1 X89.642 Y59.285 E0.31164
G1 X93.382 Y58.831 E0.11814
G1 X95.567 Y58.379 E0.06996
G1 X98.295 Y57.539 E0.08950
G1 X101.269 Y56.308 E0.10089
G1 X103.533 Y55.229 E0.07865
G1 X106.670 Y53.524 E0.11194
G1 X109.955 Y51.281 E0.12473
G1 X112.016 Y49.545 E0.08448
G1 X115.122 Y46.625 E0.13367
G1 X117.480 Y44.165 E0.10685
G1 X117.477 Y44.713 F10800.000
G1 F1500
G1 X120.727 Y49.318 E0.17672
G1 X119.706 Y51.536 E0.07654
G1 X118.089 Y53.973 E0.09172
G1 X116.900 Y55.264 E0.05503
G1 X115.378 Y56.857 E0.06909
M73 Q1 S78
G1 X113.514 Y58.737 E0.08299
G1 X111.249 Y60.718 E0.09435
G1 X108.599 Y62.717 E0.10407
G1 X106.656 Y63.952 E0.07220
G1 X104.664 Y65.001 E0.07059
G1 X101.856 Y66.271 E0.09662
M73 P1 R78
G1 X99.515 Y67.165 E0.07858
G1 X97.222 Y67.872 E0.07524
G1 X95.370 Y68.312 E0.05969
G1 X92.878 Y68.692 E0.07904
G1 X87.909 Y69.036 E0.15615
G1 X84.125 Y68.918 E0.11872
G1 X82.418 Y68.616 E0.05435
G1 X80.176 Y67.875 E0.07405
G1 X77.952 Y66.777 E0.07775
G1 X76.773 Y65.643 E0.05131
G1 X76.079 Y64.411 E0.04433
G1 X75.841 Y62.894 E0.04815
G1 X76.004 Y62.067 E0.02642
G1 X76.574 Y61.283 E0.03037
G1 X78.338 Y60.371 E0.06227
G1 X79.763 Y59.999 E0.04618
G1 X89.671 Y59.661 E0.31084
G1 X93.443 Y59.204 E0.11914
G1 X95.661 Y58.744 E0.07101
G1 X98.423 Y57.894 E0.09061
G1 X101.422 Y56.653 E0.10176
G1 X103.704 Y55.565 E0.07927
G1 X106.867 Y53.847 E0.11286
G1 X110.183 Y51.582 E0.12592
G1 X112.267 Y49.827 E0.08540
G1 X115.388 Y46.893 E0.13430
G1 X117.436 Y44.756 E0.09281
G1 X117.791 Y44.465 F10800.000
G1 F8640
G1 X119.361 Y47.425 E-0.76000
G1 E-0.04000 F2100.00000
G1 Z0.800 F10800.000
G1 X122.698 Y51.418
G1 Z0.200
G1 E0.80000 F2100.00000
G1 F1500
G1 X125.435 Y55.379 E0.15097
G1 X116.831 Y66.383 E0.43797
G1 X115.891 Y65.893 E0.03324
G1 X116.569 Y63.685 E0.07242
G1 X117.667 Y60.737 E0.09865
G1 X118.634 Y58.549 E0.07500
G1 X119.339 Y57.104 E0.05040
G1 X120.432 Y55.112 E0.07123
G1 X122.667 Y51.469 E0.13402
G1 X122.717 Y52.108 F10800.000
G1 F1500
G1 X124.967 Y55.366 E0.12413
G1 X116.727 Y65.904 E0.41944
G1 X116.344 Y65.704 E0.01356
G1 X116.927 Y63.806 E0.06224
G1 X118.017 Y60.879 E0.09795
G1 X118.976 Y58.707 E0.07443
G1 X119.674 Y57.277 E0.04989
G1 X120.758 Y55.301 E0.07066
G1 X122.686 Y52.160 E0.11558
G1 X123.010 Y51.836 F10800.000
G1 F8640
G1 X124.594 Y54.841 E-0.76000
G1 E-0.04000 F2100.00000
G1 Z0.800 F10800.000
G1 X111.308 Y63.532
G1 Z0.200
G1 E0.80000 F2100.00000
G1 F1500
G1 X114.103 Y68.392 E0.17580
G1 X104.909 Y68.558 E0.28832
G1 X104.668 Y67.567 E0.03199
G1 X106.665 Y66.581 E0.06982
G1 X107.901 Y65.844 E0.04512
G1 X109.713 Y64.663 E0.06782
G1 X111.259 Y63.566 E0.05942
G1 X111.187 Y64.079 F10800.000
G1 F1500
G1 X113.458 Y68.027 E0.14278
G1 X105.204 Y68.176 E0.25883
G1 X105.106 Y67.771 E0.01305
G1 X106.845 Y66.912 E0.06082
G1 X108.100 Y66.164 E0.04583
G1 X109.925 Y64.974 E0.06829
G1 X111.138 Y64.114 E0.04665
G1 X111.529 Y63.871 F10800.000
G1 F8640
G1 X112.817 Y66.945 E-0.76000
G1 E-0.04000 F2100.00000
G1 Z0.800 F10800.000
G1 X120.764 Y73.840
G1 Z0.200
G1 E0.80000 F2100.00000
G1 F1500
G1 X121.450 Y73.154 E0.03041
G1 X122.314 Y72.715 E0.03038
G1 X123.256 Y72.565 E0.02992
G1 X124.226 Y72.714 E0.03076
G1 X125.091 Y73.154 E0.03043
G1 X125.777 Y73.840 E0.03041
G1 X126.216 Y74.703 E0.03038
G1 X126.368 Y75.660 E0.03037
G1 X126.216 Y76.617 E0.03037
G1 X125.777 Y77.480 E0.03038
G1 X125.091 Y78.166 E0.03041
G1 X124.227 Y78.605 E0.03039
G1 X123.270 Y78.756 E0.03036
G1 X122.314 Y78.605 E0.03036
G1 X121.450 Y78.166 E0.03039
G1 X120.764 Y77.480 E0.03041
G1 X120.325 Y76.616 E0.03039
G1 X120.174 Y75.660 E0.03036
G1 X120.325 Y74.704 E0.03036
G1 X120.737 Y73.893 E0.02851
G1 X121.073 Y74.064 F10800.000
G1 F1500
G1 X121.675 Y73.463 E0.02666
G1 X122.432 Y73.078 E0.02664
G1 X123.257 Y72.946 E0.02620
G1 X124.109 Y73.078 E0.02702
G1 X124.866 Y73.463 E0.02665
G1 X125.468 Y74.064 E0.02666
G1 X125.853 Y74.821 E0.02664
G1 X125.986 Y75.660 E0.02663
G1 X125.853 Y76.499 E0.02663
G1 X125.468 Y77.256 E0.02664
G1 X124.866 Y77.857 E0.02666
G1 X124.109 Y78.242 E0.02664
G1 X123.270 Y78.375 E0.02662
G1 X122.432 Y78.242 E0.02662
G1 X121.675 Y77.857 E0.02664
G1 X121.073 Y77.256 E0.02666
G1 X120.688 Y76.499 E0.02664
G1 X120.556 Y75.660 E0.02662
G1 X120.688 Y74.821 E0.02662
G1 X121.046 Y74.118 E0.02476
G1 X120.911 Y73.699 F10800.000
G1 F8640
G1 X121.675 Y73.463 E-0.20955
G1 X122.432 Y73.078 E-0.19616
G1 X123.257 Y72.946 E-0.19295
G1 X123.948 Y73.053 E-0.16133
G1 E-0.04000 F2100.00000
G1 Z0.800 F10800.000
G1 X97.530 Y72.088
G1 Z0.200
G1 E0.80000 F2100.00000
G1 F1500
G1 X96.358 Y73.014 E0.04682
G1 X95.118 Y76.682 E0.12140
G1 X94.869 Y72.527 E0.13051
G1 X92.070 Y72.582 E0.08776
G1 X88.672 Y72.529 E0.10656
G1 X88.423 Y76.682 E0.13043
G1 X87.183 Y73.014 E0.12140
G1 X86.011 Y72.088 E0.04682
G1 X73.701 Y71.569 E0.38633
G1 X71.920 Y71.796 E0.05628
G1 X69.916 Y72.406 E0.06568
G1 X68.769 Y73.020 E0.04079
G1 X67.198 Y74.301 E0.06356
G1 X66.031 Y75.783 E0.05916
G1 X65.417 Y77.045 E0.04399
G1 X65.085 Y78.056 E0.03336
G1 X64.865 Y79.257 E0.03828
G1 X64.921 Y80.501 E0.03904
G1 X65.495 Y82.550 E0.06673
G1 X66.293 Y84.058 E0.05349
G1 X64.226 Y83.459 E0.06747
G1 X57.405 Y80.625 E0.23161
G1 X53.416 Y78.555 E0.14091
G1 X48.193 Y75.258 E0.19366
G1 X43.235 Y71.781 E0.18986
G1 X38.958 Y68.463 E0.16974
G1 X32.553 Y62.610 E0.27204
G1 X26.083 Y55.681 E0.29724
G1 X20.129 Y48.856 E0.28397
G1 X15.059 Y41.836 E0.27151
G1 X13.189 Y38.677 E0.11511
G1 X17.629 Y41.842 E0.17097
G1 X21.386 Y44.020 E0.13616
G1 X23.826 Y45.139 E0.08417
G1 X28.748 Y47.338 E0.16901
G1 X30.715 Y47.925 E0.06438
G1 X33.023 Y48.305 E0.07334
G1 X35.259 Y48.624 E0.07080
G1 X37.541 Y48.899 E0.07206
G1 X40.337 Y49.067 E0.08783
G1 X42.481 Y49.067 E0.06722
G1 X45.011 Y48.936 E0.07943
G1 X45.854 Y48.850 E0.02659
G1 X47.330 Y48.555 E0.04718
G1 X49.310 Y47.962 E0.06482
G1 X51.680 Y46.909 E0.08133
G1 X52.451 Y46.444 E0.02822
G1 X53.559 Y45.536 E0.04491
