; generated by Slic3r Prusa Edition 1.41.0+win64 on 2018-10-18 at 17:53:41

; 

; external perimeters extrusion width = 0.45mm
; perimeters extrusion width = 0.45mm
; infill extrusion width = 0.45mm
; solid infill extrusion width = 0.45mm
; top infill extrusion width = 0.40mm
; first layer extrusion width = 0.42mm

M201 X1000 Y1000 Z1000 E5000 ; sets maximum accelerations, mm/sec^2
M203 X200 Y200 Z12 E120 ; sets maximum feedrates, mm/sec
M204 P1250 R1250 T1250 ; sets acceleration (P, T) and retract acceleration (R), mm/sec^2
M205 X8.00 Y8.00 Z0.40 E1.50 ; sets the jerk limits, mm/sec
M205 S0 T0 ; sets the minimum extruding and travel feed rate, mm/sec
M107
M115 U3.4.0 ; tell printer latest fw version
M83  ; extruder relative mode
M104 S215 ; set extruder temp
M140 S60 ; set bed temp
M190 S60 ; wait for bed temp
M109 S215 ; wait for extruder temp
G28 W ; home all without mesh bed level
G80 ; mesh bed leveling
G1 Y-3.0 F1000.0 ; go outside print area
G92 E0.0
G1 X60.0 E9.0  F1000.0 ; intro line
M73 Q0 S60
M73 P0 R59
G1 X100.0 E12.5  F1000.0 ; intro line
G92 E0.0
M221 S95
M900 K30; Filament gcode
G21 ; set units to millimeters
G90 ; use absolute coordinates
M83 ; use relative distances for extrusion
;BEFORE_LAYER_CHANGE
G92 E0.0
;0.2


G1 E-0.80000 F2100.00000
G1 Z0.600 F10800.000
;AFTER_LAYER_CHANGE
;0.2
G1 X110.993 Y58.417
G1 Z0.200
G1 E0.80000 F2100.00000
M204 S1000
G1 F1800
G1 X113.775 Y57.045 E0.09726
G1 X116.766 Y56.507 E0.09527
G1 X121.454 Y56.497 E0.14701
G1 X144.972 Y57.059 E0.73759
G1 X146.579 Y57.157 E0.05048
G1 X149.368 Y57.867 E0.09023
G1 X152.028 Y59.412 E0.09646
G1 X154.132 Y61.593 E0.09503
G1 X155.625 Y64.444 E0.10090
G1 X156.216 Y67.269 E0.09048
G1 X156.248 Y70.087 E0.08838
G1 X156.248 Y142.677 E2.27601
G1 X156.167 Y144.354 E0.05264
G1 X155.320 Y147.465 E0.10109
G1 X153.708 Y150.074 E0.09617
G1 X151.445 Y152.138 E0.09603
G1 X148.601 Y153.532 E0.09930
G1 X145.659 Y154.054 E0.09368
G1 X140.971 Y154.064 E0.14701
G1 X115.961 Y153.427 E0.78443
G1 X113.068 Y152.697 E0.09355
G1 X110.410 Y151.156 E0.09635
G1 X108.296 Y148.968 E0.09537
G1 X106.804 Y146.117 E0.10089
G1 X95.323 Y100.864 E1.46381
G1 X95.096 Y99.017 E0.05835
G1 X95.096 Y85.895 E0.41145
G1 X95.315 Y84.125 E0.05590
G1 X96.131 Y82.050 E0.06990
G1 X107.230 Y62.856 E0.69521
G1 X108.820 Y60.375 E0.09239
G1 X110.948 Y58.457 E0.08983
; PURGING FINISHED
G1 F8640
G1 X113.775 Y57.045 E-0.72959
G1 X113.905 Y57.021 E-0.03041
G1 E-0.04000 F2100.00000
G1 Z0.800 F10800.000
G1 X141.841 Y141.417
G1 Z0.200
G1 E0.80000 F2100.00000
G1 F1800
G1 X142.493 Y141.255 E0.02105
G1 X143.180 Y141.221 E0.02157
G1 X143.852 Y141.320 E0.02130
G1 X144.478 Y141.542 E0.02083
G1 X145.043 Y141.872 E0.02050
G1 X145.532 Y142.298 E0.02035
G1 X145.935 Y142.807 E0.02037
G1 X146.240 Y143.388 E0.02057
G1 X146.432 Y144.028 E0.02093
G1 X146.498 Y144.709 E0.02145
G1 X146.432 Y145.389 E0.02145
G1 X146.240 Y146.029 E0.02093
G1 X145.935 Y146.610 E0.02057
G1 X145.532 Y147.119 E0.02037
G1 X145.043 Y147.545 E0.02035
G1 X144.478 Y147.876 E0.02050
G1 X143.852 Y148.097 E0.02083
G1 X143.180 Y148.196 E0.02130
G1 X142.493 Y148.163 E0.02157
G1 X141.841 Y148.001 E0.02105
G1 X141.244 Y147.723 E0.02064
G1 X140.716 Y147.343 E0.02040
G1 X140.268 Y146.874 E0.02034
G1 X139.913 Y146.328 E0.02044
G1 X139.663 Y145.716 E0.02073
G1 X139.532 Y145.053 E0.02117
G1 X139.532 Y144.364 E0.02161
G1 X139.663 Y143.702 E0.02117
G1 X139.913 Y143.090 E0.02073
G1 X140.268 Y142.543 E0.02044
G1 X140.716 Y142.074 E0.02034
G1 X141.244 Y141.694 E0.02040
G1 X141.787 Y141.442 E0.01876
G1 X141.946 Y141.784 F10800.000
G1 F1800
G1 X142.548 Y141.629 E0.01949
G1 X143.161 Y141.600 E0.01926
G1 X143.761 Y141.688 E0.01900
G1 X144.319 Y141.885 E0.01856
G1 X144.822 Y142.180 E0.01827
G1 X145.258 Y142.559 E0.01814
G1 X145.618 Y143.014 E0.01816
G1 X145.889 Y143.531 E0.01833
G1 X146.060 Y144.101 E0.01865
G1 X146.120 Y144.709 E0.01914
G1 X146.060 Y145.316 E0.01914
G1 X145.889 Y145.886 E0.01865
G1 X145.618 Y146.404 E0.01833
G1 X145.258 Y146.858 E0.01816
G1 X144.822 Y147.238 E0.01815
G1 X144.319 Y147.532 E0.01827
G1 X143.761 Y147.729 E0.01856
G1 X143.161 Y147.818 E0.01900
G1 X142.548 Y147.788 E0.01926
G1 X141.967 Y147.644 E0.01876
G1 X141.436 Y147.396 E0.01839
G1 X140.964 Y147.058 E0.01819
G1 X140.565 Y146.639 E0.01813
G1 X140.248 Y146.152 E0.01822
G1 X140.025 Y145.607 E0.01847
G1 X139.909 Y145.016 E0.01887
G1 X139.909 Y144.401 E0.01929
G1 X140.025 Y143.810 E0.01887
G1 X140.248 Y143.265 E0.01847
G1 X140.565 Y142.778 E0.01822
G1 X140.964 Y142.360 E0.01813
G1 X141.436 Y142.021 E0.01819
G1 X141.891 Y141.809 E0.01576
G1 X142.017 Y141.390 F10800.000
G1 F8640
G1 X142.548 Y141.629 E-0.15715
G1 X143.161 Y141.600 E-0.14182
G1 X143.761 Y141.688 E-0.13990
G1 X144.319 Y141.885 E-0.13666
G1 X144.822 Y142.180 E-0.13456
G1 X144.985 Y142.322 E-0.04991
G1 E-0.04000 F2100.00000
G1 Z0.800 F10800.000
G1 X143.180 Y69.925
G1 Z0.200
G1 E0.80000 F2100.00000
G1 F1800
G1 X142.493 Y69.892 E0.02157
G1 X141.841 Y69.730 E0.02105
G1 X141.244 Y69.452 E0.02064
G1 X140.716 Y69.072 E0.02040
G1 X140.268 Y68.603 E0.02034
G1 X139.913 Y68.056 E0.02045
G1 X139.663 Y67.444 E0.02073
G1 X139.532 Y66.782 E0.02117
G1 X139.532 Y66.093 E0.02161
G1 X139.663 Y65.430 E0.02117
G1 X139.913 Y64.818 E0.02073
G1 X140.268 Y64.272 E0.02045
G1 X140.716 Y63.803 E0.02034
G1 X141.244 Y63.423 E0.02040
G1 X141.841 Y63.145 E0.02064
G1 X142.493 Y62.983 E0.02105
G1 X143.180 Y62.950 E0.02157
G1 X143.852 Y63.049 E0.02130
G1 X144.478 Y63.271 E0.02083
G1 X145.043 Y63.601 E0.02050
G1 X145.532 Y64.027 E0.02035
G1 X145.935 Y64.536 E0.02037
G1 X146.240 Y65.117 E0.02056
G1 X146.432 Y65.757 E0.02093
G1 X146.498 Y66.437 E0.02145
G1 X146.432 Y67.118 E0.02145
G1 X146.240 Y67.758 E0.02093
G1 X145.935 Y68.339 E0.02056
G1 X145.532 Y68.848 E0.02037
G1 X145.043 Y69.274 E0.02035
G1 X144.478 Y69.604 E0.02050
G1 X143.852 Y69.826 E0.02083
G1 X143.239 Y69.916 E0.01942
G1 X143.184 Y69.543 F10800.000
G1 F1800
G1 X142.548 Y69.517 E0.01997
G1 X141.967 Y69.372 E0.01876
G1 X141.436 Y69.125 E0.01839
G1 X140.964 Y68.787 E0.01819
G1 X140.565 Y68.368 E0.01813
G1 X140.248 Y67.881 E0.01823
G1 X140.025 Y67.336 E0.01847
G1 X139.909 Y66.745 E0.01887
G1 X139.909 Y66.130 E0.01929
G1 X140.025 Y65.539 E0.01887
G1 X140.248 Y64.994 E0.01847
G1 X140.565 Y64.507 E0.01823
G1 X140.964 Y64.088 E0.01813
G1 X141.436 Y63.750 E0.01819
G1 X141.967 Y63.503 E0.01839
G1 X142.548 Y63.358 E0.01876
G1 X143.161 Y63.328 E0.01926
G1 X143.761 Y63.417 E0.01900
G1 X144.319 Y63.614 E0.01856
G1 X144.822 Y63.908 E0.01827
G1 X145.258 Y64.288 E0.01814
G1 X145.618 Y64.742 E0.01816
G1 X145.889 Y65.260 E0.01833
G1 X146.060 Y65.830 E0.01865
G1 X146.120 Y66.437 E0.01914
G1 X146.060 Y67.045 E0.01914
G1 X145.889 Y67.615 E0.01865
G1 X145.618 Y68.132 E0.01833
G1 X145.258 Y68.587 E0.01816
G1 X144.822 Y68.966 E0.01814
G1 X144.319 Y69.261 E0.01827
G1 X143.761 Y69.458 E0.01856
G1 X143.244 Y69.534 E0.01639
G1 X143.003 Y69.900 F10800.000
G1 F8640
G1 X142.548 Y69.517 E-0.16069
G1 X141.967 Y69.372 E-0.13812
G1 X141.436 Y69.125 E-0.13544
G1 X140.964 Y68.787 E-0.13395
G1 X140.565 Y68.368 E-0.13355
G1 X140.428 Y68.157 E-0.05824
G1 E-0.04000 F2100.00000
G1 Z0.800 F10800.000
G1 X138.069 Y60.260
G1 Z0.200
G1 E0.80000 F2100.00000
G1 F1800
G1 X140.439 Y59.838 E0.07546
G1 X144.964 Y59.836 E0.14189
G1 X146.003 Y59.873 E0.03259
G1 X148.309 Y60.439 E0.07447
G1 X150.291 Y61.584 E0.07177
G1 X151.875 Y63.217 E0.07132
G1 X152.960 Y65.237 E0.07189
G1 X153.454 Y67.572 E0.07484
G1 X153.472 Y70.105 E0.07941
G1 X153.467 Y106.016 E1.12598
G1 X153.338 Y106.867 E0.02699
G1 X153.047 Y107.644 E0.02601
G1 X152.606 Y108.343 E0.02588
G1 X152.031 Y108.939 E0.02597
G1 X151.310 Y109.428 E0.02732
G1 X150.026 Y110.112 E0.04561
G1 X148.642 Y111.249 E0.05618
G1 X147.500 Y112.687 E0.05757
G1 X146.648 Y114.371 E0.05916
G1 X146.125 Y116.251 E0.06118
G1 X145.972 Y118.276 E0.06368
G1 X146.211 Y120.274 E0.06310
G1 X146.810 Y122.115 E0.06069
G1 X147.730 Y123.748 E0.05877
G1 X148.930 Y125.125 E0.05728
G1 X150.356 Y126.183 E0.05565
G1 X151.489 Y126.767 E0.04000
G1 X152.170 Y127.277 E0.02665
G1 X152.716 Y127.897 E0.02593
G1 X153.125 Y128.615 E0.02589
G1 X153.381 Y129.406 E0.02608
G1 X153.472 Y130.281 E0.02758
G1 X153.472 Y142.659 E0.38810
G1 X153.402 Y144.090 E0.04491
G1 X152.767 Y146.362 E0.07397
G1 X151.562 Y148.304 E0.07166
G1 X149.882 Y149.837 E0.07133
G1 X147.825 Y150.861 E0.07203
G1 X145.455 Y151.283 E0.07547
G1 X140.989 Y151.288 E0.14005
G1 X139.892 Y151.248 E0.03442
G1 X137.585 Y150.683 E0.07446
G1 X135.603 Y149.537 E0.07177
G1 X134.020 Y147.904 E0.07132
G1 X132.934 Y145.885 E0.07189
G1 X132.440 Y143.549 E0.07484
G1 X132.422 Y141.017 E0.07940
G1 X132.427 Y105.114 E1.12570
G1 X132.557 Y104.263 E0.02699
G1 X132.848 Y103.486 E0.02601
G1 X133.288 Y102.788 E0.02588
G1 X133.863 Y102.192 E0.02597
G1 X134.584 Y101.703 E0.02732
G1 X135.868 Y101.019 E0.04561
G1 X137.253 Y99.882 E0.05618
G1 X138.394 Y98.443 E0.05757
G1 X139.246 Y96.760 E0.05917
G1 X139.769 Y94.880 E0.06118
G1 X139.922 Y92.855 E0.06368
G1 X139.683 Y90.857 E0.06310
G1 X139.084 Y89.016 E0.06069
G1 X138.164 Y87.383 E0.05877
G1 X136.964 Y86.006 E0.05728
G1 X135.539 Y84.948 E0.05564
G1 X134.405 Y84.363 E0.04000
G1 X133.724 Y83.854 E0.02665
G1 X133.178 Y83.233 E0.02593
G1 X132.769 Y82.516 E0.02589
G1 X132.514 Y81.724 E0.02608
G1 X132.422 Y80.850 E0.02758
G1 X132.422 Y68.463 E0.38838
G1 X132.492 Y67.032 E0.04492
G1 X133.127 Y64.760 E0.07397
G1 X134.332 Y62.817 E0.07166
G1 X136.013 Y61.284 E0.07133
G1 X138.016 Y60.287 E0.07015
G1 X137.848 Y59.950 F10800.000
G1 F1800
G1 X137.950 Y59.899 E0.00358
G1 X140.405 Y59.461 E0.07820
G1 X144.971 Y59.459 E0.14314
G1 X146.055 Y59.498 E0.03402
G1 X148.451 Y60.085 E0.07737
G1 X150.525 Y61.284 E0.07510
G1 X152.182 Y62.992 E0.07461
G1 X153.318 Y65.106 E0.07523
G1 X153.831 Y67.531 E0.07773
G1 X153.849 Y70.104 E0.08065
G1 X153.844 Y106.045 E1.12692
G1 X153.705 Y106.963 E0.02911
G1 X153.386 Y107.813 E0.02846
G1 X152.905 Y108.577 E0.02831
G1 X152.275 Y109.229 E0.02842
G1 X151.505 Y109.751 E0.02918
G1 X150.237 Y110.427 E0.04507
G1 X148.912 Y111.515 E0.05374
G1 X147.819 Y112.892 E0.05511
G1 X147.001 Y114.508 E0.05680
G1 X146.498 Y116.316 E0.05885
G1 X146.351 Y118.268 E0.06136
G1 X146.581 Y120.193 E0.06078
G1 X147.157 Y121.962 E0.05836
G1 X148.040 Y123.529 E0.05639
G1 X149.188 Y124.847 E0.05479
G1 X150.556 Y125.862 E0.05341
G1 X151.690 Y126.447 E0.04002
G1 X152.427 Y126.998 E0.02886
G1 X153.025 Y127.677 E0.02837
G1 X153.472 Y128.462 E0.02832
G1 X153.751 Y129.328 E0.02853
G1 X153.849 Y130.261 E0.02943
G1 X153.849 Y142.668 E0.38901
G1 X153.776 Y144.150 E0.04653
G1 X153.116 Y146.515 E0.07698
G1 X151.855 Y148.547 E0.07499
G1 X150.097 Y150.151 E0.07463
G1 X147.944 Y151.223 E0.07538
G1 X145.489 Y151.660 E0.07820
G1 X140.982 Y151.665 E0.14131
G1 X139.839 Y151.624 E0.03585
G1 X137.443 Y151.036 E0.07736
G1 X135.369 Y149.837 E0.07510
G1 X133.712 Y148.129 E0.07461
G1 X132.577 Y146.015 E0.07523
G1 X132.064 Y143.590 E0.07773
G1 X132.045 Y141.018 E0.08064
G1 X132.050 Y105.086 E1.12664
G1 X132.190 Y104.168 E0.02912
G1 X132.508 Y103.318 E0.02846
G1 X132.990 Y102.554 E0.02831
G1 X133.619 Y101.902 E0.02842
G1 X134.389 Y101.380 E0.02918
G1 X135.658 Y100.704 E0.04507
G1 X136.982 Y99.616 E0.05374
G1 X138.075 Y98.239 E0.05511
G1 X138.893 Y96.623 E0.05680
G1 X139.396 Y94.815 E0.05885
G1 X139.543 Y92.863 E0.06136
G1 X139.313 Y90.938 E0.06078
G1 X138.737 Y89.169 E0.05836
G1 X137.854 Y87.601 E0.05639
G1 X136.706 Y86.284 E0.05479
G1 X135.339 Y85.269 E0.05341
G1 X134.204 Y84.684 E0.04002
G1 X133.467 Y84.133 E0.02886
G1 X132.869 Y83.454 E0.02837
G1 X132.423 Y82.669 E0.02832
G1 X132.143 Y81.803 E0.02853
G1 X132.045 Y80.869 E0.02943
G1 X132.045 Y68.454 E0.38929
G1 X132.118 Y66.971 E0.04654
G1 X132.779 Y64.607 E0.07698
G1 X134.039 Y62.574 E0.07499
G1 X135.798 Y60.970 E0.07463
G1 X137.794 Y59.976 E0.06992
G1 X137.946 Y60.008 F10800.000
G1 F8640
G1 X137.950 Y59.899 E-0.04022
G1 X140.405 Y59.461 E-0.57591
G1 X141.028 Y59.461 E-0.14387
G1 E-0.04000 F2100.00000
G1 Z0.800 F10800.000
G1 X141.288 Y59.951
G1 Z0.200
G1 E0.80000 F2100.00000
G1 F1800
G1 X144.215 Y62.877 E0.13043
G1 X143.920 Y62.773 E0.00983
G1 X143.515 Y62.713 E0.01292
G1 X140.922 Y60.121 E0.11555
G1 X140.398 Y60.133 E0.01652
G1 X142.944 Y62.678 E0.11345
G1 X142.435 Y62.706 E0.01604
G1 X139.943 Y60.214 E0.11108
G1 X139.488 Y60.295 E0.01456
G1 X142.006 Y62.813 E0.11222
G1 X141.747 Y62.877 E0.00843
G1 X141.602 Y62.945 E0.00503
G1 X139.033 Y60.376 E0.11448
G1 X138.578 Y60.457 E0.01456
G1 X141.236 Y63.115 E0.11845
G1 X141.101 Y63.178 E0.00470
G1 X140.904 Y63.319 E0.00763
G1 X138.131 Y60.546 E0.12360
G1 X137.773 Y60.724 E0.01260
G1 X140.592 Y63.543 E0.12565
G1 X140.321 Y63.807 E0.01195
G1 X137.415 Y60.902 E0.12948
G1 X137.057 Y61.080 E0.01260
G1 X140.059 Y64.081 E0.13376
G1 X139.845 Y64.404 E0.01219
G1 X136.700 Y61.258 E0.14018
G1 X136.342 Y61.436 E0.01260
G1 X139.641 Y64.736 E0.14704
G1 X139.486 Y65.116 E0.01295
G1 X136.025 Y61.656 E0.15422
G1 X135.745 Y61.911 E0.01196
G1 X139.356 Y65.523 E0.16095
G1 X139.268 Y65.970 E0.01438
G1 X135.464 Y62.167 E0.16950
G1 X135.184 Y62.423 E0.01196
G1 X139.249 Y66.487 E0.18115
G1 X139.249 Y66.810 E0.01016
G1 X139.302 Y67.076 E0.00856
G1 X134.904 Y62.678 E0.19599
G1 X134.624 Y62.934 E0.01196
G1 X139.511 Y67.822 E0.21783
G1 F8640
G1 X137.184 Y65.494 E-0.76000
G1 E-0.04000 F2100.00000
G1 Z0.800 F10800.000
G1 X141.635 Y69.946
G1 Z0.200
G1 E0.80000 F2100.00000
G1 F1800
G1 X153.188 Y81.498 E0.51488
G1 X153.188 Y80.963 E0.01689
G1 X142.381 Y70.155 E0.48166
G1 X142.959 Y70.197 E0.01827
G1 X153.188 Y80.427 E0.45589
G1 X153.188 Y79.891 E0.01689
G1 X143.466 Y70.169 E0.43329
G1 X143.931 Y70.098 E0.01483
G1 X153.188 Y79.355 E0.41256
G1 X153.188 Y78.819 E0.01689
G1 X144.327 Y69.958 E0.39492
G1 X144.598 Y69.862 E0.00905
G1 X144.705 Y69.799 E0.00390
G1 X153.188 Y78.283 E0.37809
G1 X153.188 Y77.747 E0.01689
G1 X145.043 Y69.602 E0.36303
G1 X145.208 Y69.505 E0.00604
G1 X145.355 Y69.377 E0.00612
G1 X153.189 Y77.211 E0.34913
G1 X153.189 Y76.675 E0.01689
G1 X145.641 Y69.128 E0.33636
G1 X145.738 Y69.044 E0.00402
G1 X145.895 Y68.846 E0.00799
G1 X153.189 Y76.139 E0.32507
G1 X153.189 Y75.603 E0.01689
G1 X146.132 Y68.546 E0.31452
G1 X146.325 Y68.204 E0.01240
G1 X153.189 Y75.067 E0.30589
G1 X153.189 Y74.532 E0.01689
G1 X146.507 Y67.850 E0.29778
G1 X146.631 Y67.438 E0.01356
G1 X153.189 Y73.996 E0.29227
G1 X153.189 Y73.460 E0.01689
G1 X146.728 Y66.998 E0.28797
G1 X146.775 Y66.510 E0.01546
G1 X153.189 Y72.924 E0.28584
G1 X153.189 Y72.388 E0.01689
G1 X146.733 Y65.932 E0.28773
G1 X146.711 Y65.702 E0.00729
G1 X146.570 Y65.232 E0.01544
G1 X153.189 Y71.852 E0.29502
G1 X153.189 Y71.316 E0.01689
G1 X141.993 Y60.120 E0.49898
G1 X142.529 Y60.120 E0.01688
G1 X153.189 Y70.780 E0.47511
G1 X153.190 Y70.244 E0.01689
G1 X143.065 Y60.119 E0.45124
G1 X143.600 Y60.119 E0.01688
G1 X153.187 Y69.705 E0.42723
G1 X153.183 Y69.166 E0.01701
G1 X144.136 Y60.119 E0.40319
G1 X144.672 Y60.119 E0.01688
G1 X153.179 Y68.626 E0.37914
G1 X153.175 Y68.086 E0.01701
G1 X145.217 Y60.128 E0.35467
G1 X145.773 Y60.148 E0.01753
G1 X153.156 Y67.531 E0.32905
G1 X153.012 Y66.851 E0.02190
G1 X146.430 Y60.269 E0.29335
G1 X147.140 Y60.443 E0.02304
G1 X152.868 Y66.171 E0.25528
G1 X152.725 Y65.492 E0.02190
G1 X147.851 Y60.618 E0.21722
G1 X148.203 Y60.704 E0.01143
G1 X148.843 Y61.074 E0.02331
G1 X152.629 Y64.860 E0.16871
G1 F8640
G1 X150.301 Y62.532 E-0.76000
G1 E-0.04000 F2100.00000
G1 Z0.800 F10800.000
G1 X152.006 Y63.701
G1 Z0.200
G1 E0.80000 F2100.00000
G1 F1800
G1 X149.649 Y61.344 E0.10507
G1 F8640
G1 X151.976 Y63.671 E-0.76000
G1 E-0.04000 F2100.00000
G1 Z0.800 F10800.000
G1 X153.357 Y82.204
G1 Z0.200
G1 E0.80000 F2100.00000
G1 F1800
G1 X134.399 Y63.246 E0.84493
G1 X134.194 Y63.576 E0.01227
G1 X153.188 Y82.570 E0.84650
G1 X153.188 Y83.106 E0.01689
G1 X133.989 Y63.907 E0.85564
G1 X133.784 Y64.238 E0.01227
G1 X153.188 Y83.642 E0.86478
G1 X153.188 Y84.178 E0.01689
G1 X133.579 Y64.569 E0.87392
G1 X133.380 Y64.907 E0.01234
G1 X153.187 Y84.714 E0.88276
G1 X153.187 Y85.250 E0.01689
G1 X133.263 Y65.325 E0.88798
G1 X133.146 Y65.744 E0.01371
G1 X153.187 Y85.786 E0.89319
