; generated by Slic3r Prusa Edition 1.41.0+win64 on 2018-11-05 at 11:13:21

; 

; external perimeters extrusion width = 0.45mm
; perimeters extrusion width = 0.45mm
; infill extrusion width = 0.45mm
; solid infill extrusion width = 0.45mm
; top infill extrusion width = 0.40mm
; first layer extrusion width = 0.42mm

M201 X1000 Y1000 Z1000 E5000 ; sets maximum accelerations, mm/sec^2
M203 X200 Y200 Z12 E120 ; sets maximum feedrates, mm/sec
M204 P1250 R1250 T1250 ; sets acceleration (P, T) and retract acceleration (R), mm/sec^2
M205 X8.00 Y8.00 Z0.40 E1.50 ; sets the jerk limits, mm/sec
M205 S0 T0 ; sets the minimum extruding and travel feed rate, mm/sec
M107
M115 U3.4.1 ; tell printer latest fw version
M83  ; extruder relative mode
M104 S230 ; set extruder temp
M140 S85 ; set bed temp
M190 S85 ; wait for bed temp
M109 S230 ; wait for extruder temp
G28 W ; home all without mesh bed level
G80 ; mesh bed leveling
G1 Y-3.0 F1000.0 ; go outside print area
G92 E0.0
G1 X60.0 E9.0  F1000.0 ; intro line
M73 Q0 S29
M73 P0 R29
G1 X100.0 E12.5  F1000.0 ; intro line
G92 E0.0
M221 S95
M900 K45; Filament gcode
G21 ; set units to millimeters
G90 ; use absolute coordinates
M83 ; use relative distances for extrusion
;BEFORE_LAYER_CHANGE
G92 E0.0
;0.2


G1 E-0.80000 F2100.00000
G1 Z0.600 F10800.000
;AFTER_LAYER_CHANGE
;0.2
G1 X33.386 Y34.570
G1 Z0.200
G1 E0.80000 F2100.00000
M204 S1000
G1 F1200
G1 X34.069 Y33.959 E0.02875
G1 X34.856 Y33.498 E0.02859
G1 X35.719 Y33.203 E0.02859
G1 X36.628 Y33.085 E0.02875
G1 X84.763 Y33.083 E1.50924
G1 X85.618 Y33.165 E0.02694
G1 X86.448 Y33.408 E0.02710
G1 X87.213 Y33.799 E0.02694
G1 X87.890 Y34.327 E0.02694
G1 X88.457 Y34.973 E0.02694
G1 X88.893 Y35.714 E0.02694
G1 X89.182 Y36.523 E0.02694
G1 X89.315 Y37.371 E0.02694
G1 X89.322 Y85.754 E1.51701
G1 X89.230 Y86.566 E0.02562
G1 X88.995 Y87.349 E0.02562
G1 X88.624 Y88.077 E0.02562
G1 X88.129 Y88.727 E0.02562
G1 X87.425 Y89.354 E0.02957
G1 X86.611 Y89.821 E0.02941
G1 X85.719 Y90.112 E0.02941
G1 X84.782 Y90.214 E0.02957
G1 X36.652 Y90.213 E1.50907
G1 X35.840 Y90.121 E0.02562
G1 X35.058 Y89.886 E0.02562
G1 X34.330 Y89.515 E0.02562
G1 X33.679 Y89.020 E0.02562
G1 X33.052 Y88.316 E0.02957
G1 X32.585 Y87.502 E0.02941
G1 X32.295 Y86.610 E0.02941
G1 X32.192 Y85.673 E0.02957
G1 X32.193 Y37.543 E1.50907
G1 X32.285 Y36.731 E0.02562
G1 X32.520 Y35.949 E0.02562
G1 X32.891 Y35.221 E0.02562
G1 X33.350 Y34.618 E0.02374
G1 X33.649 Y34.847 F10800.000
G1 F1200
G1 X34.297 Y34.259 E0.02742
G1 X35.021 Y33.837 E0.02627
G1 X35.814 Y33.568 E0.02627
G1 X36.645 Y33.462 E0.02627
G1 X84.763 Y33.460 E1.50869
G1 X85.547 Y33.535 E0.02469
G1 X86.308 Y33.757 E0.02485
G1 X87.013 Y34.119 E0.02485
G1 X87.637 Y34.607 E0.02485
G1 X88.156 Y35.200 E0.02469
G1 X88.556 Y35.884 E0.02485
G1 X88.821 Y36.631 E0.02485
G1 X88.940 Y37.415 E0.02485
G1 X88.945 Y85.740 E1.51519
G1 X88.861 Y86.487 E0.02359
G1 X88.643 Y87.213 E0.02375
G1 X88.301 Y87.883 E0.02359
G1 X87.841 Y88.484 E0.02375
G1 X87.198 Y89.053 E0.02690
G1 X86.453 Y89.479 E0.02690
G1 X85.637 Y89.744 E0.02690
G1 X84.779 Y89.837 E0.02706
G1 X36.667 Y89.836 E1.50853
G1 X35.919 Y89.752 E0.02359
G1 X35.194 Y89.534 E0.02375
G1 X34.524 Y89.192 E0.02359
G1 X33.922 Y88.732 E0.02375
G1 X33.354 Y88.089 E0.02690
G1 X32.928 Y87.344 E0.02690
G1 X32.663 Y86.528 E0.02690
G1 X32.569 Y85.670 E0.02706
G1 X32.570 Y37.558 E1.50853
G1 X32.654 Y36.810 E0.02359
G1 X32.872 Y36.085 E0.02375
G1 X33.215 Y35.415 E0.02359
G1 X33.613 Y34.895 E0.02054
; PURGING FINISHED
G1 F8640
G1 X34.297 Y34.259 E-0.21557
G1 X35.021 Y33.837 E-0.19348
G1 X35.814 Y33.568 E-0.19348
G1 X36.491 Y33.481 E-0.15747
G1 E-0.04000 F2100.00000
G1 Z0.800 F10800.000
G1 X37.345 Y38.236
G1 Z0.200
G1 E0.80000 F2100.00000
G1 F1200
G1 X84.171 Y38.236 E1.46819
G1 X84.171 Y85.062 E1.46819
G1 X37.345 Y85.062 E1.46819
G1 X37.345 Y38.296 E1.46631
G1 X36.968 Y37.859 F10800.000
G1 F1200
G1 X84.548 Y37.859 E1.49184
G1 X84.548 Y85.439 E1.49184
G1 X36.968 Y85.439 E1.49184
G1 X36.968 Y37.919 E1.48996
G1 X37.354 Y37.962 F10800.000
G1 F8640
G1 X40.259 Y37.915 E-0.76000
G1 E-0.04000 F2100.00000
G1 Z0.800 F10800.000
G1 X38.224 Y84.949
G1 Z0.200
G1 E0.80000 F2100.00000
G1 F1200
G1 X37.628 Y84.352 E0.02660
G1 X37.628 Y83.816 E0.01690
G1 X38.591 Y84.779 E0.04293
G1 X39.127 Y84.779 E0.01690
G1 X37.628 Y83.280 E0.06683
G1 X37.628 Y82.744 E0.01690
G1 X39.663 Y84.779 E0.09072
G1 X40.199 Y84.779 E0.01690
G1 X37.628 Y82.208 E0.11461
G1 X37.628 Y81.671 E0.01690
G1 X40.735 Y84.779 E0.13851
G1 X41.271 Y84.779 E0.01690
G1 X37.628 Y81.135 E0.16240
G1 X37.628 Y80.599 E0.01690
G1 X41.807 Y84.779 E0.18630
G1 X42.343 Y84.779 E0.01690
G1 X37.628 Y80.063 E0.21019
G1 X37.628 Y79.527 E0.01690
G1 X42.879 Y84.779 E0.23409
G1 X43.415 Y84.779 E0.01690
G1 X37.628 Y78.991 E0.25798
G1 X37.628 Y78.455 E0.01690
G1 X43.951 Y84.779 E0.28187
G1 X44.487 Y84.779 E0.01690
G1 X37.628 Y77.919 E0.30577
G1 X37.628 Y77.383 E0.01690
G1 X45.023 Y84.779 E0.32966
G1 X45.560 Y84.779 E0.01690
G1 X37.628 Y76.847 E0.35356
G1 X37.628 Y76.311 E0.01690
G1 X46.096 Y84.779 E0.37745
G1 X46.632 Y84.779 E0.01690
G1 X37.628 Y75.775 E0.40134
G1 X37.628 Y75.239 E0.01690
G1 X47.168 Y84.779 E0.42524
G1 X47.704 Y84.779 E0.01690
G1 X37.628 Y74.703 E0.44913
G1 X37.628 Y74.167 E0.01690
G1 X48.240 Y84.779 E0.47303
G1 X48.776 Y84.779 E0.01690
G1 X37.628 Y73.631 E0.49692
G1 X37.628 Y73.094 E0.01690
G1 X49.312 Y84.779 E0.52081
G1 X49.848 Y84.779 E0.01690
G1 X37.628 Y72.558 E0.54471
G1 X37.628 Y72.022 E0.01690
G1 X50.384 Y84.779 E0.56860
G1 X50.920 Y84.779 E0.01690
G1 X37.628 Y71.486 E0.59250
G1 X37.628 Y70.950 E0.01690
G1 X51.456 Y84.779 E0.61639
G1 X51.992 Y84.779 E0.01690
G1 X37.628 Y70.414 E0.64029
M73 Q3 S28
M73 P3 R27
G1 X37.628 Y69.878 E0.01690
G1 X52.528 Y84.779 E0.66418
G1 X53.064 Y84.779 E0.01690
G1 X37.628 Y69.342 E0.68807
G1 X37.628 Y68.806 E0.01690
G1 X53.600 Y84.779 E0.71197
G1 X54.136 Y84.779 E0.01690
G1 X37.628 Y68.270 E0.73586
G1 X37.628 Y67.734 E0.01690
G1 X54.673 Y84.779 E0.75976
G1 X55.209 Y84.779 E0.01690
G1 X37.628 Y67.198 E0.78365
G1 X37.628 Y66.662 E0.01690
G1 X55.745 Y84.779 E0.80754
G1 X56.281 Y84.779 E0.01690
G1 X37.628 Y66.126 E0.83144
G1 X37.628 Y65.590 E0.01690
G1 X56.817 Y84.779 E0.85533
G1 X57.353 Y84.779 E0.01690
G1 X37.628 Y65.054 E0.87923
G1 X37.628 Y64.518 E0.01690
G1 X57.889 Y84.779 E0.90312
G1 X58.425 Y84.779 E0.01690
G1 X37.628 Y63.981 E0.92702
G1 X37.628 Y63.445 E0.01690
G1 X58.961 Y84.779 E0.95091
G1 X59.497 Y84.779 E0.01690
G1 X37.628 Y62.909 E0.97480
G1 X37.628 Y62.373 E0.01690
G1 X60.033 Y84.779 E0.99870
G1 X60.569 Y84.779 E0.01690
G1 X37.628 Y61.837 E1.02259
G1 X37.628 Y61.301 E0.01690
G1 X61.105 Y84.779 E1.04649
G1 X61.641 Y84.779 E0.01690
G1 X37.628 Y60.765 E1.07038
G1 X37.628 Y60.229 E0.01690
G1 X62.177 Y84.779 E1.09427
G1 X62.713 Y84.779 E0.01690
G1 X37.628 Y59.693 E1.11817
G1 X37.628 Y59.157 E0.01690
G1 X63.250 Y84.779 E1.14206
G1 X63.786 Y84.779 E0.01690
G1 X37.628 Y58.621 E1.16596
G1 X37.628 Y58.085 E0.01690
G1 X64.322 Y84.779 E1.18985
G1 X64.858 Y84.779 E0.01690
G1 X37.628 Y57.549 E1.21375
G1 X37.628 Y57.013 E0.01690
G1 X65.394 Y84.779 E1.23764
G1 X65.930 Y84.779 E0.01690
G1 X37.628 Y56.477 E1.26153
G1 X37.628 Y55.941 E0.01690
G1 X66.466 Y84.779 E1.28543
G1 X67.002 Y84.779 E0.01690
G1 X37.628 Y55.404 E1.30932
G1 X37.628 Y54.868 E0.01690
G1 X67.538 Y84.779 E1.33322
G1 X68.074 Y84.779 E0.01690
G1 X37.628 Y54.332 E1.35711
G1 X37.628 Y53.796 E0.01690
G1 X68.610 Y84.779 E1.38100
G1 X69.146 Y84.779 E0.01690
G1 X37.628 Y53.260 E1.40490
G1 X37.628 Y52.724 E0.01690
G1 X69.682 Y84.779 E1.42879
G1 X70.218 Y84.779 E0.01690
G1 X37.628 Y52.188 E1.45269
G1 X37.628 Y51.652 E0.01690
G1 X70.754 Y84.779 E1.47658
M73 Q7 S27
M73 P7 R26
G1 X71.290 Y84.779 E0.01690
G1 X37.628 Y51.116 E1.50048
G1 X37.628 Y50.580 E0.01690
G1 X71.826 Y84.779 E1.52437
G1 X72.363 Y84.779 E0.01690
G1 X37.628 Y50.044 E1.54826
G1 X37.628 Y49.508 E0.01690
G1 X72.899 Y84.779 E1.57216
G1 X73.435 Y84.779 E0.01690
G1 X37.628 Y48.972 E1.59605
G1 X37.628 Y48.436 E0.01690
G1 X73.971 Y84.779 E1.61995
G1 X74.507 Y84.779 E0.01690
G1 X37.628 Y47.900 E1.64384
G1 X37.628 Y47.364 E0.01690
G1 X75.043 Y84.779 E1.66773
G1 X75.579 Y84.779 E0.01690
G1 X37.628 Y46.828 E1.69163
G1 X37.628 Y46.291 E0.01690
G1 X76.115 Y84.779 E1.71552
G1 X76.651 Y84.779 E0.01690
G1 X37.628 Y45.755 E1.73942
G1 X37.628 Y45.219 E0.01690
G1 X77.187 Y84.779 E1.76331
G1 X77.723 Y84.779 E0.01690
G1 X37.628 Y44.683 E1.78720
G1 X37.628 Y44.147 E0.01690
G1 X78.259 Y84.779 E1.81110
G1 X78.795 Y84.779 E0.01690
G1 X37.628 Y43.611 E1.83499
G1 X37.628 Y43.075 E0.01690
G1 X79.331 Y84.779 E1.85889
G1 X79.867 Y84.779 E0.01690
G1 X37.628 Y42.539 E1.88278
G1 X37.628 Y42.003 E0.01690
G1 X80.403 Y84.779 E1.90668
G1 X80.940 Y84.779 E0.01690
G1 X37.628 Y41.467 E1.93057
G1 X37.628 Y40.931 E0.01690
G1 X81.476 Y84.779 E1.95446
G1 X82.012 Y84.779 E0.01690
G1 X37.628 Y40.395 E1.97836
G1 X37.628 Y39.859 E0.01690
G1 X82.548 Y84.779 E2.00225
M73 Q10 S26
M73 P10 R25
G1 X83.084 Y84.779 E0.01690
G1 X37.628 Y39.323 E2.02615
G1 X37.628 Y38.787 E0.01690
G1 X83.620 Y84.779 E2.05004
G1 X83.888 Y84.779 E0.00845
G1 X83.888 Y84.511 E0.00845
G1 X37.896 Y38.519 E2.05004
G1 X38.432 Y38.519 E0.01690
G1 X83.888 Y83.975 E2.02615
G1 X83.888 Y83.439 E0.01690
G1 X38.968 Y38.519 E2.00225
G1 X39.504 Y38.519 E0.01690
G1 X83.888 Y82.903 E1.97836
G1 X83.888 Y82.367 E0.01690
G1 X40.040 Y38.519 E1.95446
G1 X40.576 Y38.519 E0.01690
G1 X83.888 Y81.831 E1.93057
G1 X83.888 Y81.294 E0.01690
G1 X41.112 Y38.519 E1.90667
G1 X41.648 Y38.519 E0.01690
G1 X83.888 Y80.758 E1.88278
G1 X83.888 Y80.222 E0.01690
G1 X42.184 Y38.519 E1.85889
G1 X42.720 Y38.519 E0.01690
G1 X83.888 Y79.686 E1.83499
G1 X83.888 Y79.150 E0.01690
G1 X43.256 Y38.519 E1.81110
G1 X43.792 Y38.519 E0.01690
G1 X83.888 Y78.614 E1.78720
G1 X83.888 Y78.078 E0.01690
G1 X44.328 Y38.519 E1.76331
G1 X44.864 Y38.519 E0.01690
G1 X83.888 Y77.542 E1.73942
G1 X83.888 Y77.006 E0.01690
G1 X45.400 Y38.519 E1.71552
G1 X45.937 Y38.519 E0.01690
G1 X83.888 Y76.470 E1.69163
G1 X83.888 Y75.934 E0.01690
G1 X46.473 Y38.519 E1.66773
G1 X47.009 Y38.519 E0.01690
G1 X83.888 Y75.398 E1.64384
G1 X83.888 Y74.862 E0.01690
M73 Q14 S25
G1 X47.545 Y38.519 E1.61994
M73 P14 R24
G1 X48.081 Y38.519 E0.01690
G1 X83.888 Y74.326 E1.59605
G1 X83.888 Y73.790 E0.01690
G1 X48.617 Y38.519 E1.57216
G1 X49.153 Y38.519 E0.01690
G1 X83.888 Y73.254 E1.54826
G1 X83.888 Y72.717 E0.01690
G1 X49.689 Y38.519 E1.52437
G1 X50.225 Y38.519 E0.01690
G1 X83.888 Y72.181 E1.50047
G1 X83.888 Y71.645 E0.01690
G1 X50.761 Y38.519 E1.47658
G1 X51.297 Y38.519 E0.01690
G1 X83.888 Y71.109 E1.45269
G1 X83.888 Y70.573 E0.01690
G1 X51.833 Y38.519 E1.42879
G1 X52.369 Y38.519 E0.01690
G1 X83.888 Y70.037 E1.40490
G1 X83.888 Y69.501 E0.01690
G1 X52.905 Y38.519 E1.38100
G1 X53.441 Y38.519 E0.01690
G1 X83.888 Y68.965 E1.35711
G1 X83.888 Y68.429 E0.01690
G1 X53.977 Y38.519 E1.33322
G1 X54.513 Y38.519 E0.01690
G1 X83.888 Y67.893 E1.30932
G1 X83.888 Y67.357 E0.01690
G1 X55.050 Y38.519 E1.28543
G1 X55.586 Y38.519 E0.01690
G1 X83.888 Y66.821 E1.26153
G1 X83.888 Y66.285 E0.01690
G1 X56.122 Y38.519 E1.23764
G1 X56.658 Y38.519 E0.01690
G1 X83.888 Y65.749 E1.21374
G1 X83.888 Y65.213 E0.01690
G1 X57.194 Y38.519 E1.18985
G1 X57.730 Y38.519 E0.01690
G1 X83.888 Y64.677 E1.16596
G1 X83.888 Y64.141 E0.01690
G1 X58.266 Y38.519 E1.14206
G1 X58.802 Y38.519 E0.01690
G1 X83.888 Y63.604 E1.11817
G1 X83.888 Y63.068 E0.01690
G1 X59.338 Y38.519 E1.09427
G1 X59.874 Y38.519 E0.01690
G1 X83.888 Y62.532 E1.07038
G1 X83.888 Y61.996 E0.01690
G1 X60.410 Y38.519 E1.04649
G1 X60.946 Y38.519 E0.01690
G1 X83.888 Y61.460 E1.02259
G1 X83.888 Y60.924 E0.01690
G1 X61.482 Y38.519 E0.99870
G1 X62.018 Y38.519 E0.01690
G1 X83.888 Y60.388 E0.97480
G1 X83.888 Y59.852 E0.01690
G1 X62.554 Y38.519 E0.95091
M73 Q17 S24
G1 X63.090 Y38.519 E0.01690
G1 X83.888 Y59.316 E0.92701
G1 X83.888 Y58.780 E0.01690
G1 X63.627 Y38.519 E0.90312
M73 P18 R23
G1 X64.163 Y38.519 E0.01690
G1 X83.888 Y58.244 E0.87923
G1 X83.888 Y57.708 E0.01690
G1 X64.699 Y38.519 E0.85533
G1 X65.235 Y38.519 E0.01690
G1 X83.888 Y57.172 E0.83144
G1 X83.888 Y56.636 E0.01690
G1 X65.771 Y38.519 E0.80754
G1 X66.307 Y38.519 E0.01690
G1 X83.888 Y56.100 E0.78365
G1 X83.888 Y55.564 E0.01690
G1 X66.843 Y38.519 E0.75976
G1 X67.379 Y38.519 E0.01690
G1 X83.888 Y55.027 E0.73586
G1 X83.888 Y54.491 E0.01690
G1 X67.915 Y38.519 E0.71197
G1 X68.451 Y38.519 E0.01690
G1 X83.888 Y53.955 E0.68807
G1 X83.888 Y53.419 E0.01690
G1 X68.987 Y38.519 E0.66418
G1 X69.523 Y38.519 E0.01690
G1 X83.888 Y52.883 E0.64028
G1 X83.888 Y52.347 E0.01690
G1 X70.059 Y38.519 E0.61639
G1 X70.595 Y38.519 E0.01690
G1 X83.888 Y51.811 E0.59250
G1 X83.888 Y51.275 E0.01690
G1 X71.131 Y38.519 E0.56860
G1 X71.667 Y38.519 E0.01690
G1 X83.888 Y50.739 E0.54471
G1 X83.888 Y50.203 E0.01690
G1 X72.203 Y38.519 E0.52081
G1 X72.740 Y38.519 E0.01690
G1 X83.888 Y49.667 E0.49692
G1 X83.888 Y49.131 E0.01690
G1 X73.276 Y38.519 E0.47303
G1 X73.812 Y38.519 E0.01690
G1 X83.888 Y48.595 E0.44913
G1 X83.888 Y48.059 E0.01690
G1 X74.348 Y38.519 E0.42524
G1 X74.884 Y38.519 E0.01690
G1 X83.888 Y47.523 E0.40134
G1 X83.888 Y46.987 E0.01690
G1 X75.420 Y38.519 E0.37745
G1 X75.956 Y38.519 E0.01690
G1 X83.888 Y46.451 E0.35355
G1 X83.888 Y45.914 E0.01690
G1 X76.492 Y38.519 E0.32966
G1 X77.028 Y38.519 E0.01690
G1 X83.888 Y45.378 E0.30577
G1 X83.888 Y44.842 E0.01690
G1 X77.564 Y38.519 E0.28187
G1 X78.100 Y38.519 E0.01690
G1 X83.888 Y44.306 E0.25798
G1 X83.888 Y43.770 E0.01690
G1 X78.636 Y38.519 E0.23408
G1 X79.172 Y38.519 E0.01690
G1 X83.888 Y43.234 E0.21019
G1 X83.888 Y42.698 E0.01690
G1 X79.708 Y38.519 E0.18630
G1 X80.244 Y38.519 E0.01690
G1 X83.888 Y42.162 E0.16240
G1 X83.888 Y41.626 E0.01690
G1 X80.780 Y38.519 E0.13851
G1 X81.317 Y38.519 E0.01690
G1 X83.888 Y41.090 E0.11461
G1 X83.888 Y40.554 E0.01690
G1 X81.853 Y38.519 E0.09072
G1 X82.389 Y38.519 E0.01690
G1 X83.888 Y40.018 E0.06682
G1 X83.888 Y39.482 E0.01690
G1 X82.925 Y38.519 E0.04293
G1 X83.461 Y38.519 E0.01690
G1 X84.058 Y39.115 E0.02660
;BEFORE_LAYER_CHANGE
G92 E0.0
;0.4


G1 F8640
G1 X83.461 Y38.519 E-0.19487
G1 X82.925 Y38.519 E-0.12378
G1 X83.888 Y39.482 E-0.31451
G1 X83.888 Y40.018 E-0.12378
G1 X83.878 Y40.008 E-0.00306
G1 E-0.04000 F2100.00000
G1 Z0.800 F10800.000
;AFTER_LAYER_CHANGE
;0.4
M104 S240 ; set temperature
M140 S90 ; set bed temperature
; PURGING FINISHED
G1 X84.126 Y38.281
G1 Z0.400
G1 E0.80000 F2100.00000
M204 S800
G1 F2700
G1 X84.126 Y85.017 E1.58195
G1 X37.390 Y85.017 E1.58195
G1 X37.390 Y38.281 E1.58195
G1 X84.066 Y38.281 E1.57992
M204 S1000
G1 X84.533 Y37.874 F10800.000
M204 S800
G1 F2100
G1 X84.533 Y85.424 E1.60951
G1 X36.983 Y85.424 E1.60951
G1 X36.983 Y37.874 E1.60951
G1 X84.473 Y37.874 E1.60748
M204 S1000
G1 X84.429 Y38.260 F10800.000
G1 F8640
G1 X84.477 Y41.165 E-0.76000
G1 E-0.04000 F2100.00000
G1 Z1.000 F10800.000
G1 X38.338 Y38.403
G1 Z0.400
G1 E0.80000 F2100.00000
M204 S1250
G1 F5871.76
G1 X37.695 Y39.046 E0.03092
G1 X37.695 Y39.624 E0.01965
G1 X38.733 Y38.586 E0.04990
G1 X39.311 Y38.586 E0.01965
G1 X37.695 Y40.202 E0.07768
G1 X37.695 Y40.780 E0.01965
G1 X39.889 Y38.586 E0.10546
G1 X40.467 Y38.586 E0.01965
G1 X37.695 Y41.358 E0.13325
G1 X37.695 Y41.936 E0.01965
G1 X41.045 Y38.586 E0.16103
G1 X41.623 Y38.586 E0.01965
G1 X37.695 Y42.514 E0.18881
G1 X37.695 Y43.093 E0.01965
G1 X42.201 Y38.586 E0.21660
G1 X42.780 Y38.586 E0.01965
G1 X37.695 Y43.671 E0.24438
G1 X37.695 Y44.249 E0.01965
G1 X43.358 Y38.586 E0.27216
G1 X43.936 Y38.586 E0.01965
G1 X37.695 Y44.827 E0.29995
G1 X37.695 Y45.405 E0.01965
G1 X44.514 Y38.586 E0.32773
G1 X45.092 Y38.586 E0.01965
G1 X37.695 Y45.983 E0.35551
G1 X37.695 Y46.561 E0.01965
G1 X45.670 Y38.586 E0.38329
G1 X46.248 Y38.586 E0.01965
G1 X37.695 Y47.139 E0.41108
G1 X37.695 Y47.717 E0.01965
G1 X46.826 Y38.586 E0.43886
G1 X47.404 Y38.586 E0.01965
G1 X37.695 Y48.295 E0.46664
G1 X37.695 Y48.873 E0.01965
G1 X47.982 Y38.586 E0.49443
G1 X48.560 Y38.586 E0.01965
G1 X37.695 Y49.451 E0.52221
G1 X37.695 Y50.029 E0.01965
G1 X49.138 Y38.586 E0.54999
G1 X49.716 Y38.586 E0.01965
G1 X37.695 Y50.607 E0.57778
G1 X37.695 Y51.185 E0.01965
G1 X50.294 Y38.586 E0.60556
