; generated by Slic3r Prusa Edition 1.41.0+win64 on 2018-11-05 at 11:07:20

; 

; external perimeters extrusion width = 0.45mm
; perimeters extrusion width = 0.45mm
; infill extrusion width = 0.45mm
; solid infill extrusion width = 0.45mm
; top infill extrusion width = 0.40mm
; first layer extrusion width = 0.42mm

M201 X1000 Y1000 Z1000 E5000 ; sets maximum accelerations, mm/sec^2
M203 X200 Y200 Z12 E120 ; sets maximum feedrates, mm/sec
M204 P1250 R1250 T1250 ; sets acceleration (P, T) and retract acceleration (R), mm/sec^2
M205 X8.00 Y8.00 Z0.40 E1.50 ; sets the jerk limits, mm/sec
M205 S0 T0 ; sets the minimum extruding and travel feed rate, mm/sec
M107
M115 U3.4.1 ; tell printer latest fw version
M83  ; extruder relative mode
M104 S230 ; set extruder temp
M140 S85 ; set bed temp
M190 S85 ; wait for bed temp
M109 S230 ; wait for extruder temp
G28 W ; home all without mesh bed level
G80 ; mesh bed leveling
G1 Y-3.0 F1000.0 ; go outside print area
G92 E0.0
G1 X60.0 E9.0  F1000.0 ; intro line
M73 Q0 S137
M73 P0 R136
G1 X100.0 E12.5  F1000.0 ; intro line
G92 E0.0
M221 S95
M900 K45; Filament gcode
G21 ; set units to millimeters
G90 ; use absolute coordinates
M83 ; use relative distances for extrusion
;BEFORE_LAYER_CHANGE
G92 E0.0
;0.2


G1 E-0.80000 F2100.00000
G1 Z0.600 F10800.000
;AFTER_LAYER_CHANGE
;0.2
G1 X36.816 Y40.091
G1 Z0.200
G1 E0.80000 F2100.00000
M204 S1000
G1 F1200
G1 X37.493 Y39.511 E0.02793
G1 X38.264 Y39.076 E0.02776
G1 X39.104 Y38.797 E0.02776
G1 X39.988 Y38.686 E0.02793
G1 X88.118 Y38.685 E1.50907
G1 X88.973 Y38.766 E0.02694
G1 X89.802 Y39.009 E0.02710
G1 X90.567 Y39.401 E0.02694
G1 X91.245 Y39.929 E0.02694
G1 X91.812 Y40.575 E0.02694
G1 X92.247 Y41.315 E0.02694
G1 X92.537 Y42.124 E0.02694
G1 X92.670 Y42.978 E0.02710
G1 X92.677 Y91.361 E1.51701
G1 X92.578 Y92.199 E0.02644
G1 X92.328 Y93.004 E0.02644
G1 X91.933 Y93.750 E0.02644
G1 X91.408 Y94.410 E0.02644
G1 X90.745 Y94.980 E0.02743
G1 X89.985 Y95.414 E0.02743
G1 X89.156 Y95.695 E0.02743
G1 X88.289 Y95.812 E0.02743
G1 X54.870 Y95.809 E1.04786
G1 X39.528 Y92.685 E0.49091
G1 X38.419 Y92.254 E0.03730
G1 X37.455 Y91.548 E0.03746
G1 X36.943 Y90.967 E0.02430
G1 X36.534 Y90.302 E0.02447
G1 X36.245 Y89.583 E0.02430
G1 X36.082 Y88.819 E0.02447
G1 X35.547 Y76.308 E0.39263
G1 X35.549 Y43.092 E1.04148
G1 X35.654 Y42.266 E0.02611
G1 X35.907 Y41.472 E0.02612
G1 X36.297 Y40.742 E0.02595
G1 X36.779 Y40.138 E0.02423
G1 X37.073 Y40.373 F10800.000
G1 F1200
G1 X37.717 Y39.814 E0.02675
G1 X38.426 Y39.416 E0.02548
G1 X39.198 Y39.163 E0.02548
G1 X40.005 Y39.063 E0.02548
G1 X88.117 Y39.062 E1.50853
G1 X88.901 Y39.137 E0.02469
G1 X89.662 Y39.359 E0.02485
G1 X90.367 Y39.721 E0.02485
G1 X90.992 Y40.209 E0.02485
G1 X91.513 Y40.806 E0.02485
G1 X91.913 Y41.490 E0.02485
G1 X92.177 Y42.238 E0.02485
G1 X92.295 Y43.022 E0.02485
G1 X92.300 Y91.346 E1.51519
G1 X92.210 Y92.119 E0.02438
G1 X91.979 Y92.861 E0.02438
G1 X91.614 Y93.548 E0.02438
G1 X91.126 Y94.159 E0.02454
G1 X90.516 Y94.681 E0.02517
G1 X89.817 Y95.076 E0.02517
G1 X89.056 Y95.331 E0.02517
G1 X88.260 Y95.436 E0.02517
G1 X54.885 Y95.433 E1.04646
G1 X39.625 Y92.321 E0.48829
G1 X38.596 Y91.922 E0.03462
G1 X37.703 Y91.264 E0.03477
G1 X37.235 Y90.727 E0.02233
G1 X36.862 Y90.115 E0.02248
G1 X36.599 Y89.448 E0.02248
G1 X36.453 Y88.746 E0.02248
G1 X35.924 Y76.298 E0.39064
G1 X35.926 Y43.114 E1.04048
G1 X36.021 Y42.352 E0.02406
G1 X36.254 Y41.621 E0.02406
G1 X36.616 Y40.944 E0.02406
G1 X37.035 Y40.420 E0.02105
; PURGING FINISHED
G1 F8640
G1 X37.717 Y39.814 E-0.21063
G1 X38.426 Y39.416 E-0.18767
G1 X39.198 Y39.163 E-0.18767
G1 X39.946 Y39.070 E-0.17403
G1 E-0.04000 F2100.00000
G1 Z0.800 F10800.000
G1 X55.699 Y88.837
G1 Z0.200
G1 E0.80000 F2100.00000
G1 F1200
G1 X64.699 Y88.837 E0.28219
G1 X64.699 Y85.837 E0.09406
G1 X76.699 Y85.837 E0.37625
G1 X76.699 Y82.837 E0.09406
G1 X85.699 Y82.837 E0.28219
G1 X85.699 Y79.837 E0.09406
G1 X87.025 Y79.837 E0.04157
G1 X87.025 Y88.837 E0.28219
G1 X87.525 Y88.837 E0.01568
G1 X87.525 Y90.663 E0.05725
G1 X85.699 Y90.663 E0.05725
G1 X85.699 Y90.163 E0.01568
G1 X82.699 Y90.163 E0.09406
G1 X82.699 Y88.837 E0.04157
G1 X85.699 Y88.837 E0.09406
G1 X85.699 Y84.663 E0.13088
G1 X78.525 Y84.663 E0.22494
G1 X78.525 Y87.663 E0.09406
G1 X72.525 Y87.663 E0.18813
G1 X72.525 Y90.663 E0.09406
G1 X67.699 Y90.663 E0.15131
G1 X67.699 Y90.163 E0.01568
G1 X63.525 Y90.163 E0.13088
G1 X63.525 Y90.663 E0.01568
G1 X55.699 Y90.663 E0.24537
G1 X55.699 Y88.897 E0.05537
G1 F8640
G1 X58.991 Y88.875 E-0.76000
G1 E-0.04000 F2100.00000
G1 Z0.800 F10800.000
G1 X87.402 Y88.460
G1 Z0.200
G1 E0.80000 F2100.00000
G1 F1200
G1 X87.902 Y88.460 E0.01568
G1 X87.902 Y91.040 E0.08089
G1 X85.322 Y91.040 E0.08089
G1 X85.322 Y90.540 E0.01568
G1 X82.322 Y90.540 E0.09406
G1 X82.322 Y88.460 E0.06522
G1 X85.322 Y88.460 E0.09406
G1 X85.322 Y85.040 E0.10723
G1 X78.902 Y85.040 E0.20129
G1 X78.902 Y88.040 E0.09406
G1 X72.902 Y88.040 E0.18813
G1 X72.902 Y91.040 E0.09406
G1 X67.322 Y91.040 E0.17496
G1 X67.322 Y90.540 E0.01568
G1 X63.902 Y90.540 E0.10723
G1 X63.902 Y91.040 E0.01568
G1 X55.322 Y91.040 E0.26902
G1 X55.322 Y88.460 E0.08089
G1 X64.322 Y88.460 E0.28219
G1 X64.322 Y85.460 E0.09406
G1 X76.322 Y85.460 E0.37625
G1 X76.322 Y82.460 E0.09406
G1 X85.322 Y82.460 E0.28219
G1 X85.322 Y79.460 E0.09406
G1 X87.402 Y79.460 E0.06522
G1 X87.402 Y88.400 E0.28031
G1 X87.432 Y88.859 F10800.000
G1 F8640
G1 X87.902 Y88.460 E-0.11628
G1 X87.902 Y91.040 E-0.59573
G1 X87.694 Y91.040 E-0.04799
G1 E-0.04000 F2100.00000
G1 Z0.800 F10800.000
G1 X84.525 Y78.663
G1 Z0.200
G1 E0.80000 F2100.00000
G1 F1200
G1 X79.699 Y78.663 E0.15131
G1 X79.699 Y75.663 E0.09406
G1 X72.525 Y75.663 E0.22494
G1 X72.525 Y78.663 E0.09406
G1 X55.699 Y78.663 E0.52756
G1 X55.699 Y73.837 E0.15131
G1 X60.533 Y73.837 E0.15156
G1 X60.523 Y76.837 E0.09406
G1 X70.699 Y76.837 E0.31906
G1 X70.699 Y73.837 E0.09406
G1 X82.699 Y73.837 E0.37625
G1 X82.699 Y69.663 E0.13088
G1 X70.699 Y69.663 E0.37625
G1 X70.699 Y67.837 E0.05725
G1 X82.699 Y67.837 E0.37625
G1 X82.699 Y63.663 E0.13088
G1 X76.699 Y63.663 E0.18813
G1 X76.699 Y61.837 E0.05725
G1 X84.525 Y61.837 E0.24537
G1 X84.525 Y64.837 E0.09406
G1 X87.025 Y64.837 E0.07839
G1 X87.025 Y67.837 E0.09406
G1 X87.525 Y67.837 E0.01568
G1 X87.525 Y75.663 E0.24537
G1 X84.525 Y75.663 E0.09406
G1 X84.525 Y78.603 E0.09218
G1 F8640
G1 X81.234 Y78.644 E-0.76000
G1 E-0.04000 F2100.00000
G1 Z0.800 F10800.000
G1 X84.902 Y64.460
G1 Z0.200
G1 E0.80000 F2100.00000
G1 F1200
G1 X87.402 Y64.460 E0.07839
G1 X87.402 Y67.460 E0.09406
G1 X87.902 Y67.460 E0.01568
G1 X87.902 Y76.040 E0.26902
G1 X84.902 Y76.040 E0.09406
G1 X84.902 Y79.040 E0.09406
G1 X79.322 Y79.040 E0.17496
G1 X79.322 Y76.040 E0.09406
G1 X72.902 Y76.040 E0.20129
G1 X72.902 Y79.040 E0.09406
G1 X55.322 Y79.040 E0.55121
G1 X55.322 Y73.460 E0.17496
G1 X60.912 Y73.460 E0.17525
G1 X60.902 Y76.460 E0.09406
G1 X70.322 Y76.460 E0.29538
G1 X70.322 Y73.460 E0.09406
G1 X82.322 Y73.460 E0.37625
G1 X82.322 Y70.040 E0.10723
G1 X70.322 Y70.040 E0.37625
G1 X70.322 Y67.460 E0.08089
G1 X82.322 Y67.460 E0.37625
G1 X82.322 Y64.040 E0.10723
G1 X76.322 Y64.040 E0.18813
G1 X76.322 Y61.460 E0.08089
G1 X84.902 Y61.460 E0.26902
G1 X84.902 Y64.400 E0.09218
G1 X85.062 Y64.827 F10800.000
G1 F8640
G1 X87.402 Y64.460 E-0.57742
G1 X87.402 Y65.251 E-0.18258
G1 E-0.04000 F2100.00000
G1 Z0.800 F10800.000
G1 X85.699 Y60.663
G1 Z0.200
G1 E0.80000 F2100.00000
G1 F1200
G1 X85.699 Y58.837 E0.05725
G1 X87.525 Y58.837 E0.05725
G1 X87.525 Y60.663 E0.05725
G1 X85.759 Y60.663 E0.05537
G1 X85.322 Y61.040 F10800.000
G1 F1200
G1 X85.322 Y58.460 E0.08089
G1 X87.902 Y58.460 E0.08089
G1 X87.902 Y61.040 E0.08089
G1 X85.382 Y61.040 E0.07901
G1 X85.426 Y60.654 F10800.000
G1 F8640
G1 X85.322 Y58.460 E-0.59589
G1 X86.033 Y58.460 E-0.16411
G1 E-0.04000 F2100.00000
G1 Z0.800 F10800.000
G1 X84.525 Y57.663
G1 Z0.200
G1 E0.80000 F2100.00000
G1 F1200
G1 X70.699 Y57.663 E0.43350
G1 X70.699 Y55.837 E0.05725
G1 X84.525 Y55.837 E0.43350
G1 X84.525 Y57.603 E0.05537
G1 X84.902 Y58.040 F10800.000
G1 F1200
G1 X70.322 Y58.040 E0.45715
G1 X70.322 Y55.460 E0.08089
G1 X84.902 Y55.460 E0.45715
G1 X84.902 Y57.980 E0.07901
G1 X84.503 Y58.017 F10800.000
G1 F8640
G1 X81.611 Y57.994 E-0.76000
G1 E-0.04000 F2100.00000
G1 Z0.800 F10800.000
G1 X85.699 Y54.663
G1 Z0.200
G1 E0.80000 F2100.00000
G1 F1200
G1 X85.699 Y51.663 E0.09406
G1 X82.699 Y51.663 E0.09406
G1 X82.699 Y48.663 E0.09406
G1 X79.699 Y48.663 E0.09406
M73 Q0 S136
G1 X79.699 Y46.837 E0.05725
G1 X84.525 Y46.837 E0.15131
M73 P0 R135
G1 X84.525 Y49.837 E0.09406
G1 X87.025 Y49.837 E0.07839
G1 X87.025 Y54.663 E0.15131
G1 X85.759 Y54.663 E0.03969
G1 F8640
G1 X85.699 Y51.663 E-0.69285
G1 X85.408 Y51.663 E-0.06715
G1 E-0.04000 F2100.00000
G1 Z0.800 F10800.000
G1 X84.902 Y49.460
G1 Z0.200
G1 E0.80000 F2100.00000
G1 F1200
G1 X87.402 Y49.460 E0.07839
G1 X87.402 Y55.040 E0.17496
G1 X85.322 Y55.040 E0.06522
G1 X85.322 Y52.040 E0.09406
G1 X82.322 Y52.040 E0.09406
G1 X82.322 Y49.040 E0.09406
G1 X79.322 Y49.040 E0.09406
G1 X79.322 Y46.460 E0.08089
G1 X84.902 Y46.460 E0.17496
G1 X84.902 Y49.400 E0.09218
G1 X85.043 Y49.835 F10800.000
G1 F8640
G1 X87.402 Y49.460 E-0.57742
G1 X87.402 Y50.251 E-0.18258
G1 E-0.04000 F2100.00000
G1 Z0.800 F10800.000
G1 X85.699 Y45.663
G1 Z0.200
G1 E0.80000 F2100.00000
G1 F1200
G1 X85.699 Y43.837 E0.05725
G1 X87.525 Y43.837 E0.05725
G1 X87.525 Y45.663 E0.05725
G1 X85.759 Y45.663 E0.05537
G1 X85.322 Y46.040 F10800.000
G1 F1200
G1 X85.322 Y43.460 E0.08089
G1 X87.902 Y43.460 E0.08089
G1 X87.902 Y46.040 E0.08089
G1 X85.382 Y46.040 E0.07901
G1 X85.426 Y45.654 F10800.000
G1 F8640
G1 X85.322 Y43.460 E-0.59589
G1 X86.033 Y43.460 E-0.16411
G1 E-0.04000 F2100.00000
G1 Z0.800 F10800.000
G1 X75.525 Y46.837
G1 Z0.200
G1 E0.80000 F2100.00000
G1 F1200
G1 X75.525 Y51.663 E0.15131
G1 X70.699 Y51.663 E0.15131
G1 X70.699 Y48.663 E0.09406
G1 X67.699 Y48.663 E0.09406
G1 X67.699 Y43.837 E0.15131
G1 X72.525 Y43.837 E0.15131
G1 X72.525 Y46.837 E0.09406
G1 X75.465 Y46.837 E0.09218
G1 F8640
G1 X75.506 Y50.129 E-0.76000
G1 E-0.04000 F2100.00000
G1 Z0.800 F10800.000
G1 X72.902 Y46.460
G1 Z0.200
G1 E0.80000 F2100.00000
G1 F1200
G1 X75.902 Y46.460 E0.09406
G1 X75.902 Y52.040 E0.17496
G1 X70.322 Y52.040 E0.17496
G1 X70.322 Y49.040 E0.09406
G1 X67.322 Y49.040 E0.09406
G1 X67.322 Y43.460 E0.17496
G1 X72.902 Y43.460 E0.17496
G1 X72.902 Y46.400 E0.09218
G1 X73.043 Y46.835 F10800.000
G1 F8640
G1 X75.902 Y46.460 E-0.69285
G1 X75.902 Y46.751 E-0.06715
G1 E-0.04000 F2100.00000
G1 Z0.800 F10800.000
G1 X66.525 Y49.837
G1 Z0.200
G1 E0.80000 F2100.00000
G1 F1200
G1 X66.525 Y51.663 E0.05725
G1 X64.699 Y51.663 E0.05725
G1 X64.699 Y49.837 E0.05725
G1 X66.465 Y49.837 E0.05537
G1 X66.902 Y49.460 F10800.000
G1 F1200
G1 X66.902 Y52.040 E0.08089
G1 X64.322 Y52.040 E0.08089
G1 X64.322 Y49.460 E0.08089
G1 X66.842 Y49.460 E0.07901
G1 X66.799 Y49.847 F10800.000
G1 F8640
G1 X66.902 Y52.040 E-0.59589
G1 X66.192 Y52.040 E-0.16411
G1 E-0.04000 F2100.00000
G1 Z0.800 F10800.000
G1 X67.699 Y52.837
G1 Z0.200
G1 E0.80000 F2100.00000
G1 F1200
G1 X69.525 Y52.837 E0.05725
G1 X69.525 Y54.663 E0.05725
G1 X67.699 Y54.663 E0.05725
G1 X67.699 Y52.897 E0.05537
G1 X67.322 Y52.460 F10800.000
G1 F1200
G1 X69.902 Y52.460 E0.08089
G1 X69.902 Y55.040 E0.08089
G1 X67.322 Y55.040 E0.08089
G1 X67.322 Y52.520 E0.07901
G1 X67.709 Y52.564 F10800.000
G1 F8640
G1 X69.902 Y52.460 E-0.59589
G1 X69.902 Y53.171 E-0.16411
G1 E-0.04000 F2100.00000
G1 Z0.800 F10800.000
G1 X63.525 Y48.663
G1 Z0.200
G1 E0.80000 F2100.00000
G1 F1200
G1 X42.525 Y48.663 E0.65844
G1 X42.525 Y52.837 E0.13088
G1 X54.525 Y52.837 E0.37625
G1 X54.525 Y54.663 E0.05725
G1 X48.525 Y54.663 E0.18813
G1 X48.525 Y58.837 E0.13088
G1 X54.525 Y58.837 E0.18813
G1 X54.525 Y60.663 E0.05725
G1 X48.525 Y60.663 E0.18813
G1 X48.525 Y66.663 E0.18813
G1 X42.525 Y66.663 E0.18813
G1 X42.525 Y73.837 E0.22494
G1 X48.525 Y73.837 E0.18813
G1 X48.525 Y76.837 E0.09406
G1 X51.533 Y76.837 E0.09431
G1 X51.527 Y78.663 E0.05725
G1 X43.699 Y78.663 E0.24544
G1 X43.699 Y75.663 E0.09406
G1 X40.699 Y75.663 E0.09406
G1 X40.699 Y70.837 E0.15131
G1 X41.199 Y70.837 E0.01568
G1 X41.199 Y66.663 E0.13088
G1 X40.699 Y66.663 E0.01568
G1 X40.699 Y61.837 E0.15131
G1 X46.699 Y61.837 E0.18813
G1 X46.699 Y57.663 E0.13088
G1 X41.199 Y57.663 E0.17245
G1 X41.199 Y45.663 E0.37625
G1 X40.699 Y45.663 E0.01568
G1 X40.699 Y43.837 E0.05725
G1 X42.525 Y43.837 E0.05725
G1 X42.525 Y46.837 E0.09406
G1 X55.699 Y46.837 E0.41307
G1 X55.699 Y43.837 E0.09406
G1 X60.525 Y43.837 E0.15131
G1 X60.525 Y44.337 E0.01568
G1 X63.525 Y44.337 E0.09406
G1 X63.525 Y48.603 E0.13375
G1 F8640
G1 X60.234 Y48.613 E-0.76000
G1 E-0.04000 F2100.00000
G1 Z0.800 F10800.000
G1 X42.902 Y46.460
G1 Z0.200
G1 E0.80000 F2100.00000
G1 F1200
G1 X55.322 Y46.460 E0.38942
G1 X55.322 Y43.460 E0.09406
G1 X60.902 Y43.460 E0.17496
G1 X60.902 Y43.960 E0.01568
G1 X63.902 Y43.960 E0.09406
G1 X63.902 Y49.040 E0.15928
G1 X42.902 Y49.040 E0.65844
G1 X42.902 Y52.460 E0.10723
G1 X54.902 Y52.460 E0.37625
G1 X54.902 Y55.040 E0.08089
G1 X48.902 Y55.040 E0.18813
G1 X48.902 Y58.460 E0.10723
G1 X54.902 Y58.460 E0.18813
G1 X54.902 Y61.040 E0.08089
G1 X48.902 Y61.040 E0.18813
G1 X48.902 Y67.040 E0.18813
G1 X42.902 Y67.040 E0.18813
G1 X42.902 Y73.460 E0.20129
G1 X48.902 Y73.460 E0.18813
G1 X48.902 Y76.460 E0.09406
G1 X51.912 Y76.460 E0.09435
G1 X51.903 Y79.040 E0.08089
G1 X43.322 Y79.040 E0.26904
G1 X43.322 Y76.040 E0.09406
G1 X40.322 Y76.040 E0.09406
G1 X40.322 Y70.460 E0.17496
G1 X40.822 Y70.460 E0.01568
G1 X40.822 Y67.040 E0.10723
G1 X40.322 Y67.040 E0.01568
G1 X40.322 Y61.460 E0.17496
G1 X46.322 Y61.460 E0.18813
G1 X46.322 Y58.040 E0.10723
G1 X40.822 Y58.040 E0.17245
G1 X40.822 Y46.040 E0.37625
G1 X40.322 Y46.040 E0.01568
G1 X40.322 Y43.460 E0.08089
G1 X42.902 Y43.460 E0.08089
G1 X42.902 Y46.400 E0.09218
G1 X42.996 Y46.849 F10800.000
G1 F8640
G1 X46.194 Y46.416 E-0.76000
G1 E-0.04000 F2100.00000
G1 Z0.800 F10800.000
G1 X42.525 Y79.837
G1 Z0.200
G1 E0.80000 F2100.00000
G1 F1200
G1 X42.525 Y82.837 E0.09406
G1 X45.525 Y82.837 E0.09406
G1 X45.525 Y85.839 E0.09412
G1 X48.525 Y85.829 E0.09406
G1 X48.525 Y87.663 E0.05750
G1 X41.199 Y87.663 E0.22970
G1 X41.199 Y79.837 E0.24537
G1 X42.465 Y79.837 E0.03969
G1 F8640
G1 X42.525 Y82.837 E-0.69285
G1 X42.816 Y82.837 E-0.06715
G1 E-0.04000 F2100.00000
G1 Z0.800 F10800.000
G1 X42.902 Y82.460
G1 Z0.200
G1 E0.80000 F2100.00000
G1 F1200
G1 X45.902 Y82.460 E0.09406
G1 X45.902 Y85.461 E0.09408
G1 X48.902 Y85.451 E0.09406
G1 X48.902 Y88.040 E0.08119
G1 X40.822 Y88.040 E0.25334
G1 X40.822 Y79.460 E0.26902
G1 X42.902 Y79.460 E0.06522
G1 X42.902 Y82.400 E0.09218
G1 X42.983 Y82.852 F10800.000
G1 X42.242 Y82.704
G1 F1200
G1 X41.987 Y82.448 E0.01131
G1 X41.482 Y82.954 E0.02240
G1 X41.482 Y83.010 F10800.000
G1 F1200
G1 X41.721 Y83.248 E0.01057
G1 X41.482 Y83.487 E0.01057
G1 X41.482 Y84.076 F10800.000
G1 F1200
G1 X41.721 Y84.315 E0.01057
G1 X41.482 Y84.553 E0.01057
G1 X41.482 Y85.143 F10800.000
G1 F1200
G1 X41.721 Y85.381 E0.01057
G1 X41.987 Y85.115 E0.01182
G1 X41.721 Y84.848 E0.01182
G1 X41.987 Y84.582 E0.01182
G1 X42.520 Y85.115 E0.02365
G1 X42.254 Y85.381 E0.01182
G1 X42.520 Y85.648 E0.01182
G1 X43.054 Y85.115 E0.02365
G1 X42.787 Y84.848 E0.01182
G1 X43.054 Y84.582 E0.01182
G1 X43.320 Y84.848 E0.01182
G1 X43.854 Y84.315 E0.02365
G1 X43.587 Y84.048 E0.01182
G1 X43.320 Y84.315 E0.01182
G1 X43.054 Y84.048 E0.01182
G1 X43.320 Y83.782 E0.01182
G1 X43.054 Y83.515 E0.01182
G1 X42.520 Y84.048 E0.02365
G1 X42.787 Y84.315 E0.01182
G1 X42.520 Y84.582 E0.01182
G1 X41.721 Y83.782 E0.03547
G1 X41.987 Y83.515 E0.01182
G1 X42.254 Y83.782 E0.01182
G1 X42.787 Y83.248 E0.02365
G1 X42.659 Y83.120 E0.00569
G1 X42.382 Y83.120 F10800.000
G1 F1200
G1 X42.254 Y83.248 E0.00569
G1 X41.987 Y82.982 E0.01182
G1 X42.242 Y82.727 E0.01131
G1 X41.482 Y82.420 F10800.000
G1 F1200
G1 X41.721 Y82.182 E0.01057
G1 X41.482 Y81.943 E0.01057
G1 X41.482 Y81.354 F10800.000
G1 F1200
G1 X41.721 Y81.115 E0.01057
G1 X41.987 Y81.382 E0.01182
G1 X41.721 Y81.649 E0.01182
G1 X41.987 Y81.915 E0.01182
G1 X42.242 Y81.660 E0.01131
G1 F8640
G1 X41.987 Y81.915 E-0.08333
