; generated by Slic3r Prusa Edition 1.41.0+win64 on 2018-11-05 at 11:16:11

; 

; external perimeters extrusion width = 0.45mm
; perimeters extrusion width = 0.45mm
; infill extrusion width = 0.45mm
; solid infill extrusion width = 0.45mm
; top infill extrusion width = 0.40mm
; support material extrusion width = 0.35mm
; first layer extrusion width = 0.42mm

M201 X1000 Y1000 Z1000 E5000 ; sets maximum accelerations, mm/sec^2
M203 X200 Y200 Z12 E120 ; sets maximum feedrates, mm/sec
M204 P1250 R1250 T1250 ; sets acceleration (P, T) and retract acceleration (R), mm/sec^2
M205 X8.00 Y8.00 Z0.40 E1.50 ; sets the jerk limits, mm/sec
M205 S0 T0 ; sets the minimum extruding and travel feed rate, mm/sec
M107
M115 U3.4.1 ; tell printer latest fw version
M83  ; extruder relative mode
M104 S230 ; set extruder temp
M140 S85 ; set bed temp
M190 S85 ; wait for bed temp
M109 S230 ; wait for extruder temp
G28 W ; home all without mesh bed level
G80 ; mesh bed leveling
G1 Y-3.0 F1000.0 ; go outside print area
G92 E0.0
G1 X60.0 E9.0  F1000.0 ; intro line
M73 Q0 S12
M73 P0 R12
G1 X100.0 E12.5  F1000.0 ; intro line
G92 E0.0
M221 S95
M900 K45; Filament gcode
G21 ; set units to millimeters
G90 ; use absolute coordinates
M83 ; use relative distances for extrusion
;BEFORE_LAYER_CHANGE
G92 E0.0
;0.2


G1 E-0.80000 F2100.00000
G1 Z0.600 F10800.000
;AFTER_LAYER_CHANGE
;0.2
G1 X93.813 Y94.262
G1 Z0.200
G1 E0.80000 F2100.00000
M204 S1000
G1 F1200
G1 X94.801 Y93.468 E0.03976
G1 X95.976 Y92.975 E0.03992
G1 X97.124 Y92.825 E0.03632
G1 X155.208 Y92.825 E1.82118
G1 X156.063 Y92.906 E0.02694
G1 X156.888 Y93.145 E0.02694
G1 X157.654 Y93.535 E0.02694
G1 X158.337 Y94.065 E0.02710
G1 X158.907 Y94.715 E0.02710
G1 X159.343 Y95.455 E0.02694
G1 X159.632 Y96.264 E0.02694
G1 X159.765 Y97.118 E0.02710
G1 X159.773 Y108.141 E0.34561
G1 X159.666 Y109.089 E0.02990
G1 X159.233 Y110.258 E0.03910
G1 X158.500 Y111.267 E0.03910
G1 X157.521 Y112.040 E0.03910
G1 X156.370 Y112.519 E0.03910
G1 X155.464 Y112.662 E0.02875
G1 X126.992 Y114.204 E0.89402
G1 X126.012 Y114.204 E0.03074
G1 X96.471 Y112.621 E0.92757
G1 X95.202 Y112.239 E0.04156
G1 X94.095 Y111.508 E0.04156
G1 X93.246 Y110.491 E0.04156
G1 X92.723 Y109.267 E0.04173
G1 X92.572 Y108.130 E0.03599
G1 X92.572 Y97.359 E0.33771
G1 X92.660 Y96.499 E0.02710
G1 X93.078 Y95.301 E0.03976
G1 X93.778 Y94.311 E0.03804
G1 X94.082 Y94.525 F10800.000
G1 F1200
G1 X95.002 Y93.787 E0.03697
G1 X96.096 Y93.333 E0.03713
G1 X97.126 Y93.202 E0.03257
G1 X155.208 Y93.202 E1.82111
G1 X155.997 Y93.277 E0.02485
G1 X156.758 Y93.499 E0.02485
G1 X157.463 Y93.861 E0.02485
G1 X158.088 Y94.349 E0.02485
G1 X158.609 Y94.946 E0.02485
G1 X159.009 Y95.630 E0.02485
G1 X159.272 Y96.378 E0.02485
G1 X159.390 Y97.162 E0.02485
G1 X159.396 Y108.134 E0.34404
G1 X159.307 Y108.963 E0.02611
G1 X158.915 Y110.053 E0.03635
G1 X158.235 Y110.998 E0.03650
G1 X157.326 Y111.717 E0.03635
G1 X156.250 Y112.161 E0.03650
G1 X155.441 Y112.286 E0.02564
G1 X126.047 Y113.829 E0.92292
G1 X96.549 Y112.251 E0.92621
G1 X95.370 Y111.902 E0.03854
G1 X94.344 Y111.225 E0.03854
G1 X93.558 Y110.280 E0.03854
G1 X93.081 Y109.147 E0.03854
G1 X92.949 Y108.127 E0.03226
G1 X92.949 Y97.365 E0.33742
G1 X93.023 Y96.606 E0.02391
G1 X93.405 Y95.490 E0.03697
G1 X94.048 Y94.574 E0.03509
; PURGING FINISHED
G1 F8640
G1 X95.002 Y93.787 E-0.28562
G1 X96.096 Y93.333 E-0.27344
G1 X96.959 Y93.223 E-0.20095
G1 E-0.04000 F2100.00000
G1 Z0.800 F10800.000
G1 X97.138 Y108.104
G1 Z0.200
G1 E0.80000 F2100.00000
G1 F1200
G1 X97.138 Y97.390 E0.33592
G1 X97.892 Y97.390 E0.02365
G1 X97.892 Y107.934 E0.33060
G1 X98.646 Y107.934 E0.02365
G1 X98.646 Y97.390 E0.33060
G1 X99.400 Y97.390 E0.02365
G1 X99.400 Y107.934 E0.33060
G1 X100.154 Y107.934 E0.02365
G1 X100.154 Y97.390 E0.33060
G1 X100.908 Y97.390 E0.02365
G1 X100.908 Y107.934 E0.33060
G1 X101.662 Y107.934 E0.02365
G1 X101.662 Y97.390 E0.33060
G1 X102.417 Y97.390 E0.02365
G1 X102.417 Y107.934 E0.33060
G1 X103.171 Y107.934 E0.02365
G1 X103.171 Y97.390 E0.33060
G1 X103.925 Y97.390 E0.02365
G1 X103.925 Y107.934 E0.33060
G1 X104.679 Y107.934 E0.02365
G1 X104.679 Y97.390 E0.33060
G1 X105.433 Y97.390 E0.02365
G1 X105.433 Y107.934 E0.33060
G1 X106.187 Y107.934 E0.02365
G1 X106.187 Y97.390 E0.33060
G1 X106.942 Y97.390 E0.02365
G1 X106.942 Y107.934 E0.33060
G1 X107.696 Y107.934 E0.02365
G1 X107.696 Y97.390 E0.33060
G1 X108.450 Y97.390 E0.02365
G1 X108.450 Y107.934 E0.33060
G1 X109.204 Y107.934 E0.02365
G1 X109.204 Y97.390 E0.33060
G1 X109.958 Y97.390 E0.02365
G1 X109.958 Y107.934 E0.33060
G1 X110.712 Y107.934 E0.02365
G1 X110.712 Y97.390 E0.33060
G1 X111.467 Y97.390 E0.02365
G1 X111.467 Y107.934 E0.33060
G1 X112.221 Y107.934 E0.02365
G1 X112.221 Y97.390 E0.33060
G1 X112.975 Y97.390 E0.02365
G1 X112.975 Y107.934 E0.33060
G1 X113.729 Y107.934 E0.02365
G1 X113.729 Y97.390 E0.33060
G1 X114.483 Y97.390 E0.02365
G1 X114.483 Y107.934 E0.33060
G1 X115.237 Y107.934 E0.02365
G1 X115.237 Y97.390 E0.33060
G1 X115.991 Y97.390 E0.02365
G1 X115.991 Y107.934 E0.33060
G1 X116.746 Y107.934 E0.02365
G1 X116.746 Y97.390 E0.33060
G1 X117.500 Y97.390 E0.02365
G1 X117.500 Y107.934 E0.33060
G1 X118.254 Y107.934 E0.02365
G1 X118.254 Y97.390 E0.33060
G1 X119.008 Y97.390 E0.02365
G1 X119.008 Y107.934 E0.33060
G1 X119.762 Y107.934 E0.02365
G1 X119.762 Y97.390 E0.33060
G1 X120.516 Y97.390 E0.02365
G1 X120.516 Y107.934 E0.33060
G1 X121.271 Y107.934 E0.02365
G1 X121.271 Y97.390 E0.33060
G1 X122.025 Y97.390 E0.02365
G1 X122.025 Y107.934 E0.33060
G1 X122.779 Y107.934 E0.02365
G1 X122.779 Y97.390 E0.33060
G1 X123.533 Y97.390 E0.02365
G1 X123.533 Y99.942 E0.08000
G1 X124.287 Y99.942 E0.02365
G1 X124.287 Y97.390 E0.08000
G1 X125.041 Y97.390 E0.02365
G1 X125.041 Y99.942 E0.08000
G1 X125.796 Y99.942 E0.02365
G1 X125.796 Y97.390 E0.08000
G1 X126.550 Y97.390 E0.02365
G1 X126.550 Y99.942 E0.08000
G1 X127.304 Y99.942 E0.02365
G1 X127.304 Y97.390 E0.08000
G1 X128.058 Y97.390 E0.02365
G1 X128.058 Y99.942 E0.08000
G1 X128.812 Y99.942 E0.02365
G1 X128.812 Y97.390 E0.08000
G1 X129.566 Y97.390 E0.02365
G1 X129.566 Y99.942 E0.08000
G1 X129.771 Y99.942 E0.00643
G1 X130.014 Y100.184 E0.01074
G1 X130.014 Y106.564 E0.20004
G1 X129.963 Y107.150 E0.01846
G1 X129.829 Y107.680 E0.01712
G1 X129.720 Y107.934 E0.00867
G1 X130.321 Y107.934 E0.01882
G1 X130.321 Y97.390 E0.33060
G1 X131.075 Y97.390 E0.02365
G1 X131.075 Y107.934 E0.33060
G1 X131.829 Y107.934 E0.02365
G1 X131.829 Y97.390 E0.33060
G1 X132.583 Y97.390 E0.02365
G1 X132.583 Y107.934 E0.33060
G1 X133.337 Y107.934 E0.02365
G1 X133.337 Y97.390 E0.33060
G1 X134.091 Y97.390 E0.02365
G1 X134.091 Y107.934 E0.33060
G1 X134.845 Y107.934 E0.02365
G1 X134.845 Y97.390 E0.33060
G1 X135.600 Y97.390 E0.02365
G1 X135.600 Y107.934 E0.33060
G1 X136.354 Y107.934 E0.02365
G1 X136.354 Y97.390 E0.33060
G1 X137.108 Y97.390 E0.02365
G1 X137.108 Y107.934 E0.33060
G1 X137.862 Y107.934 E0.02365
G1 X137.862 Y97.390 E0.33060
G1 X138.616 Y97.390 E0.02365
G1 X138.616 Y107.934 E0.33060
G1 X139.370 Y107.934 E0.02365
G1 X139.370 Y97.390 E0.33060
G1 X140.125 Y97.390 E0.02365
G1 X140.125 Y107.934 E0.33060
G1 X140.879 Y107.934 E0.02365
G1 X140.879 Y97.390 E0.33060
G1 X141.633 Y97.390 E0.02365
G1 X141.633 Y107.934 E0.33060
G1 X142.387 Y107.934 E0.02365
G1 X142.387 Y97.390 E0.33060
G1 X143.141 Y97.390 E0.02365
G1 X143.141 Y107.934 E0.33060
G1 X143.895 Y107.934 E0.02365
G1 X143.895 Y97.390 E0.33060
G1 X144.650 Y97.390 E0.02365
G1 X144.650 Y107.934 E0.33060
G1 X145.404 Y107.934 E0.02365
G1 X145.404 Y97.390 E0.33060
G1 X146.158 Y97.390 E0.02365
G1 X146.158 Y107.934 E0.33060
G1 X146.912 Y107.934 E0.02365
G1 X146.912 Y97.390 E0.33060
G1 X147.666 Y97.390 E0.02365
G1 X147.666 Y107.934 E0.33060
G1 X148.420 Y107.934 E0.02365
G1 X148.420 Y97.390 E0.33060
G1 X149.174 Y97.390 E0.02365
G1 X149.174 Y107.934 E0.33060
G1 X149.929 Y107.934 E0.02365
G1 X149.929 Y97.390 E0.33060
G1 X150.683 Y97.390 E0.02365
G1 X150.683 Y107.934 E0.33060
G1 X151.437 Y107.934 E0.02365
G1 X151.437 Y97.390 E0.33060
G1 X152.191 Y97.390 E0.02365
G1 X152.191 Y107.934 E0.33060
M73 Q9 S11
M73 P9 R11
G1 X152.945 Y107.934 E0.02365
G1 X152.945 Y97.390 E0.33060
G1 X153.699 Y97.390 E0.02365
G1 X153.699 Y107.934 E0.33060
G1 X154.454 Y107.934 E0.02365
G1 X154.454 Y97.390 E0.33060
G1 X155.208 Y97.390 E0.02365
G1 X155.208 Y108.104 E0.33592
G1 F8640
G1 X155.208 Y104.813 E-0.76000
G1 E-0.04000 F2100.00000
G1 Z0.800 F10800.000
G1 X123.610 Y100.565
G1 Z0.200
G1 E0.80000 F2100.00000
G1 F1200
G1 X129.390 Y100.565 E0.18123
G1 X129.390 Y106.547 E0.18754
G1 X129.350 Y107.031 E0.01524
G1 X129.233 Y107.493 E0.01496
G1 X129.041 Y107.930 E0.01496
G1 X128.783 Y108.325 E0.01479
G1 X128.457 Y108.681 E0.01514
G1 X128.080 Y108.974 E0.01496
G1 X127.661 Y109.201 E0.01496
G1 X127.209 Y109.356 E0.01496
G1 X126.739 Y109.435 E0.01496
G1 X126.261 Y109.435 E0.01496
G1 X125.791 Y109.356 E0.01496
G1 X125.339 Y109.201 E0.01496
G1 X124.920 Y108.974 E0.01496
G1 X124.543 Y108.681 E0.01496
G1 X124.220 Y108.330 E0.01496
G1 X123.959 Y107.930 E0.01496
G1 X123.767 Y107.493 E0.01496
G1 X123.650 Y107.031 E0.01496
G1 X123.610 Y106.547 E0.01524
G1 X123.610 Y100.625 E0.18566
G1 X123.957 Y100.765 F10800.000
G1 X123.987 Y100.942
G1 F1200
G1 X129.013 Y100.942 E0.15758
G1 X129.013 Y106.531 E0.17523
G1 X128.977 Y106.969 E0.01377
G1 X128.875 Y107.371 E0.01300
G1 X128.708 Y107.750 E0.01300
G1 X128.484 Y108.093 E0.01284
G1 X128.200 Y108.403 E0.01318
G1 X127.873 Y108.657 E0.01299
G1 X127.509 Y108.855 E0.01300
G1 X127.116 Y108.989 E0.01300
G1 X126.707 Y109.058 E0.01300
G1 X126.293 Y109.058 E0.01300
G1 X125.884 Y108.989 E0.01300
G1 X125.491 Y108.855 E0.01300
G1 X125.127 Y108.657 E0.01300
G1 X124.799 Y108.403 E0.01300
G1 X124.519 Y108.098 E0.01300
G1 X124.292 Y107.750 E0.01300
G1 X124.125 Y107.371 E0.01300
G1 X124.023 Y106.969 E0.01300
G1 X123.987 Y106.531 E0.01377
G1 X123.987 Y101.002 E0.17335
G1 F8640
G1 X127.278 Y100.963 E-0.76000
G1 E-0.04000 F2100.00000
G1 Z0.800 F10800.000
G1 X128.900 Y101.829
G1 Z0.200
G1 E0.80000 F2100.00000
G1 F1200
G1 X128.296 Y101.225 E0.02713
G1 X127.756 Y101.225 E0.01718
G1 X128.730 Y102.200 E0.04380
G1 X128.730 Y102.740 E0.01718
G1 X127.215 Y101.225 E0.06809
G1 X126.675 Y101.225 E0.01718
G1 X128.730 Y103.281 E0.09239
G1 X128.730 Y103.821 E0.01718
G1 X126.134 Y101.225 E0.11668
G1 X125.594 Y101.225 E0.01718
G1 X128.730 Y104.362 E0.14098
G1 X128.730 Y104.902 E0.01718
G1 X125.053 Y101.225 E0.16528
G1 X124.512 Y101.225 E0.01718
G1 X128.730 Y105.443 E0.18957
G1 X128.730 Y105.983 E0.01718
G1 X124.270 Y101.523 E0.20048
G1 X124.270 Y102.064 E0.01718
G1 X128.730 Y106.524 E0.20046
G1 X128.675 Y107.009 E0.01553
G1 X124.270 Y102.604 E0.19798
G1 X124.270 Y103.145 E0.01718
G1 X128.545 Y107.420 E0.19214
G1 X128.459 Y107.615 E0.00679
G1 X128.356 Y107.772 E0.00595
G1 X124.270 Y103.685 E0.18368
G1 X124.270 Y104.226 E0.01718
G1 X128.118 Y108.074 E0.17297
G1 X128.008 Y108.194 E0.00519
G1 X127.833 Y108.330 E0.00702
G1 X124.270 Y104.766 E0.16017
G1 X124.270 Y105.307 E0.01718
G1 X127.500 Y108.538 E0.14521
G1 X127.395 Y108.595 E0.00382
G1 X127.114 Y108.691 E0.00944
G1 X124.270 Y105.848 E0.12782
G1 X124.270 Y106.388 E0.01718
G1 X126.657 Y108.775 E0.10728
G1 X126.316 Y108.775 E0.01082
G1 X126.076 Y108.735 E0.00774
G1 X124.121 Y106.780 E0.08786
G1 X124.309 Y107.509 F10800.000
G1 F1200
G1 X125.559 Y108.758 E0.05618
;BEFORE_LAYER_CHANGE
G92 E0.0
;0.4


G1 F8640
G1 X124.309 Y107.509 E-0.40813
G1 E-0.39187 F2100.00000
G1 Z0.800 F10800.000
;AFTER_LAYER_CHANGE
;0.4
M104 S240 ; set temperature
M140 S90 ; set bed temperature
; PURGING FINISHED
G1 X124.032 Y100.987
G1 Z0.400
G1 E0.80000 F2100.00000
M204 S800
G1 F900
G1 X128.968 Y100.987 E0.16707
G1 X128.968 Y106.529 E0.18758
G1 X128.932 Y106.961 E0.01467
G1 X128.836 Y107.341 E0.01326
G1 X128.668 Y107.730 E0.01435
G1 X128.446 Y108.070 E0.01373
G1 X128.170 Y108.369 E0.01378
G1 X127.849 Y108.620 E0.01378
G1 X127.490 Y108.813 E0.01378
G1 X127.105 Y108.946 E0.01378
G1 X126.704 Y109.013 E0.01378
G1 X126.296 Y109.013 E0.01378
G1 X125.895 Y108.946 E0.01378
G1 X125.510 Y108.813 E0.01378
G1 X125.151 Y108.620 E0.01378
G1 X124.830 Y108.369 E0.01378
G1 X124.554 Y108.070 E0.01378
G1 X124.331 Y107.729 E0.01378
G1 X124.168 Y107.356 E0.01378
G1 X124.068 Y106.961 E0.01378
G1 X124.032 Y106.529 E0.01467
G1 X124.032 Y101.047 E0.18555
M204 S1000
G1 X123.625 Y100.580 F10800.000
M204 S800
G1 F900
G1 X129.375 Y100.580 E0.19463
G1 X129.375 Y106.546 E0.20193
G1 X129.335 Y107.028 E0.01638
G1 X129.223 Y107.473 E0.01551
G1 X129.027 Y107.924 E0.01664
G1 X128.768 Y108.321 E0.01605
G1 X128.447 Y108.670 E0.01607
G1 X128.072 Y108.962 E0.01607
G1 X127.655 Y109.187 E0.01607
G1 X127.206 Y109.342 E0.01607
G1 X126.737 Y109.420 E0.01607
G1 X126.263 Y109.420 E0.01607
G1 X125.794 Y109.342 E0.01607
G1 X125.345 Y109.187 E0.01607
G1 X124.928 Y108.962 E0.01607
G1 X124.553 Y108.670 E0.01607
G1 X124.232 Y108.321 E0.01607
G1 X123.972 Y107.923 E0.01607
G1 X123.782 Y107.489 E0.01607
G1 X123.665 Y107.028 E0.01607
G1 X123.625 Y106.546 E0.01638
G1 X123.625 Y100.640 E0.19990
M204 S1000
G1 X123.972 Y100.780 F10800.000
G1 F8640
G1 X126.916 Y100.606 E-0.76000
G1 E-0.04000 F2100.00000
G1 Z1.000 F10800.000
G1 X124.995 Y101.109
G1 Z0.400
G1 E0.80000 F2100.00000
M204 S1250
G1 F900
G1 X124.337 Y101.768 E0.03217
G1 X124.337 Y102.356 E0.02033
G1 X125.400 Y101.293 E0.05197
G1 X125.988 Y101.293 E0.02033
G1 X124.337 Y102.944 E0.08072
G1 X124.337 Y103.532 E0.02033
G1 X126.576 Y101.293 E0.10947
G1 X127.164 Y101.293 E0.02033
G1 X124.337 Y104.120 E0.13822
G1 X124.337 Y104.708 E0.02033
G1 X127.752 Y101.293 E0.16697
G1 X128.340 Y101.293 E0.02033
G1 X124.337 Y105.296 E0.19572
G1 X124.337 Y105.884 E0.02033
G1 X128.663 Y101.558 E0.21147
G1 X128.663 Y102.146 E0.02033
G1 X124.337 Y106.472 E0.21147
G1 X124.370 Y106.911 E0.01522
G1 X124.394 Y107.003 E0.00331
G1 X128.663 Y102.734 E0.20873
G1 X128.663 Y103.322 E0.02033
G1 X124.540 Y107.445 E0.20156
G1 X124.601 Y107.583 E0.00522
G1 X124.755 Y107.818 E0.00972
G1 X128.663 Y103.910 E0.19107
G1 X128.663 Y104.498 E0.02033
G1 X125.028 Y108.133 E0.17772
G1 X125.362 Y108.387 E0.01451
G1 X128.663 Y105.086 E0.16136
G1 X128.663 Y105.674 E0.02033
G1 X125.760 Y108.577 E0.14190
G1 X125.970 Y108.649 E0.00766
G1 X126.233 Y108.692 E0.00921
G1 X128.663 Y106.262 E0.11881
G1 X128.632 Y106.881 E0.02140
G1 X126.623 Y108.891 E0.09827
M204 S1000
G1 X127.378 Y108.723 F10800.000
M204 S1250
G1 F900
G1 X128.659 Y107.442 E0.06264
M204 S1000
;BEFORE_LAYER_CHANGE
G92 E0.0
;0.42


G1 F8640
G1 X127.378 Y108.723 E-0.41833
G1 E-0.38167 F2100.00000
G1 Z1.000 F10800.000
;AFTER_LAYER_CHANGE
;0.42
; PURGING FINISHED
G1 X129.840 Y104.969
G1 Z0.420
G1 E0.80000 F2100.00000
G1 F900
G1 X152.463 Y104.969 E0.62652
G1 X152.463 Y102.662 E0.06389
G1 X129.979 Y102.662 E0.62269
G1 X129.979 Y100.355 E0.06389
G1 X152.601 Y100.355 E0.62652
G1 F8640
G1 X149.310 Y100.355 E-0.76000
G1 E-0.04000 F2100.00000
G1 Z1.020 F10800.000
G1 X123.160 Y100.355
G1 Z0.420
G1 E0.80000 F2100.00000
G1 F900
G1 X99.400 Y100.355 E0.65801
G1 X99.400 Y102.662 E0.06389
G1 X123.021 Y102.662 E0.65419
G1 X123.021 Y104.969 E0.06389
G1 X99.262 Y104.969 E0.65801
;BEFORE_LAYER_CHANGE
G92 E0.0
;0.6


G1 F8640
G1 X102.553 Y104.969 E-0.76000
G1 E-0.04000 F2100.00000
G1 Z1.020 F10800.000
;AFTER_LAYER_CHANGE
;0.6
; PURGING FINISHED
G1 X124.032 Y100.987
G1 Z0.600
G1 E0.80000 F2100.00000
M204 S800
G1 F900
G1 X128.968 Y100.987 E0.16707
G1 X128.968 Y106.529 E0.18758
G1 X128.932 Y106.961 E0.01467
G1 X128.832 Y107.356 E0.01378
G1 X128.669 Y107.729 E0.01378
G1 X128.460 Y108.048 E0.01292
G1 X128.168 Y108.371 E0.01473
G1 X127.849 Y108.620 E0.01369
G1 X127.490 Y108.813 E0.01378
G1 X127.105 Y108.946 E0.01378
G1 X126.704 Y109.013 E0.01378
G1 X126.296 Y109.013 E0.01378
G1 X125.920 Y108.950 E0.01292
G1 X125.507 Y108.812 E0.01473
G1 X125.151 Y108.620 E0.01369
G1 X124.830 Y108.369 E0.01378
G1 X124.554 Y108.070 E0.01378
G1 X124.331 Y107.729 E0.01378
G1 X124.168 Y107.356 E0.01378
G1 X124.068 Y106.961 E0.01378
G1 X124.032 Y106.529 E0.01467
G1 X124.032 Y101.047 E0.18555
M204 S1000
G1 X123.625 Y100.580 F10800.000
M204 S800
G1 F900
G1 X129.375 Y100.580 E0.19463
G1 X129.375 Y106.546 E0.20193
