; generated by Slic3r Prusa Edition 1.41.0+win64 on 2018-11-05 at 11:48:48

; 

; external perimeters extrusion width = 0.45mm
; perimeters extrusion width = 0.45mm
; infill extrusion width = 0.45mm
; solid infill extrusion width = 0.45mm
; top infill extrusion width = 0.40mm
; support material extrusion width = 0.35mm
; first layer extrusion width = 0.42mm

M201 X1000 Y1000 Z1000 E5000 ; sets maximum accelerations, mm/sec^2
M203 X200 Y200 Z12 E120 ; sets maximum feedrates, mm/sec
M204 P1250 R1250 T1250 ; sets acceleration (P, T) and retract acceleration (R), mm/sec^2
M205 X8.00 Y8.00 Z0.40 E1.50 ; sets the jerk limits, mm/sec
M205 S0 T0 ; sets the minimum extruding and travel feed rate, mm/sec
M107
M115 U3.4.1 ; tell printer latest fw version
M83  ; extruder relative mode
M104 S230 ; set extruder temp
M140 S85 ; set bed temp
M190 S85 ; wait for bed temp
M109 S230 ; wait for extruder temp
G28 W ; home all without mesh bed level
G80 ; mesh bed leveling
G1 Y-3.0 F1000.0 ; go outside print area
G92 E0.0
G1 X60.0 E9.0  F1000.0 ; intro line
M73 Q0 S14
M73 P0 R14
G1 X100.0 E12.5  F1000.0 ; intro line
G92 E0.0
M221 S95
M900 K45; Filament gcode
G21 ; set units to millimeters
G90 ; use absolute coordinates
M83 ; use relative distances for extrusion
;BEFORE_LAYER_CHANGE
G92 E0.0
;0.2


G1 E-0.80000 F2100.00000
G1 Z0.600 F10800.000
;AFTER_LAYER_CHANGE
;0.2
G1 X30.745 Y26.623
G1 Z0.200
G1 E0.80000 F2100.00000
M204 S1000
G1 F1200
G1 X31.020 Y25.670 E0.03108
G1 X31.417 Y24.762 E0.03109
G1 X31.930 Y23.913 E0.03109
G1 X32.549 Y23.139 E0.03109
G1 X33.264 Y22.452 E0.03109
G1 X34.063 Y21.865 E0.03109
G1 X34.932 Y21.387 E0.03108
G1 X35.855 Y21.027 E0.03109
G1 X36.959 Y20.767 E0.03555
G1 X38.096 Y20.675 E0.03576
G1 X103.142 Y20.675 E2.03949
G1 X104.547 Y20.808 E0.04425
G1 X105.897 Y21.197 E0.04404
G1 X107.151 Y21.829 E0.04404
G1 X108.267 Y22.682 E0.04404
G1 X109.207 Y23.726 E0.04404
G1 X109.936 Y24.927 E0.04404
G1 X110.432 Y26.241 E0.04404
G1 X110.676 Y27.624 E0.04404
G1 X110.700 Y41.343 E0.43014
G1 X110.637 Y42.223 E0.02768
G1 X110.471 Y43.091 E0.02768
G1 X110.179 Y44.002 E0.03002
G1 X109.771 Y44.876 E0.03023
G1 X109.258 Y45.685 E0.03002
G1 X108.643 Y46.428 E0.03023
G1 X107.939 Y47.086 E0.03023
G1 X107.162 Y47.646 E0.03002
G1 X106.315 Y48.106 E0.03023
G1 X105.416 Y48.455 E0.03023
G1 X104.312 Y48.714 E0.03555
G1 X103.175 Y48.806 E0.03576
G1 X37.633 Y48.790 E2.05503
G1 X36.510 Y48.630 E0.03555
G1 X35.431 Y48.307 E0.03534
G1 X34.405 Y47.823 E0.03555
G1 X33.464 Y47.192 E0.03555
G1 X32.631 Y46.432 E0.03534
G1 X31.918 Y45.551 E0.03555
G1 X31.343 Y44.573 E0.03555
G1 X30.922 Y43.521 E0.03555
G1 X30.664 Y42.431 E0.03512
G1 X30.570 Y41.321 E0.03491
G1 X30.570 Y28.152 E0.41290
G1 X30.738 Y26.682 E0.04640
G1 X31.108 Y26.729 F10800.000
G1 F1200
G1 X31.367 Y25.818 E0.02968
G1 X31.747 Y24.944 E0.02988
G1 X32.236 Y24.134 E0.02968
G1 X32.831 Y23.389 E0.02988
G1 X33.514 Y22.734 E0.02968
G1 X34.284 Y22.171 E0.02988
G1 X35.114 Y21.718 E0.02968
G1 X36.004 Y21.376 E0.02988
G1 X37.035 Y21.137 E0.03320
G1 X38.098 Y21.052 E0.03341
G1 X103.142 Y21.052 E2.03942
G1 X104.472 Y21.178 E0.04189
G1 X105.756 Y21.547 E0.04189
G1 X106.955 Y22.151 E0.04210
G1 X108.016 Y22.963 E0.04189
G1 X108.909 Y23.958 E0.04189
G1 X109.602 Y25.100 E0.04189
G1 X110.071 Y26.351 E0.04189
G1 X110.302 Y27.674 E0.04210
G1 X110.323 Y41.327 E0.42809
G1 X110.115 Y42.959 E0.05160
G1 X109.836 Y43.843 E0.02906
G1 X109.449 Y44.678 E0.02885
G1 X108.954 Y45.461 E0.02906
G1 X108.368 Y46.170 E0.02885
G1 X107.695 Y46.798 E0.02885
G1 X106.942 Y47.338 E0.02906
G1 X106.132 Y47.775 E0.02885
G1 X105.267 Y48.106 E0.02906
G1 X104.229 Y48.346 E0.03341
G1 X103.167 Y48.429 E0.03341
G1 X37.679 Y48.415 E2.05333
G1 X36.604 Y48.264 E0.03403
G1 X35.570 Y47.956 E0.03382
G1 X34.588 Y47.493 E0.03403
G1 X33.688 Y46.888 E0.03403
G1 X32.893 Y46.159 E0.03382
G1 X32.212 Y45.314 E0.03403
G1 X31.669 Y44.382 E0.03382
G1 X31.270 Y43.372 E0.03403
G1 X31.034 Y42.354 E0.03279
G1 X30.947 Y41.312 E0.03279
G1 X30.947 Y28.161 E0.41232
G1 X31.101 Y26.788 E0.04332
; PURGING FINISHED
G1 F8640
G1 X31.367 Y25.818 E-0.23223
G1 X31.747 Y24.944 E-0.22008
G1 X32.236 Y24.134 E-0.21856
G1 X32.477 Y23.832 E-0.08913
G1 E-0.04000 F2100.00000
G1 Z0.800 F10800.000
G1 X38.722 Y28.828
G1 Z0.200
G1 E0.80000 F2100.00000
G1 F1200
G1 X102.548 Y28.828 E2.00121
G1 X102.548 Y40.654 E0.37079
G1 X38.722 Y40.654 E2.00121
G1 X38.722 Y28.888 E0.36891
G1 X38.345 Y28.451 F10800.000
G1 F1200
G1 X102.925 Y28.451 E2.02486
G1 X102.925 Y41.031 E0.39444
G1 X38.345 Y41.031 E2.02486
G1 X38.345 Y28.511 E0.39256
G1 X38.745 Y28.476 F10800.000
G1 F8640
G1 X41.637 Y28.508 E-0.76000
G1 E-0.04000 F2100.00000
G1 Z0.800 F10800.000
G1 X38.836 Y39.778
G1 Z0.200
G1 E0.80000 F2100.00000
G1 F1200
G1 X39.429 Y40.371 E0.02634
G1 X39.963 Y40.371 E0.01676
G1 X39.005 Y39.413 E0.04251
G1 X39.005 Y38.880 E0.01676
G1 X40.497 Y40.371 E0.06620
G1 X41.031 Y40.371 E0.01676
G1 X39.005 Y38.346 E0.08990
G1 X39.005 Y37.812 E0.01676
G1 X41.564 Y40.371 E0.11360
G1 X42.098 Y40.371 E0.01676
G1 X39.005 Y37.278 E0.13730
G1 X39.005 Y36.744 E0.01676
G1 X42.632 Y40.371 E0.16100
G1 X43.166 Y40.371 E0.01676
G1 X39.005 Y36.210 E0.18470
G1 X39.005 Y35.676 E0.01676
G1 X43.700 Y40.371 E0.20840
G1 X44.234 Y40.371 E0.01676
G1 X39.005 Y35.142 E0.23210
G1 X39.005 Y34.609 E0.01676
G1 X44.768 Y40.371 E0.25579
G1 X45.301 Y40.371 E0.01676
G1 X39.005 Y34.075 E0.27949
G1 X39.005 Y33.541 E0.01676
G1 X45.835 Y40.371 E0.30319
G1 X46.369 Y40.371 E0.01676
G1 X39.005 Y33.007 E0.32689
G1 X39.005 Y32.473 E0.01676
G1 X46.903 Y40.371 E0.35059
G1 X47.437 Y40.371 E0.01676
G1 X39.005 Y31.939 E0.37429
G1 X39.005 Y31.405 E0.01676
G1 X47.971 Y40.371 E0.39799
G1 X48.505 Y40.371 E0.01676
G1 X39.005 Y30.872 E0.42168
G1 X39.005 Y30.338 E0.01676
G1 X49.038 Y40.371 E0.44538
G1 X49.572 Y40.371 E0.01676
G1 X39.005 Y29.804 E0.46908
G1 X39.005 Y29.270 E0.01676
G1 X50.106 Y40.371 E0.49278
G1 X50.640 Y40.371 E0.01676
G1 X39.380 Y29.111 E0.49985
G1 X39.914 Y29.111 E0.01676
G1 X51.174 Y40.371 E0.49985
G1 X51.708 Y40.371 E0.01676
G1 X40.448 Y29.111 E0.49985
G1 X40.981 Y29.111 E0.01676
G1 X52.242 Y40.371 E0.49985
G1 X52.776 Y40.371 E0.01676
G1 X41.515 Y29.111 E0.49985
G1 X42.049 Y29.111 E0.01676
G1 X53.309 Y40.371 E0.49985
G1 X53.843 Y40.371 E0.01676
G1 X42.583 Y29.111 E0.49985
G1 X43.117 Y29.111 E0.01676
G1 X54.377 Y40.371 E0.49985
G1 X54.911 Y40.371 E0.01676
G1 X43.651 Y29.111 E0.49985
G1 X44.185 Y29.111 E0.01676
G1 X55.445 Y40.371 E0.49985
G1 X55.979 Y40.371 E0.01676
G1 X44.718 Y29.111 E0.49985
G1 X45.252 Y29.111 E0.01676
G1 X56.513 Y40.371 E0.49985
G1 X57.046 Y40.371 E0.01676
G1 X45.786 Y29.111 E0.49985
M73 Q7 S13
G1 X46.320 Y29.111 E0.01676
M73 P7 R13
G1 X57.580 Y40.371 E0.49985
G1 X58.114 Y40.371 E0.01676
G1 X46.854 Y29.111 E0.49985
G1 X47.388 Y29.111 E0.01676
G1 X58.648 Y40.371 E0.49985
G1 X59.182 Y40.371 E0.01676
G1 X47.922 Y29.111 E0.49985
G1 X48.455 Y29.111 E0.01676
G1 X59.716 Y40.371 E0.49985
G1 X60.250 Y40.371 E0.01676
G1 X48.989 Y29.111 E0.49985
G1 X49.523 Y29.111 E0.01676
G1 X60.783 Y40.371 E0.49985
G1 X61.317 Y40.371 E0.01676
G1 X50.057 Y29.111 E0.49985
G1 X50.591 Y29.111 E0.01676
G1 X61.851 Y40.371 E0.49985
G1 X62.385 Y40.371 E0.01676
G1 X51.125 Y29.111 E0.49985
G1 X51.659 Y29.111 E0.01676
G1 X62.919 Y40.371 E0.49985
G1 X63.453 Y40.371 E0.01676
G1 X52.193 Y29.111 E0.49985
G1 X52.726 Y29.111 E0.01676
G1 X63.987 Y40.371 E0.49985
G1 X64.521 Y40.371 E0.01676
G1 X53.260 Y29.111 E0.49985
G1 X53.794 Y29.111 E0.01676
G1 X65.054 Y40.371 E0.49985
G1 X65.588 Y40.371 E0.01676
G1 X54.328 Y29.111 E0.49985
G1 X54.862 Y29.111 E0.01676
G1 X66.122 Y40.371 E0.49985
G1 X66.656 Y40.371 E0.01676
G1 X55.396 Y29.111 E0.49985
G1 X55.930 Y29.111 E0.01676
G1 X67.190 Y40.371 E0.49985
G1 X67.724 Y40.371 E0.01676
G1 X56.463 Y29.111 E0.49985
G1 X56.997 Y29.111 E0.01676
G1 X68.258 Y40.371 E0.49985
G1 X68.791 Y40.371 E0.01676
G1 X57.531 Y29.111 E0.49985
G1 X58.065 Y29.111 E0.01676
G1 X69.325 Y40.371 E0.49985
G1 X69.859 Y40.371 E0.01676
G1 X58.599 Y29.111 E0.49985
G1 X59.133 Y29.111 E0.01676
G1 X70.393 Y40.371 E0.49985
G1 X70.927 Y40.371 E0.01676
G1 X59.667 Y29.111 E0.49985
G1 X60.200 Y29.111 E0.01676
G1 X71.461 Y40.371 E0.49985
G1 X71.995 Y40.371 E0.01676
G1 X60.734 Y29.111 E0.49985
G1 X61.268 Y29.111 E0.01676
G1 X72.528 Y40.371 E0.49985
G1 X73.062 Y40.371 E0.01676
G1 X61.802 Y29.111 E0.49985
G1 X62.336 Y29.111 E0.01676
G1 X73.596 Y40.371 E0.49985
G1 X74.130 Y40.371 E0.01676
G1 X62.870 Y29.111 E0.49985
G1 X63.404 Y29.111 E0.01676
G1 X74.664 Y40.371 E0.49985
G1 X75.198 Y40.371 E0.01676
G1 X63.937 Y29.111 E0.49985
G1 X64.471 Y29.111 E0.01676
G1 X75.732 Y40.371 E0.49985
G1 X76.265 Y40.371 E0.01676
G1 X65.005 Y29.111 E0.49985
G1 X65.539 Y29.111 E0.01676
G1 X76.799 Y40.371 E0.49985
G1 X77.333 Y40.371 E0.01676
G1 X66.073 Y29.111 E0.49985
G1 X66.607 Y29.111 E0.01676
G1 X77.867 Y40.371 E0.49985
G1 X78.401 Y40.371 E0.01676
G1 X67.141 Y29.111 E0.49985
G1 X67.675 Y29.111 E0.01676
G1 X78.935 Y40.371 E0.49985
G1 X79.469 Y40.371 E0.01676
G1 X68.208 Y29.111 E0.49985
G1 X68.742 Y29.111 E0.01676
G1 X80.003 Y40.371 E0.49985
G1 X80.536 Y40.371 E0.01676
G1 X69.276 Y29.111 E0.49985
G1 X69.810 Y29.111 E0.01676
G1 X81.070 Y40.371 E0.49985
G1 X81.604 Y40.371 E0.01676
G1 X70.344 Y29.111 E0.49985
G1 X70.878 Y29.111 E0.01676
G1 X82.138 Y40.371 E0.49985
G1 X82.672 Y40.371 E0.01676
G1 X71.412 Y29.111 E0.49985
G1 X71.945 Y29.111 E0.01676
G1 X83.206 Y40.371 E0.49985
G1 X83.740 Y40.371 E0.01676
G1 X72.479 Y29.111 E0.49985
G1 X73.013 Y29.111 E0.01676
G1 X84.273 Y40.371 E0.49985
G1 X84.807 Y40.371 E0.01676
G1 X73.547 Y29.111 E0.49985
G1 X74.081 Y29.111 E0.01676
G1 X85.341 Y40.371 E0.49985
G1 X85.875 Y40.371 E0.01676
G1 X74.615 Y29.111 E0.49985
G1 X75.149 Y29.111 E0.01676
G1 X86.409 Y40.371 E0.49985
G1 X86.943 Y40.371 E0.01676
G1 X75.682 Y29.111 E0.49985
G1 X76.216 Y29.111 E0.01676
G1 X87.477 Y40.371 E0.49985
G1 X88.010 Y40.371 E0.01676
G1 X76.750 Y29.111 E0.49985
G1 X77.284 Y29.111 E0.01676
G1 X88.544 Y40.371 E0.49985
G1 X89.078 Y40.371 E0.01676
G1 X77.818 Y29.111 E0.49985
G1 X78.352 Y29.111 E0.01676
G1 X89.612 Y40.371 E0.49985
G1 X90.146 Y40.371 E0.01676
G1 X78.886 Y29.111 E0.49985
G1 X79.420 Y29.111 E0.01676
G1 X90.680 Y40.371 E0.49985
G1 X91.214 Y40.371 E0.01676
G1 X79.953 Y29.111 E0.49985
G1 X80.487 Y29.111 E0.01676
G1 X91.748 Y40.371 E0.49985
G1 X92.281 Y40.371 E0.01676
G1 X81.021 Y29.111 E0.49985
G1 X81.555 Y29.111 E0.01676
G1 X92.815 Y40.371 E0.49985
G1 X93.349 Y40.371 E0.01676
G1 X82.089 Y29.111 E0.49985
G1 X82.623 Y29.111 E0.01676
G1 X93.883 Y40.371 E0.49985
G1 X94.417 Y40.371 E0.01676
G1 X83.157 Y29.111 E0.49985
G1 X83.690 Y29.111 E0.01676
G1 X94.951 Y40.371 E0.49985
G1 X95.485 Y40.371 E0.01676
G1 X84.224 Y29.111 E0.49985
M73 Q14 S12
M73 P15 R12
G1 X84.758 Y29.111 E0.01676
G1 X96.018 Y40.371 E0.49985
G1 X96.552 Y40.371 E0.01676
G1 X85.292 Y29.111 E0.49985
G1 X85.826 Y29.111 E0.01676
G1 X97.086 Y40.371 E0.49985
G1 X97.620 Y40.371 E0.01676
G1 X86.360 Y29.111 E0.49985
G1 X86.894 Y29.111 E0.01676
G1 X98.154 Y40.371 E0.49985
G1 X98.688 Y40.371 E0.01676
G1 X87.427 Y29.111 E0.49985
G1 X87.961 Y29.111 E0.01676
G1 X99.222 Y40.371 E0.49985
G1 X99.755 Y40.371 E0.01676
G1 X88.495 Y29.111 E0.49985
G1 X89.029 Y29.111 E0.01676
G1 X100.289 Y40.371 E0.49985
G1 X100.823 Y40.371 E0.01676
G1 X89.563 Y29.111 E0.49985
G1 X90.097 Y29.111 E0.01676
G1 X101.357 Y40.371 E0.49985
G1 X101.891 Y40.371 E0.01676
G1 X90.631 Y29.111 E0.49985
G1 X91.164 Y29.111 E0.01676
G1 X102.266 Y40.212 E0.49279
G1 X102.266 Y39.678 E0.01676
G1 X91.698 Y29.111 E0.46909
G1 X92.232 Y29.111 E0.01676
G1 X102.266 Y39.144 E0.44539
G1 X102.266 Y38.610 E0.01676
G1 X92.766 Y29.111 E0.42169
G1 X93.300 Y29.111 E0.01676
G1 X102.266 Y38.076 E0.39799
G1 X102.266 Y37.542 E0.01676
G1 X93.834 Y29.111 E0.37429
G1 X94.368 Y29.111 E0.01676
G1 X102.266 Y37.009 E0.35059
G1 X102.266 Y36.475 E0.01676
G1 X94.902 Y29.111 E0.32689
G1 X95.435 Y29.111 E0.01676
G1 X102.266 Y35.941 E0.30320
G1 X102.266 Y35.407 E0.01676
G1 X95.969 Y29.111 E0.27950
G1 X96.503 Y29.111 E0.01676
G1 X102.266 Y34.873 E0.25580
G1 X102.266 Y34.339 E0.01676
G1 X97.037 Y29.111 E0.23210
G1 X97.571 Y29.111 E0.01676
G1 X102.266 Y33.805 E0.20840
G1 X102.266 Y33.271 E0.01676
G1 X98.105 Y29.111 E0.18470
G1 X98.639 Y29.111 E0.01676
G1 X102.266 Y32.738 E0.16100
G1 X102.266 Y32.204 E0.01676
G1 X99.172 Y29.111 E0.13731
G1 X99.706 Y29.111 E0.01676
G1 X102.266 Y31.670 E0.11361
G1 X102.266 Y31.136 E0.01676
G1 X100.240 Y29.111 E0.08991
G1 X100.774 Y29.111 E0.01676
G1 X102.266 Y30.602 E0.06621
G1 X102.266 Y30.068 E0.01676
G1 X101.308 Y29.111 E0.04251
G1 X101.842 Y29.111 E0.01676
G1 X102.435 Y29.704 E0.02634
;BEFORE_LAYER_CHANGE
G92 E0.0
;0.4


G1 F8640
G1 X101.842 Y29.111 E-0.19380
G1 X101.308 Y29.111 E-0.12327
G1 X102.266 Y30.068 E-0.31272
G1 X102.266 Y30.602 E-0.12327
G1 X102.244 Y30.581 E-0.00695
G1 E-0.04000 F2100.00000
G1 Z0.800 F10800.000
;AFTER_LAYER_CHANGE
;0.4
M104 S240 ; set temperature
M140 S90 ; set bed temperature
; PURGING FINISHED
G1 X102.503 Y28.873
G1 Z0.400
G1 E0.80000 F2100.00000
M204 S800
G1 F2700
G1 X102.503 Y40.609 E0.39724
G1 X38.767 Y40.609 E2.15738
G1 X38.767 Y28.873 E0.39724
G1 X102.443 Y28.873 E2.15535
M204 S1000
G1 X102.910 Y28.466 F10800.000
M204 S800
G1 F2100
G1 X102.910 Y41.016 E0.42480
G1 X38.360 Y41.016 E2.18494
G1 X38.360 Y28.466 E0.42480
G1 X102.850 Y28.466 E2.18291
M204 S1000
G1 X102.733 Y28.824 F10800.000
G1 F8640
G1 X102.866 Y31.757 E-0.76000
G1 E-0.04000 F2100.00000
G1 Z1.000 F10800.000
G1 X101.556 Y40.487
G1 Z0.400
G1 E0.80000 F2100.00000
M204 S1250
G1 F5878.07
G1 X102.198 Y39.844 E0.03084
G1 X102.198 Y39.267 E0.01960
G1 X101.161 Y40.303 E0.04977
G1 X100.584 Y40.303 E0.01960
G1 X102.198 Y38.689 E0.07749
G1 X102.198 Y38.112 E0.01960
G1 X100.007 Y40.303 E0.10521
G1 X99.429 Y40.303 E0.01960
G1 X102.198 Y37.535 E0.13294
G1 X102.198 Y36.957 E0.01960
G1 X98.852 Y40.303 E0.16066
G1 X98.274 Y40.303 E0.01960
G1 X102.198 Y36.380 E0.18838
G1 X102.198 Y35.802 E0.01960
G1 X97.697 Y40.303 E0.21611
G1 X97.120 Y40.303 E0.01960
G1 X102.198 Y35.225 E0.24383
G1 X102.198 Y34.648 E0.01960
G1 X96.542 Y40.303 E0.27155
G1 X95.965 Y40.303 E0.01960
G1 X102.198 Y34.070 E0.29928
G1 X102.198 Y33.493 E0.01960
G1 X95.387 Y40.303 E0.32700
G1 X94.810 Y40.303 E0.01960
G1 X102.198 Y32.915 E0.35472
G1 X102.198 Y32.338 E0.01960
G1 X94.232 Y40.303 E0.38245
G1 X93.655 Y40.303 E0.01960
G1 X102.198 Y31.760 E0.41017
G1 X102.198 Y31.183 E0.01960
G1 X93.078 Y40.303 E0.43789
G1 X92.500 Y40.303 E0.01960
G1 X102.198 Y30.606 E0.46562
G1 X102.198 Y30.028 E0.01960
G1 X91.923 Y40.303 E0.49334
G1 X91.345 Y40.303 E0.01960
G1 X102.198 Y29.451 E0.52106
G1 X102.198 Y29.178 E0.00925
G1 X101.893 Y29.178 E0.01035
G1 X90.768 Y40.303 E0.53415
G1 X90.191 Y40.303 E0.01960
G1 X101.316 Y29.178 E0.53415
G1 X100.738 Y29.178 E0.01960
G1 X89.613 Y40.303 E0.53415
G1 X89.036 Y40.303 E0.01960
G1 X100.161 Y29.178 E0.53415
G1 X99.584 Y29.178 E0.01960
G1 X88.458 Y40.303 E0.53415
G1 X87.881 Y40.303 E0.01960
G1 X99.006 Y29.178 E0.53415
G1 X98.429 Y29.178 E0.01960
G1 X87.303 Y40.303 E0.53415
G1 X86.726 Y40.303 E0.01960
G1 X97.851 Y29.178 E0.53415
G1 X97.274 Y29.178 E0.01960
G1 X86.149 Y40.303 E0.53415
G1 X85.571 Y40.303 E0.01960
G1 X96.696 Y29.178 E0.53415
G1 X96.119 Y29.178 E0.01960
G1 X84.994 Y40.303 E0.53415
G1 X84.416 Y40.303 E0.01960
G1 X95.542 Y29.178 E0.53415
G1 X94.964 Y29.178 E0.01960
G1 X83.839 Y40.303 E0.53415
G1 X83.261 Y40.303 E0.01960
G1 X94.387 Y29.178 E0.53415
G1 X93.809 Y29.178 E0.01960
G1 X82.684 Y40.303 E0.53415
G1 X82.107 Y40.303 E0.01960
G1 X93.232 Y29.178 E0.53415
G1 X92.654 Y29.178 E0.01960
G1 X81.529 Y40.303 E0.53415
G1 X80.952 Y40.303 E0.01960
G1 X92.077 Y29.178 E0.53415
G1 X91.500 Y29.178 E0.01960
G1 X80.374 Y40.303 E0.53415
G1 X79.797 Y40.303 E0.01960
G1 X90.922 Y29.178 E0.53415
G1 X90.345 Y29.178 E0.01960
G1 X79.220 Y40.303 E0.53415
G1 X78.642 Y40.303 E0.01960
G1 X89.767 Y29.178 E0.53415
G1 X89.190 Y29.178 E0.01960
G1 X78.065 Y40.303 E0.53415
G1 X77.487 Y40.303 E0.01960
G1 X88.613 Y29.178 E0.53415
G1 X88.035 Y29.178 E0.01960
G1 X76.910 Y40.303 E0.53415
G1 X76.332 Y40.303 E0.01960
G1 X87.458 Y29.178 E0.53415
