; generated by Slic3r Prusa Edition 1.41.0+win64 on 2018-11-01 at 13:45:53

; 

; external perimeters extrusion width = 0.45mm
; perimeters extrusion width = 0.45mm
; infill extrusion width = 0.45mm
; solid infill extrusion width = 0.45mm
; top infill extrusion width = 0.40mm
; first layer extrusion width = 0.42mm

M201 X1000 Y1000 Z1000 E5000 ; sets maximum accelerations, mm/sec^2
M203 X200 Y200 Z12 E120 ; sets maximum feedrates, mm/sec
M204 P1250 R1250 T1250 ; sets acceleration (P, T) and retract acceleration (R), mm/sec^2
M205 X8.00 Y8.00 Z0.40 E1.50 ; sets the jerk limits, mm/sec
M205 S0 T0 ; sets the minimum extruding and travel feed rate, mm/sec
M107
M115 U3.4.1 ; tell printer latest fw version
M83  ; extruder relative mode
M104 S230 ; set extruder temp
M140 S85 ; set bed temp
M190 S85 ; wait for bed temp
M109 S230 ; wait for extruder temp
G28 W ; home all without mesh bed level
G80 ; mesh bed leveling
G1 Y-3.0 F1000.0 ; go outside print area
G92 E0.0
G1 X60.0 E9.0  F1000.0 ; intro line
M73 Q0 S23
M73 P0 R22
G1 X100.0 E12.5  F1000.0 ; intro line
G92 E0.0
M221 S95
M900 K45; Filament gcode
G21 ; set units to millimeters
G90 ; use absolute coordinates
M83 ; use relative distances for extrusion
;BEFORE_LAYER_CHANGE
G92 E0.0
;0.2


G1 E-0.80000 F2100.00000
G1 Z0.600 F10800.000
;AFTER_LAYER_CHANGE
;0.2
G1 X96.668 Y78.055
G1 Z0.200
G1 E0.80000 F2100.00000
M204 S1000
G1 X97.563 Y77.850 E0.02878
G1 X151.574 Y77.849 E1.69348
G1 X152.397 Y78.012 E0.02631
G1 X153.099 Y78.472 E0.02631
G1 X153.576 Y79.162 E0.02631
G1 X153.758 Y79.981 E0.02631
G1 X153.759 Y140.382 E1.89384
G1 X153.619 Y141.133 E0.02394
G1 X153.228 Y141.793 E0.02405
G1 X152.486 Y142.352 E0.02911
G1 X151.580 Y142.552 E0.02911
G1 X97.572 Y142.552 E1.69337
G1 X96.818 Y142.410 E0.02405
G1 X96.163 Y142.019 E0.02394
G1 X95.607 Y141.280 E0.02900
G1 X95.406 Y140.373 E0.02911
G1 X95.406 Y80.020 E1.89235
G1 X95.545 Y79.269 E0.02394
G1 X95.936 Y78.609 E0.02405
G1 X96.620 Y78.091 E0.02690
; PURGING FINISHED
G1 F8640
G1 X97.563 Y77.850 E-0.22463
G1 X99.881 Y77.850 E-0.53537
G1 E-0.04000 F2100.00000
G1 Z0.800 F10800.000
G1 X125.580 Y122.311
G1 Z0.200
G1 E0.80000 F2100.00000
G1 X139.460 Y122.311 E0.43520
G1 X139.460 Y129.840 E0.23607
G1 X125.580 Y129.840 E0.43520
G1 X125.580 Y122.371 E0.23419
G1 X125.957 Y122.688 F10800.000
G1 F2100
G1 X139.083 Y122.688 E0.41156
G1 X139.083 Y129.463 E0.21243
G1 X125.957 Y129.463 E0.41156
G1 X125.957 Y122.748 E0.21054
G1 X125.814 Y122.314 F10800.000
G1 F8640
G1 X129.249 Y122.733 E-0.76000
G1 E-0.04000 F2100.00000
G1 Z0.800 F10800.000
G1 X109.705 Y92.149
G1 Z0.200
G1 E0.80000 F2100.00000
G1 X120.409 Y92.149 E0.33562
G1 X120.409 Y125.078 E1.03247
G1 X109.705 Y125.078 E0.33562
G1 X109.705 Y92.209 E1.03059
G1 X110.082 Y92.526 F10800.000
G1 F2100
G1 X120.032 Y92.526 E0.31198
G1 X120.032 Y124.701 E1.00882
G1 X110.082 Y124.701 E0.31198
G1 X110.082 Y92.586 E1.00694
G1 X110.042 Y92.128 F10800.000
G1 F8640
G1 X113.374 Y92.566 E-0.76000
G1 E-0.04000 F2100.00000
G1 Z0.800 F10800.000
G1 X98.181 Y80.625
G1 Z0.200
G1 E0.80000 F2100.00000
G1 X150.983 Y80.625 E1.65556
G1 X150.983 Y139.777 E1.85466
G1 X98.181 Y139.777 E1.65556
G1 X98.181 Y80.685 E1.85278
G1 X97.804 Y80.248 F10800.000
G1 F2100
G1 X151.360 Y80.248 E1.67921
G1 X151.360 Y140.154 E1.87831
G1 X97.804 Y140.154 E1.67921
G1 X97.804 Y80.308 E1.87643
G1 X98.189 Y80.359 F10800.000
G1 F8640
G1 X101.096 Y80.304 E-0.76000
G1 E-0.04000 F2100.00000
G1 Z0.800 F10800.000
G1 X150.870 Y81.501
G1 Z0.200
G1 E0.80000 F2100.00000
G1 X150.277 Y80.908 E0.02634
G1 X149.743 Y80.908 E0.01676
G1 X150.700 Y81.865 E0.04251
G1 X150.700 Y82.399 E0.01676
G1 X149.209 Y80.908 E0.06621
G1 X148.675 Y80.908 E0.01676
G1 X150.700 Y82.933 E0.08991
G1 X150.700 Y83.467 E0.01676
G1 X148.141 Y80.908 E0.11360
G1 X147.607 Y80.908 E0.01676
G1 X150.700 Y84.001 E0.13730
G1 X150.700 Y84.535 E0.01676
G1 X147.073 Y80.908 E0.16100
G1 X146.540 Y80.908 E0.01676
G1 X150.700 Y85.069 E0.18470
G1 X150.700 Y85.602 E0.01676
G1 X146.006 Y80.908 E0.20840
G1 X145.472 Y80.908 E0.01676
G1 X150.700 Y86.136 E0.23210
G1 X150.700 Y86.670 E0.01676
G1 X144.938 Y80.908 E0.25579
G1 X144.404 Y80.908 E0.01676
G1 X150.700 Y87.204 E0.27949
G1 X150.700 Y87.738 E0.01676
G1 X143.870 Y80.908 E0.30319
G1 X143.336 Y80.908 E0.01676
G1 X150.700 Y88.272 E0.32689
G1 X150.700 Y88.806 E0.01676
G1 X142.803 Y80.908 E0.35059
G1 X142.269 Y80.908 E0.01676
G1 X150.700 Y89.339 E0.37429
G1 X150.700 Y89.873 E0.01676
G1 X141.735 Y80.908 E0.39798
G1 X141.201 Y80.908 E0.01676
G1 X150.700 Y90.407 E0.42168
G1 X150.700 Y90.941 E0.01676
G1 X140.667 Y80.908 E0.44538
G1 X140.133 Y80.908 E0.01676
G1 X150.700 Y91.475 E0.46908
G1 X150.700 Y92.009 E0.01676
G1 X139.599 Y80.908 E0.49278
G1 X139.066 Y80.908 E0.01676
G1 X150.700 Y92.543 E0.51648
G1 X150.700 Y93.076 E0.01676
G1 X138.532 Y80.908 E0.54017
G1 X137.998 Y80.908 E0.01676
G1 X150.700 Y93.610 E0.56387
G1 X150.700 Y94.144 E0.01676
G1 X137.464 Y80.908 E0.58757
G1 X136.930 Y80.908 E0.01676
G1 X150.700 Y94.678 E0.61127
G1 X150.700 Y95.212 E0.01676
G1 X136.396 Y80.908 E0.63497
G1 X135.862 Y80.908 E0.01676
G1 X150.700 Y95.746 E0.65866
G1 X150.700 Y96.280 E0.01676
G1 X135.328 Y80.908 E0.68236
G1 X134.795 Y80.908 E0.01676
G1 X150.700 Y96.813 E0.70606
G1 X150.700 Y97.347 E0.01676
G1 X134.261 Y80.908 E0.72976
G1 X133.727 Y80.908 E0.01676
G1 X150.700 Y97.881 E0.75346
G1 X150.700 Y98.415 E0.01676
G1 X133.193 Y80.908 E0.77716
G1 X132.659 Y80.908 E0.01676
G1 X150.700 Y98.949 E0.80085
G1 X150.700 Y99.483 E0.01676
G1 X132.125 Y80.908 E0.82455
G1 X131.591 Y80.908 E0.01676
G1 X150.700 Y100.017 E0.84825
G1 X150.700 Y100.551 E0.01676
G1 X131.058 Y80.908 E0.87195
G1 X130.524 Y80.908 E0.01676
G1 X150.700 Y101.084 E0.89565
G1 X150.700 Y101.618 E0.01676
G1 X129.990 Y80.908 E0.91935
G1 X129.456 Y80.908 E0.01676
G1 X150.700 Y102.152 E0.94304
G1 X150.700 Y102.686 E0.01676
G1 X128.922 Y80.908 E0.96674
G1 X128.388 Y80.908 E0.01676
G1 X150.700 Y103.220 E0.99044
G1 X150.700 Y103.754 E0.01676
G1 X127.854 Y80.908 E1.01414
G1 X127.321 Y80.908 E0.01676
G1 X150.700 Y104.288 E1.03784
G1 X150.700 Y104.821 E0.01676
G1 X126.787 Y80.908 E1.06154
G1 X126.253 Y80.908 E0.01676
G1 X150.700 Y105.355 E1.08523
G1 X150.700 Y105.889 E0.01676
G1 X125.719 Y80.908 E1.10893
M73 Q4 S22
M73 P4 R21
G1 X125.185 Y80.908 E0.01676
G1 X150.700 Y106.423 E1.13263
G1 X150.700 Y106.957 E0.01676
G1 X124.651 Y80.908 E1.15633
G1 X124.117 Y80.908 E0.01676
G1 X150.700 Y107.491 E1.18003
G1 X150.700 Y108.025 E0.01676
G1 X123.584 Y80.908 E1.20372
G1 X123.050 Y80.908 E0.01676
G1 X150.700 Y108.558 E1.22742
G1 X150.700 Y109.092 E0.01676
G1 X122.516 Y80.908 E1.25112
G1 X121.982 Y80.908 E0.01676
G1 X150.700 Y109.626 E1.27482
G1 X150.700 Y110.160 E0.01676
G1 X121.448 Y80.908 E1.29852
G1 X120.914 Y80.908 E0.01676
G1 X150.700 Y110.694 E1.32222
G1 X150.700 Y111.228 E0.01676
G1 X120.380 Y80.908 E1.34591
G1 X119.847 Y80.908 E0.01676
G1 X150.700 Y111.762 E1.36961
G1 X150.700 Y112.295 E0.01676
G1 X119.313 Y80.908 E1.39331
G1 X118.779 Y80.908 E0.01676
G1 X150.700 Y112.829 E1.41701
G1 X150.700 Y113.363 E0.01676
G1 X118.245 Y80.908 E1.44071
G1 X117.711 Y80.908 E0.01676
G1 X150.700 Y113.897 E1.46441
G1 X150.700 Y114.431 E0.01676
G1 X117.177 Y80.908 E1.48810
G1 X116.643 Y80.908 E0.01676
G1 X150.700 Y114.965 E1.51180
G1 X150.700 Y115.499 E0.01676
G1 X116.110 Y80.908 E1.53550
G1 X115.576 Y80.908 E0.01676
G1 X150.700 Y116.032 E1.55920
G1 X150.700 Y116.566 E0.01676
G1 X115.042 Y80.908 E1.58290
G1 X114.508 Y80.908 E0.01676
G1 X150.700 Y117.100 E1.60660
G1 X150.700 Y117.634 E0.01676
G1 X113.974 Y80.908 E1.63029
G1 X113.440 Y80.908 E0.01676
G1 X150.700 Y118.168 E1.65399
G1 X150.700 Y118.702 E0.01676
G1 X112.906 Y80.908 E1.67769
G1 X112.373 Y80.908 E0.01676
G1 X150.700 Y119.236 E1.70139
G1 X150.700 Y119.769 E0.01676
G1 X111.839 Y80.908 E1.72509
G1 X111.305 Y80.908 E0.01676
G1 X150.700 Y120.303 E1.74878
G1 X150.700 Y120.837 E0.01676
G1 X110.771 Y80.908 E1.77248
G1 X110.237 Y80.908 E0.01676
G1 X150.700 Y121.371 E1.79618
G1 X150.700 Y121.905 E0.01676
G1 X109.703 Y80.908 E1.81988
G1 X109.169 Y80.908 E0.01676
G1 X120.128 Y91.866 E0.48644
G1 X119.594 Y91.866 E0.01676
G1 X108.636 Y80.908 E0.48644
G1 X108.102 Y80.908 E0.01676
G1 X119.060 Y91.866 E0.48644
G1 X118.526 Y91.866 E0.01676
G1 X107.568 Y80.908 E0.48644
G1 X107.034 Y80.908 E0.01676
G1 X117.992 Y91.866 E0.48644
G1 X117.458 Y91.866 E0.01676
G1 X106.500 Y80.908 E0.48644
G1 X105.966 Y80.908 E0.01676
G1 X116.925 Y91.866 E0.48644
G1 X116.391 Y91.866 E0.01676
G1 X105.432 Y80.908 E0.48644
G1 X104.899 Y80.908 E0.01676
G1 X115.857 Y91.866 E0.48644
G1 X115.323 Y91.866 E0.01676
G1 X104.365 Y80.908 E0.48644
G1 X103.831 Y80.908 E0.01676
G1 X114.789 Y91.866 E0.48644
G1 X114.255 Y91.866 E0.01676
G1 X103.297 Y80.908 E0.48644
G1 X102.763 Y80.908 E0.01676
G1 X113.721 Y91.866 E0.48644
G1 X113.188 Y91.866 E0.01676
G1 X102.229 Y80.908 E0.48644
G1 X101.695 Y80.908 E0.01676
G1 X112.654 Y91.866 E0.48644
G1 X112.120 Y91.866 E0.01676
G1 X101.162 Y80.908 E0.48644
G1 X100.628 Y80.908 E0.01676
G1 X111.586 Y91.866 E0.48644
G1 X111.052 Y91.866 E0.01676
G1 X100.094 Y80.908 E0.48644
G1 X99.560 Y80.908 E0.01676
G1 X110.518 Y91.866 E0.48644
G1 X109.984 Y91.866 E0.01676
G1 X99.026 Y80.908 E0.48644
G1 X98.492 Y80.908 E0.01676
G1 X109.451 Y91.866 E0.48644
G1 X109.422 Y91.866 E0.00089
G1 X109.422 Y92.372 E0.01587
G1 X98.464 Y81.413 E0.48644
G1 X98.464 Y81.947 E0.01676
G1 X109.422 Y92.906 E0.48644
G1 X109.422 Y93.439 E0.01676
G1 X98.464 Y82.481 E0.48644
G1 X98.464 Y83.015 E0.01676
G1 X109.422 Y93.973 E0.48644
G1 X109.422 Y94.507 E0.01676
G1 X98.464 Y83.549 E0.48644
G1 X98.464 Y84.083 E0.01676
G1 X109.422 Y95.041 E0.48644
G1 X109.422 Y95.575 E0.01676
G1 X98.464 Y84.617 E0.48644
G1 X98.464 Y85.150 E0.01676
G1 X109.422 Y96.109 E0.48644
G1 X109.422 Y96.643 E0.01676
G1 X98.464 Y85.684 E0.48644
G1 X98.464 Y86.218 E0.01676
G1 X109.422 Y97.176 E0.48644
G1 X109.422 Y97.710 E0.01676
G1 X98.464 Y86.752 E0.48644
G1 X98.464 Y87.286 E0.01676
G1 X109.422 Y98.244 E0.48644
G1 X109.422 Y98.778 E0.01676
G1 X98.464 Y87.820 E0.48644
G1 X98.464 Y88.354 E0.01676
G1 X109.422 Y99.312 E0.48644
G1 X109.422 Y99.846 E0.01676
G1 X98.464 Y88.887 E0.48644
G1 X98.464 Y89.421 E0.01676
G1 X109.422 Y100.380 E0.48644
M73 Q9 S21
M73 P9 R20
G1 X109.422 Y100.913 E0.01676
G1 X98.464 Y89.955 E0.48644
G1 X98.464 Y90.489 E0.01676
G1 X109.422 Y101.447 E0.48644
G1 X109.422 Y101.981 E0.01676
G1 X98.464 Y91.023 E0.48644
G1 X98.464 Y91.557 E0.01676
G1 X109.422 Y102.515 E0.48644
G1 X109.422 Y103.049 E0.01676
G1 X98.464 Y92.091 E0.48644
G1 X98.464 Y92.624 E0.01676
G1 X109.422 Y103.583 E0.48644
G1 X109.422 Y104.117 E0.01676
G1 X98.464 Y93.158 E0.48644
G1 X98.464 Y93.692 E0.01676
G1 X109.422 Y104.650 E0.48644
G1 X109.422 Y105.184 E0.01676
G1 X98.464 Y94.226 E0.48644
G1 X98.464 Y94.760 E0.01676
G1 X109.422 Y105.718 E0.48644
G1 X109.422 Y106.252 E0.01676
G1 X98.464 Y95.294 E0.48644
G1 X98.464 Y95.828 E0.01676
G1 X109.422 Y106.786 E0.48644
G1 X109.422 Y107.320 E0.01676
G1 X98.464 Y96.362 E0.48644
G1 X98.464 Y96.895 E0.01676
G1 X109.422 Y107.854 E0.48644
G1 X109.422 Y108.387 E0.01676
G1 X98.464 Y97.429 E0.48644
G1 X98.464 Y97.963 E0.01676
G1 X109.422 Y108.921 E0.48644
G1 X109.422 Y109.455 E0.01676
G1 X98.464 Y98.497 E0.48644
G1 X98.464 Y99.031 E0.01676
G1 X109.422 Y109.989 E0.48644
G1 X109.422 Y110.523 E0.01676
G1 X98.464 Y99.565 E0.48644
G1 X98.464 Y100.099 E0.01676
G1 X109.422 Y111.057 E0.48644
G1 X109.422 Y111.591 E0.01676
G1 X98.464 Y100.632 E0.48644
G1 X98.464 Y101.166 E0.01676
G1 X109.422 Y112.125 E0.48644
G1 X109.422 Y112.658 E0.01676
G1 X98.464 Y101.700 E0.48644
G1 X98.464 Y102.234 E0.01676
G1 X109.422 Y113.192 E0.48644
G1 X109.422 Y113.726 E0.01676
G1 X98.464 Y102.768 E0.48644
G1 X98.464 Y103.302 E0.01676
G1 X109.422 Y114.260 E0.48644
G1 X109.422 Y114.794 E0.01676
G1 X98.464 Y103.836 E0.48644
G1 X98.464 Y104.369 E0.01676
G1 X109.422 Y115.328 E0.48644
G1 X109.422 Y115.862 E0.01676
G1 X98.464 Y104.903 E0.48644
G1 X98.464 Y105.437 E0.01676
G1 X109.422 Y116.395 E0.48644
G1 X109.422 Y116.929 E0.01676
G1 X98.464 Y105.971 E0.48644
G1 X98.464 Y106.505 E0.01676
G1 X109.422 Y117.463 E0.48644
G1 X109.422 Y117.997 E0.01676
G1 X98.464 Y107.039 E0.48644
G1 X98.464 Y107.573 E0.01676
G1 X109.422 Y118.531 E0.48644
G1 X109.422 Y119.065 E0.01676
G1 X98.464 Y108.106 E0.48644
G1 X98.464 Y108.640 E0.01676
G1 X109.422 Y119.599 E0.48644
G1 X109.422 Y120.132 E0.01676
G1 X98.464 Y109.174 E0.48644
G1 X98.464 Y109.708 E0.01676
G1 X109.422 Y120.666 E0.48644
G1 X109.422 Y121.200 E0.01676
G1 X98.464 Y110.242 E0.48644
G1 X98.464 Y110.776 E0.01676
G1 X109.422 Y121.734 E0.48644
G1 X109.422 Y122.268 E0.01676
G1 X98.464 Y111.310 E0.48644
G1 X98.464 Y111.843 E0.01676
G1 X109.422 Y122.802 E0.48644
G1 X109.422 Y123.336 E0.01676
G1 X98.464 Y112.377 E0.48644
G1 X98.464 Y112.911 E0.01676
G1 X109.422 Y123.869 E0.48644
G1 X109.422 Y124.403 E0.01676
G1 X98.464 Y113.445 E0.48644
G1 X98.464 Y113.979 E0.01676
G1 X109.422 Y124.937 E0.48644
G1 X109.422 Y125.361 E0.01330
G1 X109.846 Y125.361 E0.01330
G1 X123.979 Y139.494 E0.62738
G1 X124.513 Y139.494 E0.01676
G1 X110.380 Y125.361 E0.62738
G1 X110.914 Y125.361 E0.01676
G1 X125.047 Y139.494 E0.62738
G1 X125.581 Y139.494 E0.01676
G1 X111.448 Y125.361 E0.62738
G1 X111.981 Y125.361 E0.01676
G1 X126.115 Y139.494 E0.62738
G1 X126.649 Y139.494 E0.01676
G1 X112.515 Y125.361 E0.62738
G1 X113.049 Y125.361 E0.01676
G1 X127.182 Y139.494 E0.62738
G1 X127.716 Y139.494 E0.01676
G1 X113.583 Y125.361 E0.62738
G1 X114.117 Y125.361 E0.01676
G1 X128.250 Y139.494 E0.62738
G1 X128.784 Y139.494 E0.01676
G1 X114.651 Y125.361 E0.62738
G1 X115.185 Y125.361 E0.01676
G1 X129.318 Y139.494 E0.62738
G1 X129.852 Y139.494 E0.01676
G1 X115.718 Y125.361 E0.62738
G1 X116.252 Y125.361 E0.01676
G1 X130.386 Y139.494 E0.62738
G1 X130.919 Y139.494 E0.01676
G1 X116.786 Y125.361 E0.62738
G1 X117.320 Y125.361 E0.01676
G1 X131.453 Y139.494 E0.62738
G1 X131.987 Y139.494 E0.01676
G1 X117.854 Y125.361 E0.62738
G1 X118.388 Y125.361 E0.01676
G1 X132.521 Y139.494 E0.62738
G1 X133.055 Y139.494 E0.01676
G1 X118.922 Y125.361 E0.62738
G1 X119.455 Y125.361 E0.01676
G1 X133.589 Y139.494 E0.62738
G1 X134.123 Y139.494 E0.01676
G1 X119.989 Y125.361 E0.62738
G1 X120.523 Y125.361 E0.01676
G1 X134.656 Y139.494 E0.62738
G1 X135.190 Y139.494 E0.01676
G1 X125.819 Y130.123 E0.41600
G1 X126.353 Y130.123 E0.01676
G1 X135.724 Y139.494 E0.41600
G1 X136.258 Y139.494 E0.01676
G1 X126.887 Y130.123 E0.41600
G1 X127.421 Y130.123 E0.01676
G1 X136.792 Y139.494 E0.41600
G1 X137.326 Y139.494 E0.01676
G1 X127.954 Y130.123 E0.41600
G1 X128.488 Y130.123 E0.01676
G1 X137.860 Y139.494 E0.41600
G1 X138.393 Y139.494 E0.01676
G1 X129.022 Y130.123 E0.41600
G1 X129.556 Y130.123 E0.01676
G1 X138.927 Y139.494 E0.41600
G1 X139.461 Y139.494 E0.01676
G1 X130.090 Y130.123 E0.41600
G1 X130.624 Y130.123 E0.01676
G1 X139.995 Y139.494 E0.41600
G1 X140.529 Y139.494 E0.01676
G1 X131.158 Y130.123 E0.41600
G1 X131.691 Y130.123 E0.01676
G1 X141.063 Y139.494 E0.41600
G1 X141.597 Y139.494 E0.01676
G1 X132.225 Y130.123 E0.41600
G1 X132.759 Y130.123 E0.01676
G1 X142.130 Y139.494 E0.41600
G1 X142.664 Y139.494 E0.01676
G1 X133.293 Y130.123 E0.41600
G1 X133.827 Y130.123 E0.01676
G1 X143.198 Y139.494 E0.41600
G1 X143.732 Y139.494 E0.01676
G1 X134.361 Y130.123 E0.41600
G1 X134.895 Y130.123 E0.01676
G1 X144.266 Y139.494 E0.41600
G1 X144.800 Y139.494 E0.01676
G1 X135.429 Y130.123 E0.41600
G1 X135.962 Y130.123 E0.01676
G1 X145.334 Y139.494 E0.41600
G1 X145.867 Y139.494 E0.01676
G1 X136.496 Y130.123 E0.41600
G1 X137.030 Y130.123 E0.01676
G1 X146.401 Y139.494 E0.41600
G1 X146.935 Y139.494 E0.01676
G1 X137.564 Y130.123 E0.41600
G1 X138.098 Y130.123 E0.01676
G1 X147.469 Y139.494 E0.41600
G1 X148.003 Y139.494 E0.01676
G1 X138.632 Y130.123 E0.41600
G1 X139.166 Y130.123 E0.01676
G1 X148.537 Y139.494 E0.41600
G1 X149.071 Y139.494 E0.01676
G1 X139.699 Y130.123 E0.41600
G1 X139.743 Y130.123 E0.00137
G1 X139.743 Y129.633 E0.01539
G1 X149.604 Y139.494 E0.43776
G1 X150.138 Y139.494 E0.01676
G1 X139.743 Y129.099 E0.46145
G1 X139.743 Y128.565 E0.01676
G1 X150.672 Y139.494 E0.48515
