; generated by Slic3r Prusa Edition 1.41.0+win64 on 2018-10-23 at 12:57:25

; 

; external perimeters extrusion width = 0.45mm
; perimeters extrusion width = 0.45mm
; infill extrusion width = 0.45mm
; solid infill extrusion width = 0.45mm
; top infill extrusion width = 0.40mm
; first layer extrusion width = 0.42mm

M201 X1000 Y1000 Z1000 E5000 ; sets maximum accelerations, mm/sec^2
M203 X200 Y200 Z12 E120 ; sets maximum feedrates, mm/sec
M204 P1250 R1250 T1250 ; sets acceleration (P, T) and retract acceleration (R), mm/sec^2
M205 X8.00 Y8.00 Z0.40 E1.50 ; sets the jerk limits, mm/sec
M205 S0 T0 ; sets the minimum extruding and travel feed rate, mm/sec
M107
M115 U3.4.0 ; tell printer latest fw version
M83  ; extruder relative mode
M104 S215 ; set extruder temp
M140 S60 ; set bed temp
M190 S60 ; wait for bed temp
M109 S215 ; wait for extruder temp
G28 W ; home all without mesh bed level
G80 ; mesh bed leveling
G1 Y-3.0 F1000.0 ; go outside print area
G92 E0.0
G1 X60.0 E9.0  F1000.0 ; intro line
M73 Q0 S87
M73 P0 R83
G1 X100.0 E12.5  F1000.0 ; intro line
G92 E0.0
M221 S95
M900 K30; Filament gcode
G21 ; set units to millimeters
G90 ; use absolute coordinates
M83 ; use relative distances for extrusion
;BEFORE_LAYER_CHANGE
G92 E0.0
;0.2


G1 E-0.80000 F2100.00000
G1 Z0.600 F10800.000
;AFTER_LAYER_CHANGE
;0.2
G1 X102.843 Y129.959
G1 Z0.200
G1 E0.80000 F2100.00000
M204 S1000
G1 F1200
G1 X100.044 Y128.501 E0.09896
G1 X77.386 Y108.137 E0.95518
G1 X73.352 Y103.432 E0.19432
G1 X70.040 Y98.047 E0.19823
G1 X67.656 Y92.292 E0.19531
G1 X66.201 Y86.234 E0.19535
G1 X65.712 Y80.036 E0.19494
G1 X66.202 Y73.812 E0.19574
G1 X67.715 Y67.600 E0.20048
G1 X70.038 Y62.007 E0.18991
G1 X73.199 Y56.836 E0.19003
G1 X77.336 Y51.961 E0.20047
G1 X82.075 Y47.914 E0.19538
G1 X87.538 Y44.590 E0.20052
G1 X93.137 Y42.279 E0.18991
G1 X99.027 Y40.858 E0.18997
G1 X105.404 Y40.336 E0.20063
G1 X111.774 Y40.858 E0.20040
G1 X117.665 Y42.279 E0.18998
G1 X123.263 Y44.590 E0.18990
G1 X128.724 Y47.912 E0.20041
G1 X133.465 Y51.960 E0.19546
G1 X137.511 Y56.699 E0.19538
G1 X140.835 Y62.163 E0.20052
G1 X143.146 Y67.761 E0.18991
G1 X144.568 Y73.651 E0.18997
G1 X145.089 Y80.014 E0.20017
G1 X144.600 Y86.234 E0.19563
G1 X143.145 Y92.292 E0.19536
G1 X140.762 Y98.046 E0.19528
G1 X137.465 Y103.412 E0.19746
G1 X133.445 Y108.110 E0.19386
G1 X111.681 Y128.481 E0.93467
G1 X111.274 Y128.757 E0.01544
G1 X108.865 Y129.957 E0.08437
G1 X105.862 Y130.438 E0.09535
G1 X102.902 Y129.968 E0.09398
; PURGING FINISHED
G1 F8640
G1 X100.044 Y128.501 E-0.74193
G1 X99.986 Y128.448 E-0.01807
G1 E-0.04000 F2100.00000
G1 Z0.800 F10800.000
G1 X104.456 Y126.066
G1 Z0.200
G1 E0.80000 F2100.00000
G1 F1200
G1 X103.748 Y125.787 E0.02385
G1 X103.093 Y125.408 E0.02374
G1 X102.505 Y124.933 E0.02369
G1 X102.003 Y124.375 E0.02354
G1 X101.598 Y123.748 E0.02339
G1 X101.300 Y123.068 E0.02329
G1 X101.119 Y122.349 E0.02323
G1 X101.059 Y121.612 E0.02318
G1 X101.119 Y120.875 E0.02318
G1 X101.301 Y120.156 E0.02326
G1 X101.605 Y119.466 E0.02365
G1 X102.003 Y118.850 E0.02300
G1 X102.505 Y118.292 E0.02354
G1 X103.094 Y117.816 E0.02372
G1 X103.760 Y117.432 E0.02411
G1 X104.456 Y117.159 E0.02345
G1 X105.201 Y116.989 E0.02396
G1 X105.950 Y116.934 E0.02356
G1 X106.725 Y116.989 E0.02433
G1 X107.470 Y117.159 E0.02398
G1 X108.178 Y117.437 E0.02385
G1 X108.833 Y117.817 E0.02374
G1 X109.421 Y118.292 E0.02369
G1 X109.923 Y118.850 E0.02354
G1 X110.328 Y119.476 E0.02339
G1 X110.626 Y120.157 E0.02330
G1 X110.807 Y120.875 E0.02321
G1 X110.869 Y121.612 E0.02321
G1 X110.807 Y122.350 E0.02321
G1 X110.626 Y123.069 E0.02324
G1 X110.321 Y123.759 E0.02365
G1 X109.923 Y124.375 E0.02300
G1 X109.421 Y124.933 E0.02354
G1 X108.833 Y125.408 E0.02369
G1 X108.178 Y125.787 E0.02374
G1 X107.470 Y126.066 E0.02385
G1 X106.726 Y126.235 E0.02394
G1 X105.963 Y126.293 E0.02399
G1 X105.200 Y126.235 E0.02399
G1 X104.515 Y126.079 E0.02205
G1 X104.598 Y125.712 F10800.000
G1 F1200
G1 X103.913 Y125.447 E0.02305
G1 X103.307 Y125.096 E0.02193
G1 X102.766 Y124.659 E0.02184
G1 X102.304 Y124.145 E0.02166
G1 X101.932 Y123.569 E0.02150
G1 X101.658 Y122.945 E0.02136
G1 X101.492 Y122.287 E0.02127
G1 X101.437 Y121.612 E0.02124
G1 X101.492 Y120.937 E0.02124
G1 X101.658 Y120.279 E0.02128
G1 X101.938 Y119.646 E0.02172
G1 X102.304 Y119.080 E0.02112
G1 X102.766 Y118.566 E0.02166
G1 X103.308 Y118.128 E0.02184
G1 X103.924 Y117.773 E0.02230
G1 X104.568 Y117.520 E0.02168
G1 X105.257 Y117.363 E0.02217
G1 X105.951 Y117.312 E0.02182
G1 X106.669 Y117.363 E0.02257
G1 X107.359 Y117.520 E0.02218
G1 X108.014 Y117.778 E0.02207
G1 X108.619 Y118.128 E0.02193
G1 X109.161 Y118.566 E0.02184
G1 X109.623 Y119.080 E0.02166
G1 X109.995 Y119.655 E0.02150
G1 X110.268 Y120.279 E0.02136
G1 X110.434 Y120.937 E0.02126
G1 X110.491 Y121.612 E0.02125
G1 X110.434 Y122.288 E0.02125
G1 X110.268 Y122.945 E0.02127
G1 X109.988 Y123.579 E0.02172
G1 X109.623 Y124.145 E0.02112
G1 X109.161 Y124.659 E0.02166
G1 X108.619 Y125.096 E0.02184
G1 X108.014 Y125.447 E0.02193
G1 X107.359 Y125.705 E0.02207
G1 X106.670 Y125.861 E0.02216
G1 X105.963 Y125.915 E0.02221
G1 X105.257 Y125.861 E0.02221
G1 X104.657 Y125.725 E0.01929
G1 X104.306 Y125.985 F10800.000
G1 F8640
G1 X103.913 Y125.447 E-0.18343
G1 X103.307 Y125.096 E-0.16151
G1 X102.766 Y124.659 E-0.16081
G1 X102.304 Y124.145 E-0.15952
G1 X102.081 Y123.800 E-0.09473
G1 E-0.04000 F2100.00000
G1 Z0.800 F10800.000
G1 X111.314 Y116.448
G1 Z0.200
G1 E0.80000 F2100.00000
G1 F1200
G1 X112.418 Y118.616 E0.07629
G1 X112.756 Y120.750 E0.06774
G1 X112.418 Y122.884 E0.06774
G1 X111.437 Y124.809 E0.06775
G1 X109.910 Y126.336 E0.06773
G1 X107.985 Y127.317 E0.06775
G1 X105.851 Y127.655 E0.06774
G1 X103.717 Y127.317 E0.06774
G1 X101.792 Y126.336 E0.06775
G1 X100.264 Y124.809 E0.06773
G1 X99.284 Y122.884 E0.06775
G1 X98.945 Y120.750 E0.06774
G1 X99.284 Y118.616 E0.06774
G1 X100.290 Y116.640 E0.06951
G1 X93.995 Y115.129 E0.20297
G1 X88.643 Y112.913 E0.18163
G1 X83.704 Y109.886 E0.18162
G1 X79.300 Y106.125 E0.18158
G1 X75.540 Y101.721 E0.18158
G1 X72.513 Y96.782 E0.18162
G1 X70.297 Y91.430 E0.18163
G1 X68.944 Y85.799 E0.18158
G1 X68.490 Y80.025 E0.18161
G1 X68.944 Y74.250 E0.18161
G1 X70.297 Y68.619 E0.18158
G1 X72.513 Y63.267 E0.18163
G1 X75.540 Y58.328 E0.18162
G1 X79.300 Y53.924 E0.18158
G1 X83.704 Y50.164 E0.18158
G1 X88.643 Y47.137 E0.18162
G1 X93.995 Y44.921 E0.18163
G1 X99.626 Y43.568 E0.18158
G1 X105.401 Y43.114 E0.18161
G1 X111.175 Y43.568 E0.18161
G1 X116.806 Y44.921 E0.18158
G1 X122.158 Y47.137 E0.18163
G1 X127.097 Y50.164 E0.18162
G1 X131.501 Y53.924 E0.18158
G1 X135.262 Y58.328 E0.18158
G1 X138.289 Y63.267 E0.18162
G1 X140.505 Y68.619 E0.18163
G1 X141.857 Y74.250 E0.18158
G1 X142.312 Y80.025 E0.18161
G1 X141.857 Y85.799 E0.18161
G1 X140.505 Y91.430 E0.18158
G1 X138.289 Y96.782 E0.18163
G1 X135.262 Y101.721 E0.18162
G1 X131.501 Y106.125 E0.18158
G1 X127.097 Y109.886 E0.18158
G1 X122.158 Y112.913 E0.18162
G1 X116.806 Y115.129 E0.18163
G1 X111.372 Y116.434 E0.17523
G1 X111.867 Y116.703 F10800.000
G1 F1200
G1 X112.781 Y118.498 E0.06317
G1 X113.138 Y120.750 E0.07149
G1 X112.781 Y123.002 E0.07149
G1 X111.746 Y125.033 E0.07149
G1 X110.134 Y126.645 E0.07148
G1 X108.103 Y127.680 E0.07149
G1 X105.851 Y128.037 E0.07149
G1 X103.599 Y127.680 E0.07149
G1 X101.567 Y126.645 E0.07149
G1 X99.955 Y125.033 E0.07148
G1 X98.920 Y123.002 E0.07149
G1 X98.563 Y120.750 E0.07149
G1 X98.920 Y118.498 E0.07149
G1 X99.737 Y116.895 E0.05639
G1 X93.878 Y115.488 E0.18891
G1 X88.471 Y113.250 E0.18349
G1 X83.482 Y110.192 E0.18348
G1 X79.033 Y106.393 E0.18344
G1 X75.234 Y101.943 E0.18344
G1 X72.176 Y96.954 E0.18348
G1 X69.937 Y91.547 E0.18349
G1 X68.571 Y85.858 E0.18344
G1 X68.111 Y80.025 E0.18347
G1 X68.571 Y74.191 E0.18347
G1 X69.937 Y68.502 E0.18344
G1 X72.176 Y63.095 E0.18349
G1 X75.234 Y58.106 E0.18348
G1 X79.033 Y53.657 E0.18344
G1 X83.482 Y49.858 E0.18344
G1 X88.471 Y46.800 E0.18348
G1 X93.878 Y44.561 E0.18349
G1 X99.567 Y43.195 E0.18344
G1 X105.401 Y42.735 E0.18347
G1 X111.234 Y43.195 E0.18347
G1 X116.923 Y44.561 E0.18344
G1 X122.330 Y46.800 E0.18349
G1 X127.319 Y49.858 E0.18348
G1 X131.769 Y53.657 E0.18344
G1 X135.568 Y58.106 E0.18344
G1 X138.626 Y63.095 E0.18348
G1 X140.864 Y68.502 E0.18349
G1 X142.231 Y74.191 E0.18344
G1 X142.690 Y80.025 E0.18347
G1 X142.231 Y85.858 E0.18347
G1 X140.864 Y91.547 E0.18344
G1 X138.626 Y96.954 E0.18349
G1 X135.568 Y101.943 E0.18348
G1 X131.769 Y106.393 E0.18344
G1 X127.319 Y110.192 E0.18344
G1 X122.330 Y113.250 E0.18348
G1 X116.923 Y115.488 E0.18349
G1 X111.925 Y116.689 E0.16117
G1 X111.502 Y116.866 F10800.000
G1 F8640
G1 X112.781 Y118.498 E-0.46214
G1 X112.983 Y119.772 E-0.29786
G1 E-0.04000 F2100.00000
G1 Z0.800 F10800.000
G1 X99.530 Y116.342
G1 Z0.200
G1 E0.80000 F2100.00000
G1 F1200
G1 X69.314 Y86.125 E1.34173
G1 X69.482 Y86.828 E0.02270
G1 X98.597 Y115.943 E1.29282
G1 X97.894 Y115.774 E0.02270
G1 X69.651 Y87.531 E1.25412
G1 X69.820 Y88.234 E0.02270
G1 X97.192 Y115.606 E1.21542
G1 X96.489 Y115.437 E0.02269
G1 X69.989 Y88.937 E1.17671
G1 X70.158 Y89.640 E0.02270
G1 X95.786 Y115.268 E1.13801
G1 X95.083 Y115.099 E0.02269
G1 X70.326 Y90.342 E1.09931
M73 Q1 S86
M73 P1 R82
G1 X70.495 Y91.045 E0.02269
G1 X94.380 Y114.930 E1.06060
G1 X94.083 Y114.859 E0.00961
G1 X93.557 Y114.641 E0.01786
G1 X70.784 Y91.868 E1.01122
G1 X71.162 Y92.780 E0.03097
G1 X92.646 Y114.264 E0.95399
G1 X91.734 Y113.886 E0.03097
G1 X71.539 Y93.691 E0.89676
G1 X71.916 Y94.603 E0.03097
G1 X90.823 Y113.509 E0.83953
G1 X89.912 Y113.132 E0.03097
G1 X72.294 Y95.514 E0.78230
G1 X72.671 Y96.425 E0.03097
G1 X89.314 Y113.068 E0.73899
G1 F8640
G1 X86.986 Y110.740 E-0.76000
G1 E-0.04000 F2100.00000
G1 Z0.800 F10800.000
G1 X88.252 Y112.540
G1 Z0.200
G1 E0.80000 F2100.00000
G1 F1200
G1 X72.885 Y97.173 E0.68235
G1 F8640
G1 X75.213 Y99.501 E-0.76000
G1 E-0.04000 F2100.00000
G1 Z0.800 F10800.000
G1 X73.731 Y98.553
G1 Z0.200
G1 E0.80000 F2100.00000
G1 F1200
G1 X86.873 Y111.695 E0.58356
G1 F8640
G1 X84.545 Y109.367 E-0.76000
G1 E-0.04000 F2100.00000
G1 Z0.800 F10800.000
G1 X85.493 Y110.850
G1 Z0.200
G1 E0.80000 F2100.00000
G1 F1200
G1 X74.576 Y99.932 E0.48477
G1 F8640
G1 X76.903 Y102.260 E-0.76000
G1 E-0.04000 F2100.00000
G1 Z0.800 F10800.000
G1 X75.421 Y101.312
G1 Z0.200
G1 E0.80000 F2100.00000
G1 F1200
G1 X84.114 Y110.004 E0.38598
G1 F8640
G1 X81.786 Y107.677 E-0.76000
G1 E-0.04000 F2100.00000
G1 Z0.800 F10800.000
G1 X99.348 Y122.568
G1 Z0.200
G1 E0.80000 F2100.00000
G1 F1200
G1 X104.032 Y127.252 E0.20800
G1 X103.144 Y126.898 F10800.000
G1 F1200
G1 X99.702 Y123.456 E0.15284
G1 F8640
G1 X102.030 Y125.784 E-0.76000
G1 E-0.04000 F2100.00000
G1 Z0.800 F10800.000
G1 X68.794 Y77.596
G1 Z0.200
G1 E0.80000 F2100.00000
G1 F1200
G1 X108.488 Y117.290 E1.76259
G1 X108.302 Y117.182 E0.00678
G1 X107.552 Y116.887 E0.02530
G1 X68.913 Y78.249 E1.71571
G1 X68.874 Y78.744 E0.01559
G1 X106.860 Y116.730 E1.68674
G1 X106.270 Y116.673 E0.01863
G1 X68.835 Y79.239 E1.66225
G1 X68.796 Y79.734 E0.01559
G1 X105.729 Y116.667 E1.63998
G1 X105.232 Y116.703 E0.01566
G1 X68.792 Y80.264 E1.61807
G1 X68.838 Y80.843 E0.01826
G1 X104.788 Y116.793 E1.59632
G1 X104.355 Y116.895 E0.01395
G1 X68.883 Y81.423 E1.57509
G1 X68.929 Y82.003 E0.01826
G1 X103.972 Y117.045 E1.55604
G1 X103.594 Y117.202 E0.01283
G1 X68.975 Y82.582 E1.53724
G1 X69.020 Y83.162 E0.01826
G1 X103.255 Y117.397 E1.52017
G1 X102.918 Y117.594 E0.01225
G1 X69.066 Y83.742 E1.50319
G1 X69.112 Y84.321 E0.01826
G1 X102.623 Y117.833 E1.48805
G1 X102.328 Y118.072 E0.01192
G1 X69.157 Y84.901 E1.47291
G1 X69.203 Y85.481 E0.01826
G1 X100.003 Y116.281 E1.36765
G1 X100.704 Y116.449 E0.02266
G1 X100.525 Y116.802 E0.01245
G1 X102.072 Y118.350 E0.06873
G1 X101.820 Y118.631 E0.01187
G1 X100.344 Y117.156 E0.06551
G1 X100.164 Y117.510 E0.01247
G1 X101.603 Y118.949 E0.06388
G1 X101.393 Y119.273 E0.01213
G1 X99.984 Y117.864 E0.06258
G1 X99.804 Y118.218 E0.01247
G1 X101.221 Y119.635 E0.06295
G1 X101.058 Y120.006 E0.01272
G1 X99.624 Y118.571 E0.06369
G1 X99.556 Y118.704 E0.00468
G1 X99.510 Y118.992 E0.00915
G1 X100.941 Y120.423 E0.06356
G1 X100.837 Y120.853 E0.01388
G1 X99.437 Y119.453 E0.06217
G1 X99.364 Y119.914 E0.01465
G1 X100.797 Y121.347 E0.06362
G1 X100.775 Y121.612 E0.00836
G1 X100.797 Y121.881 E0.00847
G1 X99.291 Y120.375 E0.06688
G1 X99.231 Y120.750 E0.01192
G1 X99.250 Y120.868 E0.00377
G1 X100.860 Y122.478 E0.07148
G1 X101.051 Y123.203 E0.02355
G1 X99.351 Y121.503 E0.07549
G1 X99.452 Y122.138 E0.02018
G1 X104.463 Y127.149 E0.22252
G1 X105.097 Y127.250 E0.02018
G1 X104.063 Y126.215 E0.04594
G1 X104.372 Y126.337 E0.01044
G1 X104.821 Y126.439 E0.01444
G1 X105.732 Y127.350 E0.04046
G1 X105.851 Y127.369 E0.00377
G1 X106.226 Y127.310 E0.01192
G1 X105.454 Y126.538 E0.03426
G1 X106.022 Y126.572 E0.01787
G1 X106.686 Y127.237 E0.02950
G1 X107.147 Y127.163 E0.01465
G1 X106.519 Y126.535 E0.02792
G1 X106.768 Y126.516 E0.00786
G1 X106.985 Y126.467 E0.00696
G1 X107.608 Y127.090 E0.02770
G1 X107.896 Y127.045 E0.00915
G1 X108.029 Y126.977 E0.00468
G1 X107.419 Y126.367 E0.02707
G1 X107.554 Y126.337 E0.00433
G1 X107.819 Y126.233 E0.00893
G1 X108.383 Y126.797 E0.02505
G1 X108.737 Y126.617 E0.01247
G1 X108.202 Y126.082 E0.02374
G1 X108.552 Y125.898 E0.01241
G1 X109.090 Y126.436 E0.02391
G1 X109.444 Y126.256 E0.01247
G1 X108.890 Y125.702 E0.02461
G1 X108.994 Y125.642 E0.00377
G1 X109.199 Y125.476 E0.00826
G1 X109.784 Y126.062 E0.02601
G1 X110.051 Y125.795 E0.01186
G1 X109.494 Y125.238 E0.02475
G1 X109.616 Y125.139 E0.00494
G1 X109.764 Y124.974 E0.00695
G1 X110.318 Y125.528 E0.02460
G1 X110.585 Y125.261 E0.01186
G1 X110.017 Y124.693 E0.02523
G1 X110.148 Y124.547 E0.00616
G1 X110.249 Y124.391 E0.00583
G1 X110.852 Y124.994 E0.02678
G1 X111.119 Y124.727 E0.01186
G1 X110.459 Y124.067 E0.02933
G1 X110.571 Y123.893 E0.00648
G1 X110.647 Y123.721 E0.00592
G1 X111.328 Y124.401 E0.03022
G1 X111.508 Y124.047 E0.01247
G1 X110.811 Y123.350 E0.03096
G1 X110.894 Y123.161 E0.00650
G1 X110.947 Y122.952 E0.00675
G1 X111.688 Y123.694 E0.03291
G1 X111.868 Y123.340 E0.01247
G1 X111.054 Y122.526 E0.03614
G1 X111.087 Y122.397 E0.00419
G1 X111.116 Y122.054 E0.01081
G1 X112.048 Y122.986 E0.04140
G1 X112.146 Y122.795 E0.00673
G1 X112.179 Y122.583 E0.00675
G1 X111.148 Y121.552 E0.04579
G1 X111.099 Y120.968 E0.01838
G1 X112.252 Y122.122 E0.05122
G1 X112.325 Y121.661 E0.01465
G1 X110.950 Y120.286 E0.06107
G1 X110.894 Y120.065 E0.00715
G1 X110.607 Y119.409 E0.02250
G1 X112.399 Y121.200 E0.07955
M73 Q2 S85
G1 X112.468 Y120.735 E0.01476
G1 X68.991 Y77.259 E1.93054
M73 P2 R81
G1 X69.030 Y76.764 E0.01559
G1 X112.367 Y120.101 E1.92434
G1 X112.266 Y119.466 E0.02018
G1 X69.069 Y76.269 E1.91814
G1 X69.108 Y75.774 E0.01559
G1 X112.166 Y118.831 E1.91194
G1 X112.146 Y118.704 E0.00403
G1 X111.702 Y117.833 E0.03069
G1 X69.147 Y75.278 E1.88962
G1 X69.186 Y74.783 E0.01559
G1 X111.148 Y116.745 E1.86328
G1 X110.899 Y116.257 E0.01721
G1 X111.136 Y116.200 E0.00766
G1 X69.226 Y74.289 E1.86100
G1 X69.329 Y73.859 E0.01390
G1 X111.567 Y116.096 E1.87553
G1 X111.997 Y115.993 E0.01390
G1 X69.433 Y73.428 E1.89006
G1 X69.536 Y72.997 E0.01390
G1 X112.428 Y115.889 E1.90459
G1 X112.859 Y115.786 E0.01390
G1 X69.640 Y72.567 E1.91912
G1 X69.743 Y72.136 E0.01390
G1 X113.289 Y115.683 E1.93364
G1 X113.720 Y115.579 E0.01390
G1 X69.846 Y71.706 E1.94817
G1 X69.950 Y71.275 E0.01390
G1 X114.151 Y115.476 E1.96270
G1 X114.581 Y115.372 E0.01390
G1 X70.053 Y70.844 E1.97723
G1 X70.157 Y70.414 E0.01390
G1 X115.012 Y115.269 E1.99176
G1 X115.442 Y115.165 E0.01390
G1 X70.260 Y69.983 E2.00629
G1 X70.363 Y69.553 E0.01390
G1 X115.873 Y115.062 E2.02082
G1 X116.304 Y114.959 E0.01390
G1 X70.467 Y69.122 E2.03534
G1 X70.572 Y68.693 E0.01386
G1 X116.732 Y114.853 E2.04970
M73 Q3 S84
G1 X117.110 Y114.697 E0.01283
G1 X70.729 Y68.316 E2.05953
M73 P3 R80
G1 X70.885 Y67.938 E0.01283
G1 X117.488 Y114.541 E2.06935
G1 X117.865 Y114.384 E0.01283
G1 X71.041 Y67.560 E2.07918
G1 X71.198 Y67.183 E0.01283
G1 X118.243 Y114.228 E2.08901
G1 X118.620 Y114.071 E0.01283
G1 X71.354 Y66.805 E2.09883
G1 X71.510 Y66.427 E0.01283
G1 X118.998 Y113.915 E2.10866
G1 X119.376 Y113.759 E0.01283
G1 X71.667 Y66.050 E2.11848
