; generated by Slic3r Prusa Edition 1.41.0+win64 on 2018-10-31 at 07:27:07

; 

; external perimeters extrusion width = 0.45mm
; perimeters extrusion width = 0.45mm
; infill extrusion width = 0.45mm
; solid infill extrusion width = 0.45mm
; top infill extrusion width = 0.40mm
; first layer extrusion width = 0.42mm

M201 X1000 Y1000 Z1000 E5000 ; sets maximum accelerations, mm/sec^2
M203 X200 Y200 Z12 E120 ; sets maximum feedrates, mm/sec
M204 P1250 R1250 T1250 ; sets acceleration (P, T) and retract acceleration (R), mm/sec^2
M205 X8.00 Y8.00 Z0.40 E1.50 ; sets the jerk limits, mm/sec
M205 S0 T0 ; sets the minimum extruding and travel feed rate, mm/sec
M107
M115 U3.4.1 ; tell printer latest fw version
M83  ; extruder relative mode
M104 S230 ; set extruder temp
M140 S85 ; set bed temp
M190 S85 ; wait for bed temp
M109 S230 ; wait for extruder temp
G28 W ; home all without mesh bed level
G80 ; mesh bed leveling
G1 Y-3.0 F1000.0 ; go outside print area
G92 E0.0
G1 X60.0 E9.0  F1000.0 ; intro line
M73 Q0 S17
M73 P0 R17
G1 X100.0 E12.5  F1000.0 ; intro line
G92 E0.0
M221 S95
M900 K45; Filament gcode
G21 ; set units to millimeters
G90 ; use absolute coordinates
M83 ; use relative distances for extrusion
;BEFORE_LAYER_CHANGE
G92 E0.0
;0.2


G1 E-0.80000 F2100.00000
G1 Z0.600 F10800.000
;AFTER_LAYER_CHANGE
;0.2
G1 X106.946 Y89.855
G1 Z0.200
G1 E0.80000 F2100.00000
M204 S1000
G1 F1200
G1 X109.623 Y87.158 E0.11915
G1 X113.190 Y84.607 E0.13750
G1 X116.915 Y82.865 E0.12894
G1 X120.905 Y81.793 E0.12953
G1 X125.006 Y81.434 E0.12909
G1 X129.116 Y81.797 E0.12938
G1 X133.329 Y82.966 E0.13707
G1 X137.045 Y84.759 E0.12938
G1 X140.149 Y86.949 E0.11910
G1 X142.842 Y89.623 E0.11901
G1 X145.393 Y93.190 E0.13750
G1 X147.135 Y96.915 E0.12894
G1 X148.207 Y100.905 E0.12953
G1 X148.566 Y105.001 E0.12894
G1 X148.203 Y109.116 E0.12952
G1 X147.034 Y113.329 E0.13707
G1 X145.241 Y117.045 E0.12938
G1 X143.051 Y120.149 E0.11910
G1 X140.377 Y122.842 E0.11901
G1 X136.810 Y125.393 E0.13750
G1 X133.085 Y127.135 E0.12894
G1 X129.095 Y128.207 E0.12953
G1 X124.999 Y128.566 E0.12894
G1 X120.884 Y128.203 E0.12952
G1 X116.671 Y127.034 E0.13707
G1 X112.955 Y125.241 E0.12938
G1 X109.851 Y123.051 E0.11910
G1 X107.158 Y120.377 E0.11901
G1 X104.607 Y116.810 E0.13750
G1 X102.865 Y113.085 E0.12894
G1 X101.793 Y109.095 E0.12953
G1 X101.434 Y104.999 E0.12894
G1 X101.797 Y100.884 E0.12952
G1 X102.966 Y96.671 E0.13707
G1 X104.759 Y92.955 E0.12938
G1 X106.911 Y89.904 E0.11707
G1 X107.218 Y90.120 F10800.000
G1 F1200
G1 X109.890 Y87.424 E0.11900
G1 X113.383 Y84.932 E0.13455
G1 X117.048 Y83.218 E0.12687
G1 X120.973 Y82.164 E0.12743
G1 X125.004 Y81.811 E0.12687
G1 X129.048 Y82.168 E0.12728
G1 X133.171 Y83.309 E0.13414
G1 X136.829 Y85.068 E0.12725
G1 X139.905 Y87.236 E0.11801
G1 X142.576 Y89.890 E0.11803
G1 X145.068 Y93.383 E0.13455
G1 X146.782 Y97.048 E0.12687
G1 X147.835 Y100.969 E0.12729
G1 X148.189 Y105.000 E0.12687
G1 X147.836 Y109.026 E0.12673
G1 X146.783 Y112.951 E0.12742
G1 X145.069 Y116.617 E0.12688
G1 X142.576 Y120.110 E0.13457
G1 X139.906 Y122.763 E0.11801
G1 X136.829 Y124.932 E0.11803
G1 X133.172 Y126.691 E0.12723
G1 X129.049 Y127.832 E0.13414
G1 X125.000 Y128.189 E0.12742
G1 X120.974 Y127.836 E0.12673
G1 X117.049 Y126.783 E0.12742
G1 X113.383 Y125.069 E0.12687
G1 X109.890 Y122.576 E0.13457
G1 X107.237 Y119.906 E0.11801
G1 X105.068 Y116.829 E0.11803
G1 X103.309 Y113.172 E0.12723
G1 X102.168 Y109.049 E0.13414
G1 X101.811 Y105.000 E0.12742
G1 X102.168 Y100.952 E0.12742
G1 X103.309 Y96.829 E0.13414
G1 X105.068 Y93.171 E0.12725
G1 X107.184 Y90.170 E0.11515
; PURGING FINISHED
G1 F8640
G1 X109.494 Y87.825 E-0.76000
G1 E-0.04000 F2100.00000
G1 Z0.800 F10800.000
G1 X123.455 Y117.625
G1 Z0.200
G1 E0.80000 F2100.00000
G1 F1200
G1 X123.943 Y117.397 E0.01688
G1 X124.464 Y117.258 E0.01688
G1 X124.969 Y117.213 E0.01591
G1 X125.533 Y117.257 E0.01775
G1 X126.057 Y117.397 E0.01698
G1 X126.545 Y117.625 E0.01688
G1 X126.986 Y117.933 E0.01689
G1 X127.367 Y118.314 E0.01688
G1 X127.675 Y118.755 E0.01689
G1 X127.903 Y119.243 E0.01688
G1 X128.042 Y119.764 E0.01689
G1 X128.089 Y120.300 E0.01688
G1 X128.042 Y120.836 E0.01688
G1 X127.903 Y121.357 E0.01689
G1 X127.675 Y121.845 E0.01688
G1 X127.367 Y122.286 E0.01689
G1 X126.986 Y122.667 E0.01688
G1 X126.545 Y122.975 E0.01689
G1 X126.057 Y123.203 E0.01688
G1 X125.536 Y123.342 E0.01688
G1 X125.000 Y123.389 E0.01689
G1 X124.464 Y123.342 E0.01689
G1 X123.943 Y123.203 E0.01688
G1 X123.455 Y122.975 E0.01688
G1 X123.014 Y122.667 E0.01689
G1 X122.633 Y122.286 E0.01688
G1 X122.325 Y121.845 E0.01689
G1 X122.097 Y121.357 E0.01688
G1 X121.958 Y120.836 E0.01689
G1 X121.911 Y120.300 E0.01688
G1 X121.958 Y119.764 E0.01688
G1 X122.097 Y119.243 E0.01689
G1 X122.325 Y118.755 E0.01688
G1 X122.633 Y118.314 E0.01689
G1 X123.014 Y117.933 E0.01688
G1 X123.406 Y117.659 E0.01500
G1 X123.623 Y117.968 F10800.000
G1 F1200
G1 X124.073 Y117.753 E0.01565
G1 X124.529 Y117.630 E0.01482
G1 X124.971 Y117.592 E0.01390
G1 X125.470 Y117.630 E0.01568
G1 X125.927 Y117.753 E0.01485
G1 X126.355 Y117.952 E0.01482
G1 X126.742 Y118.223 E0.01482
G1 X127.077 Y118.557 E0.01481
G1 X127.348 Y118.945 E0.01482
G1 X127.547 Y119.373 E0.01481
G1 X127.670 Y119.829 E0.01482
G1 X127.711 Y120.300 E0.01481
G1 X127.670 Y120.771 E0.01481
G1 X127.547 Y121.227 E0.01482
G1 X127.348 Y121.655 E0.01481
G1 X127.077 Y122.042 E0.01482
G1 X126.742 Y122.377 E0.01481
G1 X126.355 Y122.648 E0.01482
G1 X125.927 Y122.847 E0.01481
G1 X125.471 Y122.970 E0.01482
G1 X125.000 Y123.011 E0.01482
G1 X124.529 Y122.970 E0.01482
G1 X124.073 Y122.847 E0.01482
G1 X123.645 Y122.648 E0.01481
G1 X123.258 Y122.377 E0.01482
G1 X122.923 Y122.042 E0.01481
G1 X122.652 Y121.655 E0.01482
G1 X122.453 Y121.227 E0.01481
G1 X122.330 Y120.771 E0.01482
G1 X122.289 Y120.300 E0.01481
G1 X122.330 Y119.829 E0.01481
G1 X122.453 Y119.373 E0.01482
G1 X122.652 Y118.945 E0.01481
G1 X122.923 Y118.557 E0.01482
G1 X123.258 Y118.223 E0.01481
G1 X123.573 Y118.002 E0.01209
G1 X123.620 Y117.568 F10800.000
G1 F8640
G1 X124.073 Y117.753 E-0.12892
G1 X124.529 Y117.630 E-0.10910
G1 X124.971 Y117.592 E-0.10236
G1 X125.470 Y117.630 E-0.11551
G1 X125.927 Y117.753 E-0.10936
G1 X126.355 Y117.952 E-0.10910
G1 X126.659 Y118.165 E-0.08564
G1 E-0.04000 F2100.00000
G1 Z0.800 F10800.000
G1 X121.629 Y124.116
G1 Z0.200
G1 E0.80000 F2100.00000
G1 F1200
G1 X118.361 Y123.240 E0.10609
G1 X115.295 Y121.810 E0.10609
G1 X112.523 Y119.869 E0.10609
G1 X110.131 Y117.477 E0.10609
G1 X108.190 Y114.705 E0.10609
G1 X106.760 Y111.639 E0.10609
G1 X105.884 Y108.371 E0.10609
G1 X105.589 Y105.000 E0.10609
G1 X105.884 Y101.629 E0.10609
G1 X106.760 Y98.361 E0.10609
G1 X108.190 Y95.295 E0.10609
G1 X110.131 Y92.523 E0.10609
G1 X112.523 Y90.131 E0.10609
G1 X115.295 Y88.190 E0.10609
G1 X118.361 Y86.760 E0.10609
G1 X121.629 Y85.884 E0.10609
G1 X125.000 Y85.589 E0.10609
G1 X128.371 Y85.884 E0.10609
G1 X131.639 Y86.760 E0.10609
G1 X134.705 Y88.190 E0.10609
G1 X137.477 Y90.131 E0.10609
G1 X139.869 Y92.523 E0.10609
G1 X141.810 Y95.295 E0.10609
G1 X143.240 Y98.361 E0.10609
G1 X144.116 Y101.629 E0.10609
G1 X144.411 Y105.000 E0.10609
G1 X144.116 Y108.371 E0.10609
G1 X143.240 Y111.639 E0.10609
G1 X141.810 Y114.705 E0.10609
G1 X139.869 Y117.477 E0.10609
G1 X137.477 Y119.869 E0.10609
G1 X134.705 Y121.810 E0.10609
G1 X131.639 Y123.240 E0.10609
G1 X128.371 Y124.116 E0.10609
G1 X125.000 Y124.411 E0.10609
G1 X121.689 Y124.121 E0.10421
G1 X121.656 Y124.497 F10800.000
G1 F1200
G1 X121.564 Y124.489 E0.00292
G1 X118.232 Y123.596 E0.10816
G1 X115.105 Y122.138 E0.10816
G1 X112.280 Y120.159 E0.10816
G1 X109.841 Y117.720 E0.10815
G1 X107.862 Y114.895 E0.10816
G1 X106.404 Y111.768 E0.10816
G1 X105.511 Y108.436 E0.10816
G1 X105.211 Y105.000 E0.10816
G1 X105.511 Y101.564 E0.10816
G1 X106.404 Y98.232 E0.10816
G1 X107.862 Y95.105 E0.10816
G1 X109.841 Y92.280 E0.10816
G1 X112.280 Y89.841 E0.10815
G1 X115.105 Y87.862 E0.10816
G1 X118.232 Y86.404 E0.10816
G1 X121.564 Y85.511 E0.10816
G1 X125.000 Y85.211 E0.10816
G1 X128.436 Y85.511 E0.10816
G1 X131.768 Y86.404 E0.10816
G1 X134.895 Y87.862 E0.10816
G1 X137.720 Y89.841 E0.10816
G1 X140.159 Y92.280 E0.10815
G1 X142.138 Y95.105 E0.10816
G1 X143.596 Y98.232 E0.10816
G1 X144.489 Y101.564 E0.10816
G1 X144.789 Y105.000 E0.10816
G1 X144.489 Y108.436 E0.10816
G1 X143.596 Y111.768 E0.10816
G1 X142.138 Y114.895 E0.10816
G1 X140.159 Y117.720 E0.10816
G1 X137.720 Y120.159 E0.10815
G1 X134.895 Y122.138 E0.10816
G1 X131.768 Y123.596 E0.10816
G1 X128.436 Y124.489 E0.10816
G1 X125.000 Y124.789 E0.10816
G1 X121.716 Y124.502 E0.10336
G1 X121.615 Y124.414 F10800.000
G1 F8640
G1 X121.564 Y124.489 E-0.03533
G1 X118.532 Y123.676 E-0.72467
G1 E-0.04000 F2100.00000
G1 Z0.800 F10800.000
G1 X123.771 Y123.248
G1 Z0.200
G1 E0.80000 F2100.00000
G1 F1200
G1 X124.617 Y124.093 E0.03752
G1 X125.000 Y124.127 E0.01206
G1 X125.169 Y124.112 E0.00534
G1 X124.705 Y123.647 E0.02062
G1 X125.000 Y123.673 E0.00930
G1 X125.243 Y123.652 E0.00765
G1 X125.660 Y124.069 E0.01851
G1 X126.151 Y124.026 E0.01545
G1 X125.713 Y123.588 E0.01944
G1 X126.133 Y123.475 E0.01367
G1 X126.641 Y123.983 E0.02254
G1 X127.132 Y123.940 E0.01545
G1 X126.500 Y123.308 E0.02804
G1 X126.687 Y123.221 E0.00646
G1 X126.840 Y123.114 E0.00586
G1 X127.623 Y123.897 E0.03475
G1 X128.113 Y123.854 E0.01545
G1 X127.153 Y122.894 E0.04260
G1 X127.422 Y122.630 E0.01184
G1 X128.564 Y123.771 E0.05064
G1 X128.985 Y123.659 E0.01367
G1 X127.671 Y122.345 E0.05830
G1 X127.890 Y122.031 E0.01202
G1 X129.406 Y123.546 E0.06722
G1 X129.826 Y123.433 E0.01367
G1 X128.067 Y121.674 E0.07805
G1 X128.170 Y121.454 E0.00762
G1 X128.214 Y121.287 E0.00540
G1 X130.247 Y123.320 E0.09019
G1 X130.668 Y123.207 E0.01367
G1 X128.324 Y120.863 E0.10400
G1 X128.367 Y120.373 E0.01545
G1 X131.089 Y123.095 E0.12077
G1 X131.510 Y122.982 E0.01367
G1 X128.330 Y119.802 E0.14109
G1 X128.322 Y119.714 E0.00276
G1 X128.137 Y119.075 E0.02087
G1 X132.006 Y122.944 E0.17166
G1 F8640
G1 X129.678 Y120.617 E-0.76000
G1 E-0.04000 F2100.00000
G1 Z0.800 F10800.000
G1 X124.219 Y124.229
G1 Z0.200
G1 E0.80000 F2100.00000
G1 F1200
G1 X105.958 Y105.968 E0.81022
G1 X106.009 Y106.552 E0.01842
G1 X123.448 Y123.991 E0.77373
G1 X122.863 Y123.940 E0.01842
G1 X106.060 Y107.137 E0.74551
G1 X106.111 Y107.722 E0.01842
G1 X122.278 Y123.889 E0.71730
G1 X121.693 Y123.838 E0.01842
G1 X106.162 Y108.307 E0.68909
G1 X106.354 Y109.032 E0.02353
G1 X120.968 Y123.646 E0.64840
G1 X120.239 Y123.451 E0.02367
G1 X106.549 Y109.761 E0.60740
G1 X106.745 Y110.490 E0.02367
G1 X119.510 Y123.255 E0.56639
G1 X118.782 Y123.060 E0.02367
G1 X106.940 Y111.218 E0.52539
G1 X107.027 Y111.542 E0.01050
G1 X107.286 Y112.098 E0.01926
G1 X117.902 Y122.714 E0.47100
G1 X116.902 Y122.248 E0.03461
G1 X107.752 Y113.098 E0.40595
G1 X108.219 Y114.098 E0.03461
G1 X116.253 Y122.132 E0.35647
G1 F8640
G1 X113.926 Y119.805 E-0.76000
G1 E-0.04000 F2100.00000
G1 Z0.800 F10800.000
G1 X115.176 Y121.589
G1 Z0.200
G1 E0.80000 F2100.00000
G1 F1200
G1 X108.411 Y114.824 E0.30019
G1 F8640
G1 X110.738 Y117.151 E-0.76000
G1 E-0.04000 F2100.00000
G1 Z0.800 F10800.000
G1 X109.657 Y116.603
G1 Z0.200
G1 E0.80000 F2100.00000
G1 F1200
G1 X113.397 Y120.343 E0.16593
G1 F8640
G1 X111.069 Y118.016 E-0.76000
G1 E-0.04000 F2100.00000
G1 Z0.800 F10800.000
G1 X122.052 Y121.528
G1 Z0.200
G1 E0.80000 F2100.00000
G1 F1200
G1 X105.907 Y105.383 E0.71635
G1 X105.873 Y105.000 E0.01206
G1 X105.888 Y104.831 E0.00534
G1 X121.653 Y120.595 E0.69945
G1 X121.627 Y120.300 E0.00930
G1 X121.648 Y120.057 E0.00765
G1 X105.931 Y104.340 E0.69734
G1 X105.974 Y103.849 E0.01545
G1 X121.712 Y119.587 E0.69828
G1 X121.825 Y119.167 E0.01367
G1 X106.017 Y103.359 E0.70137
G1 X106.060 Y102.868 E0.01545
G1 X121.992 Y118.800 E0.70688
G1 X122.079 Y118.613 E0.00646
G1 X122.186 Y118.460 E0.00586
G1 X106.103 Y102.377 E0.71359
G1 X106.146 Y101.887 E0.01545
G1 X122.406 Y118.147 E0.72143
M73 Q6 S16
G1 X122.670 Y117.878 E0.01184
M73 P6 R16
G1 X106.229 Y101.436 E0.72948
G1 X106.341 Y101.015 E0.01367
G1 X122.956 Y117.629 E0.73714
G1 X123.269 Y117.410 E0.01202
G1 X106.454 Y100.594 E0.74606
G1 X106.567 Y100.174 E0.01367
G1 X123.626 Y117.233 E0.75689
G1 X123.846 Y117.130 E0.00762
G1 X124.013 Y117.086 E0.00540
G1 X106.680 Y99.753 E0.76903
G1 X106.793 Y99.332 E0.01367
G1 X124.437 Y116.976 E0.78284
G1 X124.927 Y116.933 E0.01545
G1 X106.905 Y98.911 E0.79961
G1 X107.018 Y98.490 E0.01367
G1 X125.498 Y116.970 E0.81993
G1 X125.581 Y116.977 E0.00261
G1 X126.225 Y117.163 E0.02102
G1 X107.183 Y98.122 E0.84483
G1 X107.353 Y97.758 E0.01260
G1 X132.242 Y122.647 E1.10427
G1 X132.606 Y122.477 E0.01260
G1 X107.523 Y97.394 E1.11289
G1 X107.692 Y97.030 E0.01260
G1 X132.970 Y122.308 E1.12150
G1 X133.334 Y122.138 E0.01260
G1 X107.862 Y96.666 E1.13012
G1 X108.032 Y96.303 E0.01260
G1 X133.697 Y121.968 E1.13874
G1 X134.061 Y121.798 E0.01260
G1 X108.202 Y95.939 E1.14735
G1 X108.371 Y95.575 E0.01260
G1 X134.425 Y121.629 E1.15597
G1 X134.563 Y121.564 E0.00478
G1 X134.758 Y121.428 E0.00745
G1 X108.572 Y95.242 E1.16183
G1 X108.792 Y94.928 E0.01202
G1 X135.072 Y121.208 E1.16601
G1 X135.386 Y120.989 E0.01202
G1 X109.011 Y94.614 E1.17018
G1 X109.231 Y94.300 E0.01202
G1 X135.700 Y120.769 E1.17436
G1 X136.013 Y120.549 E0.01202
G1 X109.451 Y93.987 E1.17853
G1 X109.671 Y93.673 E0.01202
G1 X136.327 Y120.329 E1.18270
G1 X136.641 Y120.110 E0.01202
G1 X109.890 Y93.359 E1.18688
G1 X110.110 Y93.045 E0.01202
G1 X136.955 Y119.890 E1.19105
G1 X137.269 Y119.670 E0.01202
G1 X110.330 Y92.731 E1.19523
G1 X110.348 Y92.705 E0.00099
G1 X110.593 Y92.461 E0.01087
G1 X137.539 Y119.407 E1.19557
G1 X137.806 Y119.140 E0.01184
G1 X110.860 Y92.194 E1.19557
G1 X111.127 Y91.927 E0.01184
G1 X138.073 Y118.873 E1.19557
G1 X138.340 Y118.607 E0.01184
G1 X111.393 Y91.660 E1.19557
G1 X111.660 Y91.393 E0.01184
G1 X138.607 Y118.340 E1.19557
G1 X138.873 Y118.073 E0.01184
G1 X111.927 Y91.127 E1.19557
G1 X112.194 Y90.860 E0.01184
G1 X139.140 Y117.806 E1.19557
G1 X139.407 Y117.540 E0.01184
G1 X112.460 Y90.593 E1.19557
G1 X112.731 Y90.330 E0.01184
G1 X139.670 Y117.269 E1.19523
G1 X139.890 Y116.955 E0.01202
G1 X113.045 Y90.110 E1.19106
M73 Q12 S15
M73 P12 R15
G1 X113.359 Y89.891 E0.01202
G1 X140.109 Y116.641 E1.18688
G1 X140.329 Y116.327 E0.01202
G1 X113.673 Y89.671 E1.18271
G1 X113.987 Y89.451 E0.01202
G1 X140.549 Y116.013 E1.17853
G1 X140.769 Y115.700 E0.01202
G1 X114.300 Y89.231 E1.17436
G1 X114.614 Y89.012 E0.01202
G1 X140.988 Y115.386 E1.17018
G1 X141.208 Y115.072 E0.01202
G1 X114.928 Y88.792 E1.16601
G1 X115.242 Y88.572 E0.01202
G1 X141.428 Y114.758 E1.16183
G1 X141.564 Y114.563 E0.00746
G1 X141.629 Y114.425 E0.00478
G1 X115.575 Y88.371 E1.15597
G1 X115.939 Y88.202 E0.01260
G1 X141.798 Y114.061 E1.14735
G1 X141.968 Y113.697 E0.01260
G1 X116.303 Y88.032 E1.13874
G1 X116.666 Y87.862 E0.01260
G1 X142.138 Y113.334 E1.13012
G1 X142.307 Y112.970 E0.01260
G1 X117.030 Y87.693 E1.12151
G1 X117.394 Y87.523 E0.01260
G1 X142.477 Y112.606 E1.11289
G1 X142.647 Y112.242 E0.01260
G1 X117.758 Y87.353 E1.10427
G1 X118.122 Y87.183 E0.01260
G1 X142.817 Y111.878 E1.09566
G1 X142.982 Y111.510 E0.01266
G1 X118.490 Y87.018 E1.08666
G1 X118.911 Y86.905 E0.01367
G1 X143.095 Y111.089 E1.07299
G1 X143.207 Y110.668 E0.01367
G1 X119.332 Y86.793 E1.05932
G1 X119.753 Y86.680 E0.01367
G1 X143.320 Y110.247 E1.04565
G1 X143.433 Y109.826 E0.01367
G1 X120.174 Y86.567 E1.03198
G1 X120.594 Y86.454 E0.01367
G1 X143.546 Y109.406 E1.01831
G1 X143.658 Y108.985 E0.01367
G1 X121.015 Y86.341 E1.00464
G1 X121.436 Y86.229 E0.01367
G1 X143.771 Y108.564 E0.99098
G1 X143.836 Y108.321 E0.00788
G1 X143.854 Y108.114 E0.00654
G1 X121.886 Y86.146 E0.97468
G1 X122.377 Y86.103 E0.01545
G1 X143.897 Y107.623 E0.95482
G1 X143.940 Y107.132 E0.01545
G1 X122.868 Y86.060 E0.93495
G1 X123.358 Y86.017 E0.01545
G1 X143.983 Y106.642 E0.91509
G1 X144.026 Y106.151 E0.01545
G1 X123.849 Y85.974 E0.89522
G1 X124.340 Y85.931 E0.01545
G1 X144.069 Y105.660 E0.87535
G1 X144.112 Y105.170 E0.01545
G1 X124.830 Y85.888 E0.85549
G1 X125.000 Y85.873 E0.00534
G1 X125.383 Y85.907 E0.01205
G1 X144.093 Y104.617 E0.83016
G1 X144.042 Y104.033 E0.01842
G1 X125.967 Y85.958 E0.80195
