; generated by Slic3r Prusa Edition 1.41.0+win64 on 2018-10-28 at 07:35:14

; 

; external perimeters extrusion width = 0.45mm
; perimeters extrusion width = 0.45mm
; infill extrusion width = 0.45mm
; solid infill extrusion width = 0.45mm
; top infill extrusion width = 0.40mm
; first layer extrusion width = 0.42mm

M201 X1000 Y1000 Z1000 E5000 ; sets maximum accelerations, mm/sec^2
M203 X200 Y200 Z12 E120 ; sets maximum feedrates, mm/sec
M204 P1250 R1250 T1250 ; sets acceleration (P, T) and retract acceleration (R), mm/sec^2
M205 X8.00 Y8.00 Z0.40 E1.50 ; sets the jerk limits, mm/sec
M205 S0 T0 ; sets the minimum extruding and travel feed rate, mm/sec
M107
M115 U3.4.1 ; tell printer latest fw version
M83  ; extruder relative mode
M104 S230 ; set extruder temp
M140 S85 ; set bed temp
M190 S85 ; wait for bed temp
M109 S230 ; wait for extruder temp
G28 W ; home all without mesh bed level
G80 ; mesh bed leveling
G1 Y-3.0 F1000.0 ; go outside print area
G92 E0.0
G1 X60.0 E9.0  F1000.0 ; intro line
M73 Q0 S111
M73 P0 R111
G1 X100.0 E12.5  F1000.0 ; intro line
G92 E0.0
M221 S95
M900 K45; Filament gcode
G21 ; set units to millimeters
G90 ; use absolute coordinates
M83 ; use relative distances for extrusion
;BEFORE_LAYER_CHANGE
G92 E0.0
;0.2


G1 E-0.80000 F2100.00000
G1 Z0.600 F10800.000
;AFTER_LAYER_CHANGE
;0.2
G1 X90.130 Y122.258
G1 Z0.200
G1 E0.80000 F2100.00000
M204 S1000
G1 F1800
G1 X90.949 Y121.263 E0.04043
G1 X122.608 Y94.406 E1.30172
G1 X123.340 Y93.874 E0.02836
G1 X124.138 Y93.448 E0.02836
G1 X125.385 Y93.033 E0.04122
G1 X126.697 Y92.875 E0.04141
G1 X154.330 Y92.874 E0.86643
G1 X155.533 Y92.986 E0.03786
G1 X156.700 Y93.319 E0.03805
G1 X157.786 Y93.861 E0.03805
G1 X158.749 Y94.589 E0.03786
G1 X159.566 Y95.486 E0.03805
G1 X160.201 Y96.513 E0.03786
G1 X160.638 Y97.639 E0.03786
G1 X160.862 Y98.832 E0.03805
G1 X162.149 Y125.751 E0.84500
G1 X162.150 Y151.488 E0.80695
G1 X162.013 Y152.750 E0.03983
G1 X161.635 Y153.963 E0.03983
G1 X161.030 Y155.081 E0.03983
G1 X160.221 Y156.060 E0.03983
G1 X159.271 Y156.845 E0.03865
G1 X158.184 Y157.441 E0.03884
G1 X157.012 Y157.820 E0.03865
G1 X155.782 Y157.974 E0.03884
G1 X95.585 Y157.977 E1.88744
G1 X94.302 Y157.851 E0.04043
G1 X93.068 Y157.476 E0.04043
G1 X91.932 Y156.867 E0.04043
G1 X90.936 Y156.048 E0.04043
G1 X90.184 Y155.144 E0.03687
G1 X89.602 Y154.115 E0.03707
G1 X89.214 Y152.998 E0.03707
G1 X89.033 Y151.830 E0.03707
G1 X89.020 Y125.912 E0.81266
G1 X89.146 Y124.628 E0.04043
G1 X89.521 Y123.395 E0.04043
G1 X90.101 Y122.311 E0.03854
G1 X90.433 Y122.490 F10800.000
G1 F1800
G1 X91.232 Y121.513 E0.03955
G1 X122.847 Y94.698 E1.29981
G1 X123.537 Y94.196 E0.02676
G1 X124.295 Y93.791 E0.02696
G1 X125.478 Y93.399 E0.03905
G1 X126.714 Y93.252 E0.03905
G1 X154.330 Y93.251 E0.86588
G1 X155.467 Y93.357 E0.03579
G1 X156.564 Y93.671 E0.03579
G1 X157.586 Y94.180 E0.03579
G1 X158.501 Y94.873 E0.03598
G1 X159.269 Y95.718 E0.03579
G1 X159.871 Y96.695 E0.03598
G1 X160.282 Y97.766 E0.03598
G1 X160.488 Y98.889 E0.03579
G1 X161.772 Y125.758 E0.84343
G1 X161.773 Y151.473 E0.80627
G1 X161.645 Y152.669 E0.03771
G1 X161.285 Y153.823 E0.03790
G1 X160.711 Y154.880 E0.03771
G1 X159.939 Y155.810 E0.03790
G1 X159.041 Y156.545 E0.03637
G1 X158.017 Y157.102 E0.03656
G1 X156.913 Y157.456 E0.03637
G1 X155.755 Y157.598 E0.03656
G1 X95.579 Y157.600 E1.88679
G1 X94.370 Y157.480 E0.03809
G1 X93.202 Y157.123 E0.03828
G1 X92.127 Y156.544 E0.03828
G1 X91.187 Y155.765 E0.03828
G1 X90.479 Y154.909 E0.03483
G1 X89.934 Y153.934 E0.03502
G1 X89.574 Y152.883 E0.03483
G1 X89.408 Y151.784 E0.03483
G1 X89.397 Y125.905 E0.81142
G1 X89.517 Y124.696 E0.03809
G1 X89.874 Y123.529 E0.03828
G1 X90.405 Y122.543 E0.03511
; PURGING FINISHED
G1 F8640
G1 X91.232 Y121.513 E-0.30489
G1 X92.735 Y120.238 E-0.45511
G1 E-0.04000 F2100.00000
G1 Z0.800 F10800.000
G1 X153.534 Y123.649
G1 Z0.200
G1 E0.80000 F2100.00000
G1 F1800
G1 X153.534 Y121.029 E0.08215
G1 X149.110 Y121.029 E0.13873
G1 X149.110 Y120.649 E0.01191
G1 X153.534 Y120.649 E0.13873
G1 X153.534 Y100.229 E0.64025
G1 X127.614 Y100.229 E0.81270
G1 X127.614 Y120.649 E0.64025
G1 X132.039 Y120.649 E0.13873
G1 X132.039 Y121.029 E0.01191
G1 X127.614 Y121.029 E0.13873
G1 X127.614 Y123.649 E0.08215
G1 X132.039 Y123.649 E0.13873
G1 X132.039 Y124.229 E0.01819
G1 X127.034 Y124.229 E0.15691
G1 X127.034 Y99.649 E0.77069
G1 X154.114 Y99.649 E0.84907
G1 X154.114 Y124.229 E0.77069
G1 X149.110 Y124.229 E0.15691
G1 X149.110 Y123.649 E0.01819
G1 X153.474 Y123.649 E0.13685
G1 X153.934 Y123.632 F10800.000
G1 F8640
G1 X153.534 Y121.029 E-0.60512
G1 X152.863 Y121.029 E-0.15488
G1 E-0.04000 F2100.00000
G1 Z0.800 F10800.000
G1 X149.298 Y123.939
G1 Z0.200
G1 E0.80000 F2100.00000
G1 F1800
G1 X153.723 Y123.939 E0.07466
G1 X153.807 Y123.922 E0.00145
G1 X153.824 Y123.838 E0.00145
G1 X153.824 Y100.041 E0.40153
G1 X153.807 Y99.957 E0.00145
G1 X153.723 Y99.939 E0.00145
G1 X127.426 Y99.939 E0.44372
G1 X127.341 Y99.957 E0.00145
G1 X127.324 Y100.041 E0.00145
G1 X127.324 Y123.838 E0.40153
G1 X127.341 Y123.922 E0.00145
G1 X127.426 Y123.939 E0.00145
G1 X131.850 Y123.939 E0.07466
G1 F8640
G1 X128.559 Y123.939 E-0.76000
G1 E-0.04000 F2100.00000
G1 Z0.800 F10800.000
G1 X127.463 Y140.707
G1 Z0.200
G1 E0.80000 F2100.00000
G1 F1800
G1 X127.463 Y147.240 E0.20481
G1 X123.789 Y147.240 E0.11520
G1 X123.789 Y140.707 E0.20481
G1 X127.403 Y140.707 E0.11332
G1 X127.086 Y141.084 F10800.000
G1 F1800
G1 X127.086 Y146.863 E0.18117
G1 X124.166 Y146.863 E0.09155
G1 X124.166 Y141.084 E0.18117
G1 X127.026 Y141.084 E0.08967
G1 X127.459 Y140.941 F10800.000
G1 F8640
G1 X127.060 Y144.376 E-0.76000
G1 E-0.04000 F2100.00000
G1 Z0.800 F10800.000
G1 X123.789 Y131.449
G1 Z0.200
G1 E0.80000 F2100.00000
G1 F1800
G1 X127.463 Y131.449 E0.11520
G1 X127.463 Y139.730 E0.25964
G1 X123.789 Y139.730 E0.11520
G1 X123.789 Y131.509 E0.25776
G1 X124.166 Y131.826 F10800.000
G1 F1800
G1 X127.086 Y131.826 E0.09155
G1 X127.086 Y139.353 E0.23600
G1 X124.166 Y139.353 E0.09155
G1 X124.166 Y131.886 E0.23411
G1 X124.116 Y131.429 F10800.000
G1 F8640
G1 X127.086 Y131.826 E-0.67438
G1 X127.086 Y132.197 E-0.08562
G1 E-0.04000 F2100.00000
G1 Z0.800 F10800.000
G1 X96.172 Y126.499
G1 Z0.200
G1 E0.80000 F2100.00000
G1 F1800
G1 X154.998 Y126.499 E1.84444
G1 X154.998 Y150.824 E0.76272
G1 X96.172 Y150.824 E1.84444
G1 X96.172 Y126.559 E0.76084
G1 X95.795 Y126.122 F10800.000
G1 F1800
G1 X155.375 Y126.122 E1.86809
G1 X155.375 Y151.202 E0.78637
G1 X95.795 Y151.202 E1.86809
G1 X95.795 Y126.182 E0.78448
G1 X96.192 Y126.175 F10800.000
G1 F8640
G1 X99.087 Y126.178 E-0.76000
G1 E-0.04000 F2100.00000
G1 Z0.800 F10800.000
G1 X110.331 Y126.612
G1 Z0.200
G1 E0.80000 F2100.00000
G1 F1800
G1 X124.144 Y140.425 E0.61336
G1 X123.610 Y140.425 E0.01677
G1 X109.967 Y126.781 E0.60582
G1 X109.433 Y126.781 E0.01677
G1 X123.506 Y140.854 E0.62491
G1 X123.506 Y141.388 E0.01677
G1 X108.899 Y126.781 E0.64862
G1 X108.365 Y126.781 E0.01677
G1 X123.506 Y141.922 E0.67233
G1 X123.506 Y142.456 E0.01677
G1 X107.831 Y126.781 E0.69605
G1 X107.297 Y126.781 E0.01677
G1 X123.506 Y142.991 E0.71976
G1 X123.506 Y143.525 E0.01677
G1 X106.763 Y126.781 E0.74347
G1 X106.229 Y126.781 E0.01677
G1 X123.506 Y144.059 E0.76719
G1 X123.506 Y144.593 E0.01677
G1 X105.695 Y126.781 E0.79090
G1 X105.161 Y126.781 E0.01677
G1 X123.506 Y145.127 E0.81461
G1 X123.506 Y145.661 E0.01677
G1 X104.626 Y126.781 E0.83833
G1 X104.092 Y126.781 E0.01677
G1 X123.506 Y146.195 E0.86204
G1 X123.506 Y146.729 E0.01677
G1 X103.558 Y126.781 E0.88576
G1 X103.024 Y126.781 E0.01677
G1 X126.785 Y150.542 E1.05507
M73 Q0 S110
G1 X127.319 Y150.542 E0.01677
G1 X124.299 Y147.522 E0.13407
M73 P0 R110
G1 X124.833 Y147.522 E0.01677
G1 X127.853 Y150.542 E0.13407
G1 X128.387 Y150.542 E0.01677
G1 X125.367 Y147.522 E0.13407
G1 X125.901 Y147.522 E0.01677
G1 X128.921 Y150.542 E0.13407
G1 X129.455 Y150.542 E0.01677
G1 X126.435 Y147.522 E0.13407
G1 X126.970 Y147.522 E0.01677
G1 X129.989 Y150.542 E0.13407
G1 X130.523 Y150.542 E0.01677
G1 X127.504 Y147.522 E0.13407
G1 X127.745 Y147.522 E0.00760
G1 X127.745 Y147.230 E0.00917
G1 X131.057 Y150.542 E0.14704
G1 X131.591 Y150.542 E0.01677
G1 X127.745 Y146.696 E0.17076
G1 X127.745 Y146.162 E0.01677
G1 X132.125 Y150.542 E0.19447
G1 X132.659 Y150.542 E0.01677
G1 X127.745 Y145.628 E0.21818
G1 X127.745 Y145.094 E0.01677
G1 X133.193 Y150.542 E0.24190
G1 X133.727 Y150.542 E0.01677
G1 X127.745 Y144.560 E0.26561
G1 X127.745 Y144.026 E0.01677
G1 X134.261 Y150.542 E0.28932
G1 X134.795 Y150.542 E0.01677
G1 X127.745 Y143.492 E0.31304
G1 X127.745 Y142.958 E0.01677
G1 X135.329 Y150.542 E0.33675
G1 X135.863 Y150.542 E0.01677
G1 X127.745 Y142.424 E0.36046
G1 X127.745 Y141.890 E0.01677
G1 X136.397 Y150.542 E0.38418
G1 X136.931 Y150.542 E0.01677
G1 X127.745 Y141.356 E0.40789
G1 X127.745 Y140.822 E0.01677
G1 X137.635 Y150.711 E0.43914
G1 F8640
G1 X135.308 Y148.384 E-0.76000
G1 E-0.04000 F2100.00000
G1 Z0.800 F10800.000
G1 X146.713 Y150.711
G1 Z0.200
G1 E0.80000 F2100.00000
G1 F1800
G1 X127.745 Y131.743 E0.84227
G1 X127.745 Y132.277 E0.01677
G1 X146.010 Y150.542 E0.81102
G1 X145.476 Y150.542 E0.01677
G1 X127.745 Y132.811 E0.78731
G1 X127.745 Y133.345 E0.01677
G1 X144.942 Y150.542 E0.76359
G1 X144.408 Y150.542 E0.01677
G1 X127.745 Y133.879 E0.73988
G1 X127.745 Y134.414 E0.01677
G1 X143.874 Y150.542 E0.71617
G1 X143.340 Y150.542 E0.01677
G1 X127.745 Y134.948 E0.69245
G1 X127.745 Y135.482 E0.01677
G1 X142.806 Y150.542 E0.66874
G1 X142.272 Y150.542 E0.01677
G1 X127.745 Y136.016 E0.64503
G1 X127.745 Y136.550 E0.01677
G1 X141.737 Y150.542 E0.62131
G1 X141.203 Y150.542 E0.01677
G1 X127.745 Y137.084 E0.59760
G1 X127.745 Y137.618 E0.01677
G1 X140.669 Y150.542 E0.57389
G1 X140.135 Y150.542 E0.01677
G1 X127.745 Y138.152 E0.55017
G1 X127.745 Y138.686 E0.01677
G1 X139.601 Y150.542 E0.52646
G1 X139.067 Y150.542 E0.01677
G1 X127.745 Y139.220 E0.50275
G1 X127.745 Y139.754 E0.01677
G1 X138.533 Y150.542 E0.47903
G1 X137.999 Y150.542 E0.01677
G1 X127.471 Y140.013 E0.46753
G1 X126.936 Y140.013 E0.01677
G1 X127.348 Y140.425 E0.01828
G1 X126.814 Y140.425 E0.01677
G1 X126.402 Y140.013 E0.01828
G1 X125.868 Y140.013 E0.01677
G1 X126.280 Y140.425 E0.01828
G1 X125.746 Y140.425 E0.01677
G1 X125.334 Y140.013 E0.01828
G1 X124.800 Y140.013 E0.01677
G1 X125.212 Y140.425 E0.01828
G1 X124.678 Y140.425 E0.01677
G1 X124.097 Y139.843 E0.02582
G1 X123.675 Y139.422 F10800.000
G1 F1800
G1 X111.035 Y126.781 E0.56130
G1 X111.569 Y126.781 E0.01677
G1 X123.506 Y138.718 E0.53005
G1 X123.506 Y138.184 E0.01677
G1 X112.103 Y126.781 E0.50634
G1 X112.637 Y126.781 E0.01677
G1 X123.506 Y137.650 E0.48263
G1 X123.506 Y137.116 E0.01677
G1 X113.171 Y126.781 E0.45891
G1 X113.705 Y126.781 E0.01677
G1 X123.506 Y136.582 E0.43520
G1 X123.506 Y136.048 E0.01677
G1 X114.239 Y126.781 E0.41149
G1 X114.773 Y126.781 E0.01677
G1 X123.506 Y135.514 E0.38777
G1 X123.506 Y134.980 E0.01677
G1 X115.307 Y126.781 E0.36406
G1 X115.841 Y126.781 E0.01677
G1 X123.506 Y134.446 E0.34035
G1 X123.506 Y133.912 E0.01677
G1 X116.375 Y126.781 E0.31663
G1 X116.909 Y126.781 E0.01677
G1 X123.506 Y133.378 E0.29292
G1 X123.506 Y132.844 E0.01677
G1 X117.443 Y126.781 E0.26921
G1 X117.977 Y126.781 E0.01677
G1 X123.506 Y132.310 E0.24549
G1 X123.506 Y131.776 E0.01677
G1 X118.511 Y126.781 E0.22178
G1 X119.045 Y126.781 E0.01677
G1 X123.506 Y131.242 E0.19806
G1 X123.506 Y131.166 E0.00237
G1 X123.964 Y131.166 E0.01440
G1 X119.579 Y126.781 E0.19472
G1 X120.113 Y126.781 E0.01677
G1 X124.498 Y131.166 E0.19472
G1 X125.032 Y131.166 E0.01677
G1 X120.647 Y126.781 E0.19472
G1 X121.181 Y126.781 E0.01677
G1 X125.566 Y131.166 E0.19472
G1 X126.100 Y131.166 E0.01677
G1 X121.715 Y126.781 E0.19472
G1 X122.249 Y126.781 E0.01677
G1 X126.635 Y131.166 E0.19472
G1 X127.169 Y131.166 E0.01677
G1 X122.783 Y126.781 E0.19472
G1 X123.318 Y126.781 E0.01677
G1 X147.078 Y150.542 E1.05507
G1 X147.612 Y150.542 E0.01677
G1 X123.852 Y126.781 E1.05507
G1 X124.386 Y126.781 E0.01677
G1 X148.146 Y150.542 E1.05507
G1 X148.680 Y150.542 E0.01677
G1 X124.920 Y126.781 E1.05507
G1 X125.454 Y126.781 E0.01677
G1 X149.214 Y150.542 E1.05507
G1 X149.748 Y150.542 E0.01677
G1 X125.988 Y126.781 E1.05507
G1 X126.522 Y126.781 E0.01677
G1 X150.282 Y150.542 E1.05507
G1 X150.816 Y150.542 E0.01677
G1 X127.056 Y126.781 E1.05507
G1 X127.590 Y126.781 E0.01677
G1 X151.350 Y150.542 E1.05507
G1 X151.884 Y150.542 E0.01677
G1 X128.124 Y126.781 E1.05507
G1 X128.658 Y126.781 E0.01677
G1 X152.418 Y150.542 E1.05507
G1 X152.952 Y150.542 E0.01677
G1 X129.192 Y126.781 E1.05507
G1 X129.726 Y126.781 E0.01677
G1 X153.486 Y150.542 E1.05507
G1 X154.020 Y150.542 E0.01677
G1 X130.260 Y126.781 E1.05507
G1 X130.794 Y126.781 E0.01677
G1 X154.554 Y150.542 E1.05507
G1 X154.715 Y150.542 E0.00506
G1 X154.715 Y150.169 E0.01171
G1 X131.328 Y126.781 E1.03851
G1 X131.862 Y126.781 E0.01677
G1 X154.715 Y149.635 E1.01479
G1 X154.715 Y149.101 E0.01677
G1 X132.396 Y126.781 E0.99108
G1 X132.930 Y126.781 E0.01677
G1 X154.715 Y148.567 E0.96737
G1 X154.715 Y148.033 E0.01677
G1 X133.464 Y126.781 E0.94365
G1 X133.998 Y126.781 E0.01677
G1 X154.715 Y147.499 E0.91994
G1 X154.715 Y146.965 E0.01677
G1 X134.532 Y126.781 E0.89623
G1 X135.066 Y126.781 E0.01677
G1 X154.715 Y146.431 E0.87251
G1 X154.715 Y145.896 E0.01677
G1 X135.600 Y126.781 E0.84880
G1 X136.134 Y126.781 E0.01677
G1 X154.715 Y145.362 E0.82509
G1 X154.715 Y144.828 E0.01677
G1 X136.668 Y126.781 E0.80137
G1 X137.202 Y126.781 E0.01677
G1 X154.715 Y144.294 E0.77766
G1 X154.715 Y143.760 E0.01677
G1 X137.736 Y126.781 E0.75395
G1 X138.270 Y126.781 E0.01677
G1 X154.715 Y143.226 E0.73023
G1 X154.715 Y142.692 E0.01677
G1 X138.804 Y126.781 E0.70652
M73 Q1 S109
G1 X139.338 Y126.781 E0.01677
G1 X154.715 Y142.158 E0.68281
M73 P1 R109
G1 X154.715 Y141.624 E0.01677
G1 X139.872 Y126.781 E0.65909
G1 X140.406 Y126.781 E0.01677
G1 X154.715 Y141.090 E0.63538
G1 X154.715 Y140.556 E0.01677
G1 X140.940 Y126.781 E0.61167
G1 X141.475 Y126.781 E0.01677
G1 X154.715 Y140.022 E0.58795
G1 X154.715 Y139.488 E0.01677
G1 X142.009 Y126.781 E0.56424
G1 X142.543 Y126.781 E0.01677
G1 X154.715 Y138.954 E0.54053
G1 X154.715 Y138.420 E0.01677
G1 X143.077 Y126.781 E0.51681
G1 X143.611 Y126.781 E0.01677
G1 X154.715 Y137.886 E0.49310
G1 X154.715 Y137.352 E0.01677
G1 X144.145 Y126.781 E0.46938
G1 X144.679 Y126.781 E0.01677
G1 X154.715 Y136.818 E0.44567
G1 X154.715 Y136.284 E0.01677
G1 X145.213 Y126.781 E0.42196
G1 X145.747 Y126.781 E0.01677
G1 X154.715 Y135.750 E0.39824
G1 X154.715 Y135.216 E0.01677
G1 X146.281 Y126.781 E0.37453
G1 X146.815 Y126.781 E0.01677
G1 X154.715 Y134.682 E0.35082
G1 X154.715 Y134.148 E0.01677
G1 X147.349 Y126.781 E0.32710
G1 X147.883 Y126.781 E0.01677
G1 X154.715 Y133.614 E0.30339
G1 X154.715 Y133.080 E0.01677
G1 X148.417 Y126.781 E0.27968
G1 X148.951 Y126.781 E0.01677
G1 X154.715 Y132.546 E0.25596
G1 X154.715 Y132.012 E0.01677
G1 X149.485 Y126.781 E0.23225
G1 X150.019 Y126.781 E0.01677
G1 X154.715 Y131.478 E0.20854
G1 X154.715 Y130.944 E0.01677
G1 X150.553 Y126.781 E0.18482
G1 X151.087 Y126.781 E0.01677
G1 X154.715 Y130.410 E0.16111
G1 X154.715 Y129.876 E0.01677
G1 X151.621 Y126.781 E0.13740
G1 X152.155 Y126.781 E0.01677
G1 X154.715 Y129.342 E0.11368
G1 X154.715 Y128.808 E0.01677
G1 X152.689 Y126.781 E0.08997
G1 X153.223 Y126.781 E0.01677
G1 X154.715 Y128.274 E0.06626
G1 X154.715 Y127.739 E0.01677
G1 X153.757 Y126.781 E0.04254
G1 X154.291 Y126.781 E0.01677
G1 X154.885 Y127.375 E0.02636
G1 F8640
G1 X154.291 Y126.781 E-0.19388
G1 X153.757 Y126.781 E-0.12331
G1 X154.715 Y127.739 E-0.31285
G1 X154.715 Y128.274 E-0.12331
G1 X154.695 Y128.253 E-0.00665
G1 E-0.04000 F2100.00000
G1 Z0.800 F10800.000
G1 X126.420 Y150.711
G1 Z0.200
G1 E0.80000 F2100.00000
G1 F1800
G1 X102.490 Y126.781 E1.06260
G1 X101.956 Y126.781 E0.01677
G1 X125.717 Y150.542 E1.05507
G1 X125.183 Y150.542 E0.01677
G1 X101.422 Y126.781 E1.05507
G1 X100.888 Y126.781 E0.01677
G1 X124.649 Y150.542 E1.05507
G1 X124.115 Y150.542 E0.01677
G1 X100.354 Y126.781 E1.05507
G1 X99.820 Y126.781 E0.01677
G1 X123.580 Y150.542 E1.05507
G1 X123.046 Y150.542 E0.01677
G1 X99.286 Y126.781 E1.05507
G1 X98.752 Y126.781 E0.01677
G1 X122.512 Y150.542 E1.05507
