; generated by Slic3r Prusa Edition 1.41.1-rc+linux64 on 2018-10-21 at 02:00:34

; 

; external perimeters extrusion width = 0.45mm
; perimeters extrusion width = 0.45mm
; infill extrusion width = 0.45mm
; solid infill extrusion width = 0.45mm
; top infill extrusion width = 0.40mm
; first layer extrusion width = 0.42mm

M73 P0 R9
M73 Q0 S9
M201 X1000 Y1000 Z1000 E5000 ; sets maximum accelerations, mm/sec^2
M203 X200 Y200 Z12 E120 ; sets maximum feedrates, mm/sec
M204 P1250 R1250 T1250 ; sets acceleration (P, T) and retract acceleration (R), mm/sec^2
M205 X8.00 Y8.00 Z0.40 E1.50 ; sets the jerk limits, mm/sec
M205 S0 T0 ; sets the minimum extruding and travel feed rate, mm/sec
M107
M115 U3.4.0 ; tell printer latest fw version
M83  ; extruder relative mode
M104 S215 ; set extruder temp
M140 S60 ; set bed temp
M190 S60 ; wait for bed temp
M109 S215 ; wait for extruder temp
G28 W ; home all without mesh bed level
G80 ; mesh bed leveling
G1 Y-3.0 F1000.0 ; go outside print area
G92 E0.0
G1 X60.0 E9.0  F1000.0 ; intro line
M73 Q0 S9
M73 P0 R9
G1 X100.0 E12.5  F1000.0 ; intro line
G92 E0.0
M221 S95
M900 K30; Filament gcode
G21 ; set units to millimeters
G90 ; use absolute coordinates
M83 ; use relative distances for extrusion
;BEFORE_LAYER_CHANGE
G92 E0.0
;0.2


G1 E-0.80000 F2100.00000
G1 Z0.600 F10800.000
;AFTER_LAYER_CHANGE
;0.2
G1 X60.724 Y65.557
G1 Z0.200
G1 E0.80000 F2100.00000
M204 S1000
G1 F1800
G1 X63.809 Y63.366 E0.11864
G1 X67.076 Y61.840 E0.11307
G1 X70.570 Y60.903 E0.11341
G1 X74.166 Y60.588 E0.11318
G1 X77.766 Y60.904 E0.11330
G1 X81.407 Y61.905 E0.11841
G1 X84.667 Y63.461 E0.11326
G1 X87.461 Y65.428 E0.10712
G1 X89.882 Y67.837 E0.10712
G1 X92.074 Y70.922 E0.11864
G1 X93.600 Y74.190 E0.11307
G1 X94.537 Y77.683 E0.11341
G1 X94.852 Y81.276 E0.11307
G1 X94.537 Y84.868 E0.11307
G1 X93.601 Y88.362 E0.11341
G1 X92.073 Y91.633 E0.11318
G1 X89.882 Y94.716 E0.11858
G1 X87.462 Y97.124 E0.10706
G1 X84.668 Y99.091 E0.10712
G1 X81.405 Y100.649 E0.11338
G1 X77.767 Y101.649 E0.11830
G1 X74.164 Y101.965 E0.11341
G1 X70.571 Y101.651 E0.11307
G1 X67.078 Y100.714 E0.11341
G1 X63.807 Y99.187 E0.11318
G1 X60.724 Y96.996 E0.11858
G1 X58.315 Y94.576 E0.10706
G1 X56.349 Y91.782 E0.10712
G1 X54.792 Y88.522 E0.11326
G1 X53.791 Y84.881 E0.11841
G1 X53.475 Y81.278 E0.11341
G1 X53.791 Y77.674 E0.11342
G1 X54.791 Y74.033 E0.11841
G1 X56.349 Y70.771 E0.11332
G1 X58.314 Y67.979 E0.10706
G1 X60.682 Y65.600 E0.10524
; PURGING FINISHED
G1 F8640
G1 X63.360 Y63.686 E-0.76000
G1 E-0.04000 F2100.00000
G1 Z0.800 F10800.000
G1 X73.107 Y91.824
G1 Z0.200
G1 E0.80000 F2100.00000
G1 F1800
G1 X73.627 Y91.684 E0.01688
G1 X74.123 Y91.641 E0.01562
G1 X74.696 Y91.683 E0.01801
G1 X75.220 Y91.824 E0.01701
G1 X75.708 Y92.051 E0.01688
G1 X76.149 Y92.360 E0.01689
G1 X76.530 Y92.741 E0.01688
G1 X76.839 Y93.182 E0.01689
G1 X77.066 Y93.670 E0.01688
G1 X77.205 Y94.190 E0.01689
G1 X77.252 Y94.727 E0.01688
G1 X77.205 Y95.263 E0.01688
G1 X77.066 Y95.783 E0.01688
G1 X76.839 Y96.271 E0.01689
G1 X76.530 Y96.712 E0.01689
G1 X76.149 Y97.093 E0.01688
G1 X75.708 Y97.402 E0.01689
G1 X75.220 Y97.630 E0.01688
G1 X74.700 Y97.769 E0.01688
G1 X74.163 Y97.816 E0.01689
G1 X73.627 Y97.769 E0.01689
G1 X73.107 Y97.630 E0.01688
G1 X72.618 Y97.402 E0.01688
G1 X72.177 Y97.093 E0.01689
G1 X71.797 Y96.712 E0.01688
G1 X71.488 Y96.271 E0.01689
G1 X71.260 Y95.783 E0.01689
G1 X71.121 Y95.263 E0.01688
G1 X71.074 Y94.727 E0.01688
G1 X71.121 Y94.190 E0.01688
G1 X71.260 Y93.670 E0.01689
G1 X71.488 Y93.182 E0.01688
G1 X71.797 Y92.741 E0.01689
G1 X72.177 Y92.360 E0.01688
G1 X72.618 Y92.051 E0.01689
G1 X73.052 Y91.849 E0.01500
G1 X73.211 Y92.191 F10800.000
G1 F1800
G1 X73.692 Y92.057 E0.01565
G1 X74.126 Y92.019 E0.01363
G1 X74.632 Y92.057 E0.01594
G1 X75.090 Y92.179 E0.01486
G1 X75.518 Y92.379 E0.01481
G1 X75.906 Y92.650 E0.01482
G1 X76.240 Y92.984 E0.01481
G1 X76.511 Y93.371 E0.01482
G1 X76.710 Y93.799 E0.01481
G1 X76.833 Y94.256 E0.01482
G1 X76.874 Y94.727 E0.01481
G1 X76.833 Y95.197 E0.01482
G1 X76.710 Y95.654 E0.01481
G1 X76.511 Y96.082 E0.01482
G1 X76.240 Y96.469 E0.01482
G1 X75.906 Y96.803 E0.01481
G1 X75.518 Y97.074 E0.01482
G1 X75.090 Y97.274 E0.01482
G1 X74.634 Y97.396 E0.01482
G1 X74.163 Y97.437 E0.01482
G1 X73.692 Y97.396 E0.01482
G1 X73.236 Y97.274 E0.01482
G1 X72.808 Y97.074 E0.01482
G1 X72.421 Y96.803 E0.01482
G1 X72.087 Y96.469 E0.01481
G1 X71.815 Y96.082 E0.01482
G1 X71.616 Y95.654 E0.01482
G1 X71.493 Y95.197 E0.01481
G1 X71.452 Y94.727 E0.01482
G1 X71.493 Y94.256 E0.01481
G1 X71.616 Y93.799 E0.01482
G1 X71.815 Y93.371 E0.01481
G1 X72.087 Y92.984 E0.01482
G1 X72.421 Y92.650 E0.01481
G1 X72.808 Y92.379 E0.01482
G1 X73.157 Y92.216 E0.01209
G1 X73.278 Y91.796 F10800.000
G1 F8640
G1 X73.692 Y92.057 E-0.12894
G1 X74.126 Y92.019 E-0.10040
G1 X74.632 Y92.057 E-0.11738
G1 X75.090 Y92.179 E-0.10943
G1 X75.518 Y92.379 E-0.10910
G1 X75.906 Y92.650 E-0.10912
G1 X76.168 Y92.912 E-0.08563
G1 E-0.04000 F2100.00000
G1 Z0.800 F10800.000
G1 X71.053 Y98.915
G1 Z0.200
G1 E0.80000 F2100.00000
G1 F1800
G1 X68.037 Y98.107 E0.09789
G1 X65.208 Y96.788 E0.09789
G1 X62.650 Y94.997 E0.09789
G1 X60.596 Y92.943 E0.09107
G1 X60.443 Y92.789 E0.00682
G1 X58.652 Y90.232 E0.09789
G1 X57.333 Y87.402 E0.09789
G1 X56.525 Y84.387 E0.09789
G1 X56.252 Y81.277 E0.09789
G1 X56.525 Y78.166 E0.09789
G1 X57.333 Y75.151 E0.09789
G1 X58.652 Y72.321 E0.09789
G1 X60.443 Y69.764 E0.09789
G1 X62.650 Y67.556 E0.09789
G1 X65.208 Y65.765 E0.09789
G1 X68.037 Y64.446 E0.09789
G1 X71.053 Y63.638 E0.09789
G1 X74.163 Y63.366 E0.09789
G1 X77.273 Y63.638 E0.09789
G1 X80.289 Y64.446 E0.09789
G1 X83.118 Y65.765 E0.09789
G1 X85.676 Y67.556 E0.09789
G1 X87.883 Y69.764 E0.09789
G1 X89.674 Y72.321 E0.09789
G1 X90.994 Y75.151 E0.09789
G1 X91.802 Y78.166 E0.09789
G1 X92.074 Y81.277 E0.09789
G1 X91.802 Y84.387 E0.09789
G1 X90.994 Y87.402 E0.09789
G1 X89.674 Y90.232 E0.09789
G1 X87.883 Y92.789 E0.09789
G1 X85.676 Y94.997 E0.09789
G1 X83.118 Y96.788 E0.09789
G1 X80.289 Y98.107 E0.09789
G1 X77.273 Y98.915 E0.09789
G1 X74.163 Y99.187 E0.09789
G1 X71.113 Y98.920 E0.09601
G1 X71.080 Y99.296 F10800.000
G1 F1800
G1 X70.987 Y99.288 E0.00292
G1 X67.908 Y98.463 E0.09996
G1 X65.018 Y97.116 E0.09996
G1 X62.407 Y95.287 E0.09996
G1 X60.153 Y93.033 E0.09996
G1 X58.324 Y90.421 E0.09996
G1 X56.977 Y87.532 E0.09996
G1 X56.152 Y84.453 E0.09996
G1 X55.874 Y81.277 E0.09996
G1 X56.152 Y78.101 E0.09996
G1 X56.977 Y75.021 E0.09996
G1 X58.324 Y72.132 E0.09996
G1 X60.153 Y69.521 E0.09996
G1 X62.407 Y67.266 E0.09996
G1 X65.018 Y65.438 E0.09996
G1 X67.908 Y64.090 E0.09996
G1 X70.987 Y63.265 E0.09996
G1 X74.163 Y62.987 E0.09996
G1 X77.339 Y63.265 E0.09996
G1 X80.418 Y64.090 E0.09996
G1 X83.308 Y65.438 E0.09996
G1 X85.919 Y67.266 E0.09996
G1 X88.173 Y69.521 E0.09996
G1 X90.002 Y72.132 E0.09996
G1 X91.349 Y75.021 E0.09996
G1 X92.174 Y78.101 E0.09996
G1 X92.452 Y81.277 E0.09996
G1 X92.174 Y84.453 E0.09996
G1 X91.349 Y87.532 E0.09996
G1 X90.002 Y90.421 E0.09996
G1 X88.173 Y93.033 E0.09996
G1 X85.919 Y95.287 E0.09996
G1 X83.308 Y97.116 E0.09996
G1 X80.418 Y98.463 E0.09996
G1 X77.339 Y99.288 E0.09996
G1 X74.163 Y99.566 E0.09996
G1 X71.140 Y99.301 E0.09516
G1 X71.038 Y99.213 F10800.000
G1 F8640
G1 X70.987 Y99.288 E-0.03532
G1 X67.956 Y98.476 E-0.72468
G1 E-0.04000 F2100.00000
G1 Z0.800 F10800.000
G1 X72.790 Y97.794
G1 Z0.200
G1 E0.80000 F2100.00000
G1 F1800
G1 X73.874 Y98.878 E0.04813
G1 X74.163 Y98.903 E0.00910
G1 X74.412 Y98.882 E0.00784
G1 X73.579 Y98.049 E0.03699
G1 X74.164 Y98.100 E0.01844
G1 X74.903 Y98.839 E0.03281
G1 X75.394 Y98.796 E0.01548
G1 X74.655 Y98.057 E0.03281
G1 X74.749 Y98.049 E0.00296
G1 X75.090 Y97.957 E0.01108
G1 X75.885 Y98.753 E0.03533
G1 X76.376 Y98.710 E0.01548
G1 X75.485 Y97.818 E0.03959
G1 X75.849 Y97.648 E0.01262
G1 X76.867 Y98.667 E0.04523
G1 X77.224 Y98.636 E0.01124
G1 X77.339 Y98.605 E0.00375
G1 X76.163 Y97.429 E0.05223
G1 X76.331 Y97.311 E0.00645
G1 X76.455 Y97.187 E0.00550
G1 X77.760 Y98.492 E0.05796
G1 X78.182 Y98.379 E0.01369
G1 X76.722 Y96.920 E0.06480
G1 X76.947 Y96.610 E0.01201
G1 X78.603 Y98.266 E0.07354
G1 X79.024 Y98.153 E0.01369
G1 X77.148 Y96.277 E0.08331
G1 X77.318 Y95.913 E0.01262
G1 X79.445 Y98.040 E0.09447
G1 X79.866 Y97.928 E0.01369
G1 X77.436 Y95.497 E0.10794
G1 X77.485 Y95.312 E0.00600
G1 X77.509 Y95.036 E0.00870
G1 X80.275 Y97.802 E0.12280
G1 X80.639 Y97.632 E0.01262
G1 X77.517 Y94.511 E0.13861
G1 X77.485 Y94.141 E0.01165
G1 X77.413 Y93.872 E0.00873
G1 X81.003 Y97.462 E0.15941
G1 X81.367 Y97.292 E0.01262
G1 X58.147 Y74.073 E1.03109
G1 X58.317 Y73.708 E0.01262
G1 X81.731 Y97.123 E1.03972
G1 X82.096 Y96.953 E0.01262
G1 X58.487 Y73.344 E1.04835
G1 X58.657 Y72.980 E0.01262
G1 X82.460 Y96.783 E1.05698
G1 X82.824 Y96.613 E0.01262
G1 X58.827 Y72.616 E1.06561
G1 X58.898 Y72.463 E0.00528
G1 X59.026 Y72.281 E0.00700
G1 X83.159 Y96.414 E1.07166
G1 X83.473 Y96.194 E0.01204
G1 X59.246 Y71.967 E1.07584
G1 X59.466 Y71.652 E0.01204
G1 X83.787 Y95.974 E1.08002
G1 X84.101 Y95.754 E0.01204
G1 X59.685 Y71.338 E1.08420
G1 X59.905 Y71.024 E0.01204
G1 X84.415 Y95.534 E1.08838
G1 X84.730 Y95.314 E0.01204
G1 X60.125 Y70.710 E1.09256
G1 X60.345 Y70.396 E0.01204
G1 X85.044 Y95.094 E1.09674
G1 X85.358 Y94.874 E0.01204
G1 X60.565 Y70.082 E1.10093
G1 X60.660 Y69.946 E0.00520
G1 X60.812 Y69.795 E0.00674
G1 X85.645 Y94.628 E1.10273
G1 X85.912 Y94.361 E0.01186
G1 X61.079 Y69.528 E1.10273
G1 X61.346 Y69.261 E0.01186
G1 X86.179 Y94.094 E1.10273
G1 X86.446 Y93.827 E0.01186
G1 X61.613 Y68.994 E1.10273
G1 X61.880 Y68.727 E0.01186
G1 X86.713 Y93.560 E1.10273
G1 X86.980 Y93.293 E0.01186
G1 X62.147 Y68.459 E1.10273
G1 X62.414 Y68.192 E0.01186
G1 X87.247 Y93.026 E1.10273
G1 X87.514 Y92.759 E0.01186
G1 X62.681 Y67.925 E1.10273
G1 X62.833 Y67.774 E0.00674
G1 X62.968 Y67.679 E0.00520
G1 X87.761 Y92.471 E1.10093
G1 X87.981 Y92.157 E0.01204
G1 X63.282 Y67.459 E1.09674
G1 X63.597 Y67.239 E0.01204
G1 X88.201 Y91.843 E1.09256
G1 X88.421 Y91.529 E0.01204
G1 X63.911 Y67.019 E1.08838
G1 X64.225 Y66.799 E0.01204
G1 X88.641 Y91.215 E1.08420
G1 X88.861 Y90.901 E0.01204
G1 X64.539 Y66.579 E1.08002
G1 X64.853 Y66.359 E0.01204
G1 X89.081 Y90.587 E1.07584
G1 X89.301 Y90.273 E0.01204
G1 X65.167 Y66.139 E1.07166
G1 X65.350 Y66.011 E0.00700
G1 X65.502 Y65.940 E0.00528
G1 X89.499 Y89.938 E1.06561
G1 X89.669 Y89.573 E0.01262
G1 X65.866 Y65.770 E1.05698
G1 X66.231 Y65.601 E0.01262
G1 X89.839 Y89.209 E1.04835
G1 X90.009 Y88.845 E0.01262
G1 X66.595 Y65.431 E1.03972
G1 X66.959 Y65.261 E0.01262
G1 X90.179 Y88.481 E1.03109
M73 Q11 S8
M73 P11 R8
G1 X90.349 Y88.117 E0.01262
G1 X67.323 Y65.091 E1.02245
G1 X67.687 Y64.921 E0.01262
G1 X90.518 Y87.752 E1.01382
G1 X90.688 Y87.388 E0.01262
G1 X68.052 Y64.751 E1.00519
G1 X68.134 Y64.713 E0.00287
G1 X68.460 Y64.626 E0.01058
G1 X90.814 Y86.980 E0.99265
G1 X90.927 Y86.559 E0.01369
G1 X68.881 Y64.513 E0.97896
G1 X69.302 Y64.400 E0.01369
G1 X91.040 Y86.137 E0.96527
G1 X91.153 Y85.716 E0.01369
G1 X69.723 Y64.287 E0.95157
G1 X70.145 Y64.174 E0.01369
G1 X91.265 Y85.295 E0.93788
G1 X91.378 Y84.874 E0.01369
G1 X70.566 Y64.061 E0.92419
G1 X70.987 Y63.949 E0.01369
G1 X91.491 Y84.453 E0.91050
G1 X91.522 Y84.337 E0.00375
G1 X91.553 Y83.981 E0.01124
G1 X71.459 Y63.886 E0.89230
G1 X71.950 Y63.843 E0.01548
G1 X91.596 Y83.490 E0.87240
G1 X91.639 Y82.999 E0.01548
G1 X72.441 Y63.800 E0.85250
G1 X72.932 Y63.758 E0.01548
G1 X91.682 Y82.508 E0.83260
G1 X91.725 Y82.017 E0.01548
G1 X73.423 Y63.715 E0.81271
G1 X73.914 Y63.672 E0.01548
G1 X91.768 Y81.525 E0.79281
G1 X91.790 Y81.277 E0.00784
G1 X91.765 Y80.988 E0.00910
G1 X74.452 Y63.675 E0.76878
G1 X75.037 Y63.726 E0.01845
G1 X91.713 Y80.403 E0.74052
G1 X91.662 Y79.817 E0.01845
G1 X75.622 Y63.778 E0.71226
G1 X76.208 Y63.829 E0.01845
G1 X91.611 Y79.232 E0.68400
G1 X91.560 Y78.647 E0.01845
G1 X76.793 Y63.880 E0.65574
G1 X77.224 Y63.918 E0.01359
G1 X77.416 Y63.969 E0.00624
G1 X91.471 Y78.024 E0.62410
G1 X91.275 Y77.294 E0.02371
G1 X78.146 Y64.165 E0.58303
G1 X78.875 Y64.360 E0.02371
G1 X91.080 Y76.565 E0.54195
G1 X90.884 Y75.835 E0.02371
G1 X79.605 Y64.556 E0.50088
G1 X80.192 Y64.713 E0.01909
G1 X80.387 Y64.804 E0.00676
G1 X90.636 Y75.053 E0.45511
G1 X90.169 Y74.052 E0.03467
G1 X81.388 Y65.270 E0.38996
G1 X82.388 Y65.737 E0.03467
G1 X90.054 Y73.402 E0.34039
G1 F8640
G1 X87.726 Y71.075 E-0.76000
G1 E-0.04000 F2100.00000
G1 Z0.800 F10800.000
G1 X89.587 Y72.402
G1 Z0.200
G1 E0.80000 F2100.00000
G1 F1800
G1 X83.038 Y65.853 E0.29081
G1 F8640
G1 X85.365 Y68.180 E-0.76000
G1 E-0.04000 F2100.00000
G1 Z0.800 F10800.000
G1 X84.801 Y67.082
G1 Z0.200
G1 E0.80000 F2100.00000
G1 F1800
G1 X88.358 Y70.639 E0.15796
G1 F8640
G1 X86.031 Y68.311 E-0.76000
G1 E-0.04000 F2100.00000
G1 Z0.800 F10800.000
G1 X57.850 Y74.309
G1 Z0.200
G1 E0.80000 F2100.00000
G1 F1800
G1 X75.017 Y91.477 E0.76234
G1 X74.743 Y91.403 E0.00892
G1 X74.383 Y91.377 E0.01133
G1 X57.808 Y74.801 E0.73605
G1 X57.638 Y75.165 E0.01262
G1 X73.853 Y91.381 E0.72005
G1 X73.577 Y91.405 E0.00870
G1 X73.393 Y91.454 E0.00600
G1 X57.512 Y75.573 E0.70519
G1 X57.399 Y75.995 E0.01369
G1 X72.977 Y91.572 E0.69173
G1 X72.613 Y91.742 E0.01262
G1 X57.286 Y76.416 E0.68056
G1 X57.174 Y76.837 E0.01369
G1 X72.280 Y91.943 E0.67080
G1 X71.970 Y92.167 E0.01201
G1 X57.061 Y77.258 E0.66205
G1 X56.948 Y77.679 E0.01369
G1 X71.703 Y92.434 E0.65521
G1 X71.579 Y92.558 E0.00550
G1 X71.461 Y92.727 E0.00645
G1 X56.835 Y78.101 E0.64948
G1 X56.804 Y78.216 E0.00375
G1 X56.773 Y78.572 E0.01124
G1 X71.241 Y93.041 E0.64248
G1 X71.072 Y93.405 E0.01262
G1 X56.730 Y79.064 E0.63685
G1 X56.687 Y79.555 E0.01548
G1 X70.932 Y93.800 E0.63258
G1 X70.841 Y94.141 E0.01108
G1 X70.833 Y94.235 E0.00295
G1 X56.644 Y80.046 E0.63007
G1 X56.601 Y80.537 E0.01548
G1 X70.790 Y94.726 E0.63007
G1 X70.841 Y95.311 E0.01844
G1 X56.558 Y81.028 E0.63424
G1 X56.536 Y81.277 E0.00784
G1 X56.562 Y81.565 E0.00910
G1 X71.095 Y96.099 E0.64538
G1 F8640
G1 X68.768 Y93.772 E-0.76000
G1 E-0.04000 F2100.00000
G1 Z0.800 F10800.000
G1 X73.476 Y99.014
G1 Z0.200
G1 E0.80000 F2100.00000
G1 F1800
G1 X56.613 Y82.151 E0.74881
G1 X56.664 Y82.736 E0.01845
G1 X72.704 Y98.776 E0.71226
G1 X72.119 Y98.725 E0.01845
G1 X56.715 Y83.321 E0.68400
G1 X56.766 Y83.906 E0.01845
G1 X71.533 Y98.673 E0.65573
G1 X71.102 Y98.636 E0.01359
G1 X70.910 Y98.584 E0.00624
G1 X56.856 Y84.530 E0.62410
G1 X57.051 Y85.259 E0.02371
G1 X70.181 Y98.389 E0.58302
G1 X69.451 Y98.193 E0.02371
G1 X57.247 Y85.989 E0.54195
G1 X57.442 Y86.718 E0.02371
G1 X68.722 Y97.998 E0.50088
G1 X68.134 Y97.840 E0.01909
G1 X67.939 Y97.749 E0.00676
G1 X57.690 Y87.500 E0.45511
G1 X58.157 Y88.501 E0.03467
G1 X66.939 Y97.283 E0.38996
G1 X65.938 Y96.816 E0.03467
G1 X58.273 Y89.151 E0.34038
G1 F8640
G1 X60.600 Y91.478 E-0.76000
G1 E-0.04000 F2100.00000
G1 Z0.800 F10800.000
G1 X58.739 Y90.152
G1 Z0.200
G1 E0.80000 F2100.00000
G1 F1800
G1 X65.288 Y96.700 E0.29081
G1 F8640
G1 X62.961 Y94.373 E-0.76000
G1 E-0.04000 F2100.00000
G1 Z0.800 F10800.000
G1 X63.525 Y95.472
G1 Z0.200
G1 E0.80000 F2100.00000
G1 F1800
G1 X59.968 Y91.914 E0.15795
M106 S255
;BEFORE_LAYER_CHANGE
G92 E0.0
;0.4


G1 F8640
G1 X62.296 Y94.242 E-0.76000
G1 E-0.04000 F2100.00000
G1 Z0.800 F10800.000
;AFTER_LAYER_CHANGE
;0.4
M104 S210 ; set temperature
G1 X58.315 Y94.576
G1 Z0.400
G1 E0.80000 F2100.00000
G1 F3000
G1 X56.349 Y91.782 E0.10712
G1 X54.792 Y88.522 E0.11326
G1 X53.791 Y84.881 E0.11841
G1 X53.475 Y81.278 E0.11341
G1 X53.791 Y77.674 E0.11342
G1 X54.791 Y74.033 E0.11841
G1 X56.349 Y70.771 E0.11332
G1 X58.314 Y67.979 E0.10706
G1 X60.724 Y65.557 E0.10712
G1 X63.809 Y63.366 E0.11864
G1 X67.076 Y61.840 E0.11307
G1 X70.570 Y60.903 E0.11341
G1 X74.166 Y60.588 E0.11318
G1 X77.766 Y60.904 E0.11330
G1 X81.407 Y61.905 E0.11841
G1 X84.667 Y63.461 E0.11326
G1 X87.461 Y65.428 E0.10712
G1 X89.882 Y67.837 E0.10712
G1 X92.074 Y70.922 E0.11864
G1 X93.600 Y74.190 E0.11307
G1 X94.537 Y77.683 E0.11341
G1 X94.852 Y81.276 E0.11307
G1 X94.537 Y84.868 E0.11307
G1 X93.601 Y88.362 E0.11341
G1 X92.073 Y91.633 E0.11318
G1 X89.882 Y94.716 E0.11858
G1 X87.462 Y97.124 E0.10706
G1 X84.668 Y99.091 E0.10712
G1 X81.405 Y100.649 E0.11338
G1 X77.767 Y101.649 E0.11830
G1 X74.164 Y101.965 E0.11341
