; generated by Slic3r Prusa Edition 1.41.0+win64 on 2018-10-31 at 08:27:47

; 

; external perimeters extrusion width = 0.45mm
; perimeters extrusion width = 0.45mm
; infill extrusion width = 0.45mm
; solid infill extrusion width = 0.45mm
; top infill extrusion width = 0.40mm
; first layer extrusion width = 0.42mm

M201 X1000 Y1000 Z1000 E5000 ; sets maximum accelerations, mm/sec^2
M203 X200 Y200 Z12 E120 ; sets maximum feedrates, mm/sec
M204 P1250 R1250 T1250 ; sets acceleration (P, T) and retract acceleration (R), mm/sec^2
M205 X8.00 Y8.00 Z0.40 E1.50 ; sets the jerk limits, mm/sec
M205 S0 T0 ; sets the minimum extruding and travel feed rate, mm/sec
M107
M115 U3.4.1 ; tell printer latest fw version
M83  ; extruder relative mode
M104 S230 ; set extruder temp
M140 S85 ; set bed temp
M190 S85 ; wait for bed temp
M109 S230 ; wait for extruder temp
G28 W ; home all without mesh bed level
G80 ; mesh bed leveling
G1 Y-3.0 F1000.0 ; go outside print area
G92 E0.0
G1 X60.0 E9.0  F1000.0 ; intro line
M73 Q0 S7
M73 P0 R7
G1 X100.0 E12.5  F1000.0 ; intro line
G92 E0.0
M221 S95
M900 K45; Filament gcode
G21 ; set units to millimeters
G90 ; use absolute coordinates
M83 ; use relative distances for extrusion
;BEFORE_LAYER_CHANGE
G92 E0.0
;0.2


G1 E-0.80000 F2100.00000
G1 Z0.600 F10800.000
;AFTER_LAYER_CHANGE
;0.2
G1 X79.581 Y97.282
G1 Z0.200
G1 E0.80000 F2100.00000
M204 S1000
G1 F1800
G1 X80.592 Y96.485 E0.04036
G1 X81.315 Y96.024 E0.02689
G1 X82.080 Y95.625 E0.02706
G1 X83.276 Y95.149 E0.04034
G1 X85.295 Y94.706 E0.06484
G1 X86.494 Y94.634 E0.03764
G1 X163.505 Y94.634 E2.41463
G1 X165.361 Y94.803 E0.05844
G1 X167.330 Y95.368 E0.06422
G1 X168.140 Y95.732 E0.02784
G1 X169.182 Y96.332 E0.03770
G1 X170.493 Y97.349 E0.05204
G1 X171.882 Y98.901 E0.06530
G1 X172.921 Y100.678 E0.06454
G1 X173.497 Y102.266 E0.05297
G1 X173.748 Y103.446 E0.03782
G1 X173.843 Y104.324 E0.02768
G1 X173.848 Y105.586 E0.03957
G1 X173.767 Y106.426 E0.02648
G1 X173.285 Y108.415 E0.06415
G1 X172.599 Y109.964 E0.05313
G1 X171.449 Y111.653 E0.06407
G1 X169.977 Y113.091 E0.06452
G1 X168.581 Y114.034 E0.05282
G1 X166.705 Y114.858 E0.06421
G1 X164.705 Y115.294 E0.06422
G1 X163.500 Y115.366 E0.03783
G1 X86.500 Y115.366 E2.41428
G1 X85.439 Y115.311 E0.03332
G1 X83.879 Y115.028 E0.04970
G1 X82.062 Y114.366 E0.06063
G1 X80.697 Y113.589 E0.04923
G1 X79.460 Y112.606 E0.04954
G1 X78.181 Y111.182 E0.06002
G1 X77.333 Y109.838 E0.04985
G1 X76.574 Y107.983 E0.06284
G1 X76.232 Y106.421 E0.05014
G1 X76.137 Y105.141 E0.04022
G1 X76.158 Y104.295 E0.02656
G1 X76.507 Y102.251 E0.06501
G1 X76.792 Y101.369 E0.02906
G1 X77.283 Y100.261 E0.03802
G1 X78.187 Y98.810 E0.05361
G1 X79.540 Y97.326 E0.06295
G1 X79.817 Y97.579 F10800.000
G1 F1800
G1 X80.813 Y96.790 E0.03983
G1 X81.509 Y96.348 E0.02586
G1 X82.238 Y95.968 E0.02576
G1 X83.399 Y95.505 E0.03920
G1 X85.366 Y95.077 E0.06311
G1 X86.497 Y95.011 E0.03554
G1 X163.505 Y95.011 E2.41451
G1 X165.290 Y95.173 E0.05620
G1 X167.197 Y95.721 E0.06222
G1 X168.982 Y96.652 E0.06310
G1 X170.239 Y97.628 E0.04993
G1 X171.578 Y99.125 E0.06295
G1 X172.579 Y100.838 E0.06223
G1 X173.131 Y102.357 E0.05066
G1 X173.467 Y104.350 E0.06336
G1 X173.393 Y106.376 E0.06359
G1 X172.927 Y108.298 E0.06201
G1 X172.270 Y109.780 E0.05082
G1 X171.158 Y111.413 E0.06193
G1 X169.735 Y112.802 E0.06236
G1 X168.400 Y113.703 E0.05052
G1 X166.587 Y114.499 E0.06207
G1 X164.639 Y114.923 E0.06251
G1 X163.500 Y114.989 E0.03577
G1 X86.500 Y114.989 E2.41428
G1 X85.485 Y114.937 E0.03187
G1 X83.969 Y114.661 E0.04829
G1 X82.147 Y113.990 E0.06088
G1 X80.833 Y113.224 E0.04770
G1 X79.406 Y112.030 E0.05836
G1 X78.422 Y110.875 E0.04755
G1 X77.631 Y109.593 E0.04724
G1 X76.929 Y107.853 E0.05883
G1 X76.604 Y106.353 E0.04811
G1 X76.535 Y104.314 E0.06399
G1 X76.872 Y102.343 E0.06268
G1 X77.145 Y101.501 E0.02778
G1 X77.624 Y100.422 E0.03701
G1 X78.490 Y99.035 E0.05127
G1 X79.777 Y97.623 E0.05989
; PURGING FINISHED
G1 F8640
G1 X80.813 Y96.790 E-0.30700
G1 X81.509 Y96.348 E-0.19046
G1 X82.238 Y95.968 E-0.18972
G1 X82.531 Y95.851 E-0.07282
G1 E-0.04000 F2100.00000
G1 Z0.800 F10800.000
G1 X95.913 Y103.113
G1 Z0.200
G1 E0.80000 F2100.00000
G1 F1800
G1 X154.087 Y103.113 E1.82401
G1 X154.087 Y106.887 E0.11834
G1 X95.913 Y106.887 E1.82401
G1 X95.913 Y103.173 E0.11645
G1 X96.290 Y103.490 F10800.000
G1 F1800
G1 X153.710 Y103.490 E1.80036
G1 X153.710 Y106.510 E0.09469
G1 X96.290 Y106.510 E1.80036
G1 X96.290 Y103.550 E0.09281
G1 X96.096 Y103.140 F10800.000
G1 F8640
G1 X99.581 Y103.547 E-0.76000
G1 E-0.04000 F2100.00000
G1 Z0.800 F10800.000
G1 X96.290 Y99.288
G1 Z0.200
G1 E0.80000 F2100.00000
G1 F1800
G1 X163.486 Y99.291 E2.10689
G1 X164.104 Y99.320 E0.01938
G1 X164.492 Y99.374 E0.01229
G1 X164.882 Y99.457 E0.01250
G1 X165.265 Y99.567 E0.01250
G1 X165.640 Y99.703 E0.01250
G1 X166.003 Y99.865 E0.01247
G1 X166.376 Y100.065 E0.01327
G1 X166.694 Y100.264 E0.01177
G1 X167.017 Y100.498 E0.01250
G1 X167.322 Y100.755 E0.01250
G1 X167.609 Y101.032 E0.01250
G1 X167.876 Y101.328 E0.01250
G1 X168.122 Y101.642 E0.01250
G1 X168.345 Y101.973 E0.01250
G1 X168.544 Y102.318 E0.01250
G1 X168.719 Y102.677 E0.01250
G1 X168.868 Y103.046 E0.01250
G1 X168.991 Y103.425 E0.01250
G1 X169.088 Y103.812 E0.01251
G1 X169.157 Y104.205 E0.01250
G1 X169.199 Y104.602 E0.01250
G1 X169.213 Y105.000 E0.01250
G1 X169.199 Y105.398 E0.01250
G1 X169.157 Y105.795 E0.01250
G1 X169.088 Y106.188 E0.01250
G1 X168.991 Y106.575 E0.01251
G1 X168.868 Y106.954 E0.01250
G1 X168.719 Y107.323 E0.01250
G1 X168.544 Y107.682 E0.01250
G1 X168.345 Y108.027 E0.01250
G1 X168.135 Y108.338 E0.01177
G1 X167.875 Y108.673 E0.01326
G1 X167.609 Y108.968 E0.01247
G1 X167.322 Y109.245 E0.01250
G1 X167.017 Y109.502 E0.01250
G1 X166.694 Y109.736 E0.01250
G1 X166.356 Y109.947 E0.01250
G1 X166.004 Y110.134 E0.01250
G1 X165.640 Y110.297 E0.01250
G1 X165.265 Y110.433 E0.01250
G1 X164.882 Y110.543 E0.01250
G1 X164.492 Y110.626 E0.01250
G1 X164.102 Y110.681 E0.01234
G1 X163.485 Y110.713 E0.01939
G1 X86.301 Y110.709 E2.42005
G1 X85.903 Y110.681 E0.01250
G1 X85.508 Y110.626 E0.01250
G1 X85.118 Y110.543 E0.01250
G1 X84.735 Y110.433 E0.01250
G1 X84.360 Y110.297 E0.01250
G1 X83.996 Y110.134 E0.01250
G1 X83.644 Y109.947 E0.01250
G1 X83.306 Y109.736 E0.01250
G1 X82.983 Y109.502 E0.01250
G1 X82.678 Y109.245 E0.01250
G1 X82.391 Y108.968 E0.01250
G1 X82.124 Y108.672 E0.01250
G1 X81.878 Y108.358 E0.01250
G1 X81.655 Y108.027 E0.01250
G1 X81.456 Y107.682 E0.01250
G1 X81.281 Y107.324 E0.01250
G1 X81.132 Y106.954 E0.01250
G1 X81.009 Y106.575 E0.01250
G1 X80.912 Y106.188 E0.01250
G1 X80.847 Y105.818 E0.01177
G1 X80.801 Y105.397 E0.01326
G1 X80.787 Y105.000 E0.01247
G1 X80.801 Y104.602 E0.01250
G1 X80.843 Y104.205 E0.01250
G1 X80.912 Y103.812 E0.01250
G1 X81.009 Y103.425 E0.01250
G1 X81.132 Y103.046 E0.01250
G1 X81.281 Y102.676 E0.01250
G1 X81.456 Y102.318 E0.01250
G1 X81.655 Y101.973 E0.01250
G1 X81.865 Y101.662 E0.01177
G1 X82.125 Y101.327 E0.01326
G1 X82.391 Y101.032 E0.01247
G1 X82.678 Y100.755 E0.01250
G1 X82.983 Y100.498 E0.01250
G1 X83.306 Y100.264 E0.01250
G1 X83.644 Y100.053 E0.01250
G1 X83.996 Y99.866 E0.01250
G1 X84.360 Y99.703 E0.01250
G1 X84.735 Y99.567 E0.01250
G1 X85.118 Y99.457 E0.01250
G1 X85.508 Y99.374 E0.01250
G1 X85.898 Y99.319 E0.01234
G1 X86.515 Y99.287 E0.01939
G1 X96.230 Y99.288 E0.30460
G1 X96.230 Y98.910 F10800.000
G1 F1800
G1 X163.495 Y98.914 E2.10904
G1 X164.139 Y98.944 E0.02021
G1 X164.558 Y99.003 E0.01325
G1 X164.973 Y99.091 E0.01333
G1 X165.382 Y99.208 E0.01333
G1 X165.781 Y99.354 E0.01333
G1 X166.169 Y99.526 E0.01332
G1 X166.565 Y99.739 E0.01409
G1 X166.905 Y99.951 E0.01257
G1 X167.249 Y100.201 E0.01333
G1 X167.575 Y100.474 E0.01333
G1 X167.881 Y100.770 E0.01333
G1 X168.165 Y101.086 E0.01333
G1 X168.427 Y101.420 E0.01333
G1 X168.665 Y101.773 E0.01333
G1 X168.877 Y102.141 E0.01333
G1 X169.063 Y102.523 E0.01333
G1 X169.223 Y102.917 E0.01333
G1 X169.354 Y103.321 E0.01333
G1 X169.457 Y103.734 E0.01333
G1 X169.531 Y104.152 E0.01333
G1 X169.575 Y104.575 E0.01333
G1 X169.590 Y105.000 E0.01333
G1 X169.575 Y105.425 E0.01333
G1 X169.531 Y105.848 E0.01333
G1 X169.457 Y106.266 E0.01333
G1 X169.354 Y106.679 E0.01333
G1 X169.223 Y107.083 E0.01333
G1 X169.063 Y107.477 E0.01333
G1 X168.877 Y107.859 E0.01333
G1 X168.665 Y108.227 E0.01333
G1 X168.440 Y108.560 E0.01257
G1 X168.165 Y108.915 E0.01409
G1 X167.881 Y109.230 E0.01332
G1 X167.575 Y109.526 E0.01333
G1 X167.249 Y109.799 E0.01333
G1 X166.905 Y110.049 E0.01333
G1 X166.545 Y110.274 E0.01333
G1 X166.170 Y110.474 E0.01333
G1 X165.781 Y110.646 E0.01333
G1 X165.382 Y110.792 E0.01333
G1 X164.973 Y110.909 E0.01333
G1 X164.558 Y110.997 E0.01333
G1 X164.138 Y111.056 E0.01327
G1 X163.495 Y111.090 E0.02022
G1 X86.287 Y111.086 E2.42077
G1 X85.863 Y111.057 E0.01333
G1 X85.442 Y110.997 E0.01333
G1 X85.027 Y110.909 E0.01333
G1 X84.618 Y110.792 E0.01333
G1 X84.219 Y110.646 E0.01333
G1 X83.830 Y110.474 E0.01333
G1 X83.455 Y110.274 E0.01333
G1 X83.095 Y110.049 E0.01333
G1 X82.751 Y109.799 E0.01333
G1 X82.425 Y109.526 E0.01333
G1 X82.119 Y109.230 E0.01333
G1 X81.835 Y108.914 E0.01333
G1 X81.573 Y108.580 E0.01333
G1 X81.335 Y108.227 E0.01333
G1 X81.123 Y107.859 E0.01333
G1 X80.937 Y107.477 E0.01333
G1 X80.777 Y107.083 E0.01333
G1 X80.646 Y106.679 E0.01333
G1 X80.543 Y106.266 E0.01333
G1 X80.474 Y105.871 E0.01257
G1 X80.425 Y105.424 E0.01409
G1 X80.410 Y105.000 E0.01332
G1 X80.425 Y104.575 E0.01333
G1 X80.469 Y104.152 E0.01333
G1 X80.543 Y103.734 E0.01333
G1 X80.646 Y103.321 E0.01333
G1 X80.777 Y102.917 E0.01333
G1 X80.937 Y102.523 E0.01333
G1 X81.123 Y102.141 E0.01333
G1 X81.335 Y101.773 E0.01333
G1 X81.560 Y101.440 E0.01257
G1 X81.835 Y101.085 E0.01409
G1 X82.119 Y100.770 E0.01332
G1 X82.425 Y100.474 E0.01333
G1 X82.751 Y100.201 E0.01333
G1 X83.095 Y99.951 E0.01333
G1 X83.455 Y99.726 E0.01333
G1 X83.830 Y99.526 E0.01333
G1 X84.219 Y99.354 E0.01333
G1 X84.618 Y99.208 E0.01333
G1 X85.027 Y99.091 E0.01333
G1 X85.442 Y99.003 E0.01333
G1 X85.862 Y98.944 E0.01327
G1 X86.505 Y98.910 E0.02022
G1 X96.170 Y98.910 E0.30303
G1 X96.431 Y99.257 F10800.000
G1 F8640
G1 X99.462 Y98.911 E-0.76000
G1 E-0.04000 F2100.00000
G1 Z0.800 F10800.000
G1 X95.800 Y106.496
G1 Z0.200
G1 E0.80000 F2100.00000
G1 F1800
G1 X88.874 Y99.570 E0.30742
G1 X89.408 Y99.570 E0.01676
G1 X95.630 Y105.792 E0.27619
G1 X95.630 Y105.258 E0.01676
G1 X89.942 Y99.570 E0.25249
G1 X90.476 Y99.570 E0.01676
G1 X95.630 Y104.724 E0.22880
G1 X95.630 Y104.191 E0.01676
G1 X91.010 Y99.570 E0.20510
G1 X91.544 Y99.570 E0.01676
G1 X95.630 Y103.657 E0.18140
G1 X95.630 Y103.123 E0.01676
G1 X92.077 Y99.570 E0.15770
G1 X92.611 Y99.570 E0.01676
G1 X95.871 Y102.830 E0.14471
G1 X96.405 Y102.830 E0.01676
G1 X93.145 Y99.570 E0.14471
G1 X93.679 Y99.570 E0.01676
G1 X96.939 Y102.830 E0.14470
G1 X97.473 Y102.830 E0.01676
G1 X94.213 Y99.570 E0.14470
G1 X94.747 Y99.570 E0.01676
G1 X98.007 Y102.830 E0.14470
G1 X98.540 Y102.830 E0.01676
G1 X95.281 Y99.570 E0.14470
G1 X95.814 Y99.570 E0.01676
G1 X99.074 Y102.830 E0.14470
G1 X99.608 Y102.830 E0.01676
G1 X96.348 Y99.570 E0.14470
G1 X96.882 Y99.570 E0.01676
G1 X100.142 Y102.830 E0.14470
G1 X100.676 Y102.830 E0.01676
G1 X97.416 Y99.570 E0.14470
G1 X97.950 Y99.570 E0.01676
G1 X101.210 Y102.830 E0.14469
G1 X101.743 Y102.830 E0.01676
G1 X98.484 Y99.570 E0.14469
G1 X99.018 Y99.570 E0.01676
G1 X102.277 Y102.830 E0.14469
G1 X102.811 Y102.830 E0.01676
G1 X99.552 Y99.571 E0.14469
G1 X100.085 Y99.571 E0.01676
G1 X103.345 Y102.830 E0.14469
G1 X103.879 Y102.830 E0.01676
G1 X100.619 Y99.571 E0.14469
G1 X101.153 Y99.571 E0.01676
G1 X104.413 Y102.830 E0.14469
G1 X104.946 Y102.830 E0.01676
G1 X101.687 Y99.571 E0.14469
G1 X102.221 Y99.571 E0.01676
G1 X105.480 Y102.830 E0.14469
G1 X106.014 Y102.830 E0.01676
G1 X102.755 Y99.571 E0.14468
G1 X103.289 Y99.571 E0.01676
G1 X106.548 Y102.830 E0.14468
G1 X107.082 Y102.830 E0.01676
G1 X103.822 Y99.571 E0.14468
G1 X104.356 Y99.571 E0.01676
G1 X107.616 Y102.830 E0.14468
G1 X108.150 Y102.830 E0.01676
G1 X104.890 Y99.571 E0.14468
G1 X105.424 Y99.571 E0.01676
G1 X108.683 Y102.830 E0.14468
G1 X109.217 Y102.830 E0.01676
G1 X105.958 Y99.571 E0.14468
G1 X106.492 Y99.571 E0.01676
G1 X109.751 Y102.830 E0.14468
G1 X110.285 Y102.830 E0.01676
G1 X107.026 Y99.571 E0.14467
G1 X107.560 Y99.571 E0.01676
G1 X110.819 Y102.830 E0.14467
G1 X111.353 Y102.830 E0.01676
G1 X108.093 Y99.571 E0.14467
G1 X108.627 Y99.571 E0.01676
G1 X111.886 Y102.830 E0.14467
G1 X112.420 Y102.830 E0.01676
G1 X109.161 Y99.571 E0.14467
G1 X109.695 Y99.571 E0.01676
G1 X112.954 Y102.830 E0.14467
G1 X113.488 Y102.830 E0.01676
G1 X110.229 Y99.571 E0.14467
G1 X110.763 Y99.571 E0.01676
G1 X114.022 Y102.830 E0.14467
G1 X114.556 Y102.830 E0.01676
G1 X111.297 Y99.571 E0.14467
G1 X111.830 Y99.571 E0.01676
G1 X115.089 Y102.830 E0.14466
G1 X115.623 Y102.830 E0.01676
G1 X112.364 Y99.571 E0.14466
G1 X112.898 Y99.571 E0.01676
G1 X116.157 Y102.830 E0.14466
G1 X116.691 Y102.830 E0.01676
G1 X113.432 Y99.571 E0.14466
G1 X113.966 Y99.571 E0.01676
G1 X117.225 Y102.830 E0.14466
G1 X117.759 Y102.830 E0.01676
G1 X114.500 Y99.571 E0.14466
G1 X115.034 Y99.571 E0.01676
G1 X118.292 Y102.830 E0.14466
G1 X118.826 Y102.830 E0.01676
G1 X115.568 Y99.571 E0.14466
G1 X116.101 Y99.571 E0.01676
G1 X119.360 Y102.830 E0.14465
G1 X119.894 Y102.830 E0.01676
G1 X116.635 Y99.571 E0.14465
G1 X117.169 Y99.571 E0.01676
G1 X120.428 Y102.830 E0.14465
G1 X120.962 Y102.830 E0.01676
G1 X117.703 Y99.571 E0.14465
G1 X118.237 Y99.571 E0.01676
G1 X121.496 Y102.830 E0.14465
G1 X122.029 Y102.830 E0.01676
G1 X118.771 Y99.571 E0.14465
G1 X119.305 Y99.572 E0.01676
G1 X122.563 Y102.830 E0.14465
G1 X123.097 Y102.830 E0.01676
G1 X119.838 Y99.572 E0.14465
G1 X120.372 Y99.572 E0.01676
G1 X123.631 Y102.830 E0.14465
G1 X124.165 Y102.830 E0.01676
G1 X120.906 Y99.572 E0.14464
G1 X121.440 Y99.572 E0.01676
G1 X124.699 Y102.830 E0.14464
G1 X125.232 Y102.830 E0.01676
G1 X121.974 Y99.572 E0.14464
G1 X122.508 Y99.572 E0.01676
G1 X125.766 Y102.830 E0.14464
G1 X126.300 Y102.830 E0.01676
G1 X123.042 Y99.572 E0.14464
G1 X123.576 Y99.572 E0.01676
G1 X126.834 Y102.830 E0.14464
G1 X127.368 Y102.830 E0.01676
G1 X124.109 Y99.572 E0.14464
G1 X124.643 Y99.572 E0.01676
G1 X127.902 Y102.830 E0.14464
G1 X128.435 Y102.830 E0.01676
G1 X125.177 Y99.572 E0.14463
G1 X125.711 Y99.572 E0.01676
G1 X128.969 Y102.830 E0.14463
G1 X129.503 Y102.830 E0.01676
G1 X126.245 Y99.572 E0.14463
G1 X126.779 Y99.572 E0.01676
G1 X130.037 Y102.830 E0.14463
G1 X130.571 Y102.830 E0.01676
G1 X127.313 Y99.572 E0.14463
G1 X127.846 Y99.572 E0.01676
G1 X131.105 Y102.830 E0.14463
G1 X131.639 Y102.830 E0.01676
G1 X128.380 Y99.572 E0.14463
G1 X128.914 Y99.572 E0.01676
G1 X132.172 Y102.830 E0.14463
G1 X132.706 Y102.830 E0.01676
G1 X129.448 Y99.572 E0.14462
G1 X129.982 Y99.572 E0.01676
G1 X133.240 Y102.830 E0.14462
G1 X133.774 Y102.830 E0.01676
G1 X130.516 Y99.572 E0.14462
G1 X131.050 Y99.572 E0.01676
G1 X134.308 Y102.830 E0.14462
G1 X134.842 Y102.830 E0.01676
G1 X131.584 Y99.572 E0.14462
G1 X132.117 Y99.572 E0.01676
G1 X135.375 Y102.830 E0.14462
G1 X135.909 Y102.830 E0.01676
G1 X132.651 Y99.572 E0.14462
G1 X133.185 Y99.572 E0.01676
G1 X136.443 Y102.830 E0.14462
G1 X136.977 Y102.830 E0.01676
G1 X133.719 Y99.572 E0.14462
G1 X134.253 Y99.572 E0.01676
G1 X137.511 Y102.830 E0.14461
G1 X138.045 Y102.830 E0.01676
G1 X134.787 Y99.572 E0.14461
G1 X135.321 Y99.572 E0.01676
G1 X138.578 Y102.830 E0.14461
G1 X139.112 Y102.830 E0.01676
G1 X135.854 Y99.572 E0.14461
G1 X136.388 Y99.572 E0.01676
G1 X139.646 Y102.830 E0.14461
G1 X140.180 Y102.830 E0.01676
G1 X136.922 Y99.572 E0.14461
G1 X137.456 Y99.572 E0.01676
G1 X140.714 Y102.830 E0.14461
G1 X141.248 Y102.830 E0.01676
G1 X137.990 Y99.572 E0.14461
G1 X138.524 Y99.572 E0.01676
M73 Q15 S6
G1 X141.781 Y102.830 E0.14460
G1 X142.315 Y102.830 E0.01676
G1 X139.058 Y99.572 E0.14460
G1 X139.592 Y99.573 E0.01676
G1 X142.849 Y102.830 E0.14460
M73 P15 R6
G1 X143.383 Y102.830 E0.01676
G1 X140.125 Y99.573 E0.14460
G1 X140.659 Y99.573 E0.01676
G1 X143.917 Y102.830 E0.14460
G1 X144.451 Y102.830 E0.01676
G1 X141.193 Y99.573 E0.14460
G1 X141.727 Y99.573 E0.01676
G1 X144.985 Y102.830 E0.14460
