; generated by Slic3r Prusa Edition 1.41.0+win64 on 2018-10-15 at 18:08:03

; 

; external perimeters extrusion width = 0.45mm
; perimeters extrusion width = 0.45mm
; infill extrusion width = 0.45mm
; solid infill extrusion width = 0.45mm
; top infill extrusion width = 0.40mm
; first layer extrusion width = 0.42mm

M201 X1000 Y1000 Z1000 E5000 ; sets maximum accelerations, mm/sec^2
M203 X200 Y200 Z12 E120 ; sets maximum feedrates, mm/sec
M204 P1250 R1250 T1250 ; sets acceleration (P, T) and retract acceleration (R), mm/sec^2
M205 X8.00 Y8.00 Z0.40 E1.50 ; sets the jerk limits, mm/sec
M205 S0 T0 ; sets the minimum extruding and travel feed rate, mm/sec
M107
M115 U3.4.0 ; tell printer latest fw version
M83  ; extruder relative mode
M104 S215 ; set extruder temp
M140 S60 ; set bed temp
M190 S60 ; wait for bed temp
M109 S215 ; wait for extruder temp
G28 W ; home all without mesh bed level
G80 ; mesh bed leveling
G1 Y-3.0 F1000.0 ; go outside print area
G92 E0.0
G1 X60.0 E9.0  F1000.0 ; intro line
M73 Q0 S52
M73 P0 R52
G1 X100.0 E12.5  F1000.0 ; intro line
G92 E0.0
M221 S95
M900 K30; Filament gcode
G21 ; set units to millimeters
G90 ; use absolute coordinates
M83 ; use relative distances for extrusion
;BEFORE_LAYER_CHANGE
G92 E0.0
;0.2


G1 E-0.80000 F2100.00000
G1 Z0.600 F10800.000
;AFTER_LAYER_CHANGE
;0.2
G1 X115.540 Y46.237
G1 Z0.200
G1 E0.80000 F2100.00000
M204 S1000
G1 F1200
G1 X116.515 Y45.620 E0.03403
G1 X117.626 Y45.221 E0.03478
G1 X118.507 Y45.088 E0.02626
G1 X165.860 Y45.076 E1.39565
G1 X166.993 Y45.199 E0.03358
G1 X167.800 Y45.443 E0.02485
G1 X168.813 Y45.973 E0.03369
G1 X169.477 Y46.497 E0.02494
G1 X170.224 Y47.359 E0.03361
G1 X170.651 Y48.089 E0.02494
G1 X171.032 Y49.164 E0.03360
G1 X171.162 Y50.003 E0.02502
G1 X171.242 Y100.459 E1.48709
G1 X171.175 Y101.272 E0.02407
G1 X170.888 Y102.338 E0.03253
G1 X170.530 Y103.092 E0.02460
G1 X170.057 Y103.780 E0.02460
G1 X169.235 Y104.595 E0.03411
G1 X168.229 Y105.227 E0.03502
G1 X167.107 Y105.619 E0.03503
G1 X165.940 Y105.753 E0.03461
G1 X118.891 Y105.752 E1.38669
G1 X118.081 Y105.685 E0.02396
G1 X117.017 Y105.399 E0.03246
G1 X116.263 Y105.041 E0.02460
G1 X115.575 Y104.567 E0.02460
G1 X114.760 Y103.746 E0.03410
G1 X114.128 Y102.739 E0.03503
G1 X113.736 Y101.618 E0.03502
G1 X113.602 Y100.454 E0.03453
G1 X113.535 Y88.746 E0.34506
G1 X113.538 Y50.367 E1.13116
G1 X113.605 Y49.556 E0.02398
G1 X113.891 Y48.490 E0.03253
G1 X114.250 Y47.737 E0.02460
G1 X114.723 Y47.049 E0.02460
G1 X115.497 Y46.279 E0.03218
G1 X115.762 Y46.545 F10800.000
G1 F1200
G1 X116.713 Y45.942 E0.03321
G1 X117.753 Y45.578 E0.03248
G1 X118.824 Y45.453 E0.03177
G1 X165.860 Y45.453 E1.38627
G1 X166.923 Y45.570 E0.03152
G1 X167.664 Y45.795 E0.02283
G1 X168.612 Y46.292 E0.03156
G1 X169.220 Y46.773 E0.02283
G1 X169.921 Y47.582 E0.03157
G1 X170.311 Y48.252 E0.02283
G1 X170.667 Y49.261 E0.03156
G1 X170.787 Y50.034 E0.02304
G1 X170.865 Y100.452 E1.48598
G1 X170.804 Y101.204 E0.02224
G1 X170.534 Y102.210 E0.03069
G1 X170.202 Y102.905 E0.02269
G1 X169.768 Y103.537 E0.02262
G1 X169.001 Y104.299 E0.03185
G1 X168.066 Y104.886 E0.03255
G1 X167.024 Y105.251 E0.03255
G1 X165.936 Y105.376 E0.03227
G1 X118.900 Y105.375 E1.38627
G1 X118.151 Y105.315 E0.02217
G1 X117.145 Y105.045 E0.03069
G1 X116.450 Y104.713 E0.02269
G1 X115.817 Y104.278 E0.02262
G1 X115.056 Y103.512 E0.03184
G1 X114.469 Y102.577 E0.03256
G1 X114.104 Y101.535 E0.03255
G1 X113.979 Y100.447 E0.03227
G1 X113.912 Y88.744 E0.34490
G1 X113.915 Y50.376 E1.13083
G1 X113.976 Y49.624 E0.02224
G1 X114.246 Y48.618 E0.03069
G1 X114.576 Y47.926 E0.02262
G1 X115.012 Y47.291 E0.02269
G1 X115.719 Y46.588 E0.02940
G1 X115.983 Y46.853 F10800.000
G1 F1200
G1 X116.876 Y46.282 E0.03122
G1 X117.841 Y45.944 E0.03013
G1 X118.838 Y45.830 E0.02959
G1 X165.859 Y45.830 E1.38586
G1 X166.852 Y45.940 E0.02946
G1 X167.525 Y46.145 E0.02071
G1 X168.158 Y46.452 E0.02075
G1 X168.962 Y47.048 E0.02949
G1 X169.440 Y47.566 E0.02075
G1 X169.970 Y48.414 E0.02949
G1 X170.303 Y49.359 E0.02953
G1 X170.411 Y50.061 E0.02093
G1 X170.488 Y100.442 E1.48489
G1 X170.433 Y101.134 E0.02046
G1 X170.179 Y102.083 E0.02894
G1 X169.876 Y102.715 E0.02066
G1 X169.479 Y103.295 E0.02071
G1 X168.768 Y104.003 E0.02959
G1 X167.902 Y104.547 E0.03013
G1 X166.939 Y104.884 E0.03008
G1 X165.930 Y104.999 E0.02991
G1 X118.911 Y104.998 E1.38580
G1 X118.222 Y104.944 E0.02036
G1 X117.272 Y104.690 E0.02899
G1 X116.640 Y104.387 E0.02066
G1 X116.060 Y103.990 E0.02071
G1 X115.352 Y103.279 E0.02958
G1 X114.809 Y102.415 E0.03008
G1 X114.471 Y101.450 E0.03013
G1 X114.357 Y100.441 E0.02992
G1 X114.289 Y88.746 E0.34470
G1 X114.292 Y50.386 E1.13058
G1 X114.346 Y49.696 E0.02042
G1 X114.600 Y48.746 E0.02899
G1 X114.903 Y48.113 E0.02066
G1 X115.300 Y47.534 E0.02071
G1 X115.941 Y46.896 E0.02665
G1 X115.783 Y47.551 F10800.000
G1 F1200
G1 X116.492 Y46.939 E0.02761
G1 X117.046 Y46.619 E0.01887
G1 X117.926 Y46.312 E0.02745
G1 X118.852 Y46.207 E0.02749
G1 X165.858 Y46.207 E1.38541
G1 X166.782 Y46.311 E0.02741
G1 X167.387 Y46.496 E0.01864
G1 X168.211 Y46.931 E0.02745
G1 X168.706 Y47.325 E0.01867
G1 X169.136 Y47.790 E0.01864
G1 X169.631 Y48.578 E0.02742
G1 X169.939 Y49.457 E0.02745
G1 X170.034 Y50.086 E0.01877
G1 X170.111 Y100.436 E1.48397
G1 X170.007 Y101.358 E0.02734
G1 X169.821 Y101.964 E0.01867
G1 X169.546 Y102.533 E0.01864
G1 X168.996 Y103.277 E0.02726
G1 X168.287 Y103.890 E0.02761
G1 X167.733 Y104.210 E0.01887
G1 X166.854 Y104.517 E0.02745
G1 X165.923 Y104.621 E0.02761
G1 X118.918 Y104.621 E1.38538
G1 X117.997 Y104.518 E0.02731
G1 X117.392 Y104.332 E0.01864
G1 X116.822 Y104.057 E0.01868
G1 X116.078 Y103.507 E0.02726
G1 X115.643 Y103.039 E0.01883
G1 X115.149 Y102.251 E0.02742
G1 X114.918 Y101.661 E0.01867
G1 X114.746 Y100.750 E0.02732
G1 X114.666 Y88.746 E0.35381
G1 X114.669 Y50.390 E1.13045
G1 X114.772 Y49.470 E0.02728
G1 X114.958 Y48.865 E0.01867
G1 X115.233 Y48.295 E0.01864
G1 X115.747 Y47.599 E0.02549
; PURGING FINISHED
G1 F8640
G1 X116.492 Y46.939 E-0.22984
G1 X117.046 Y46.619 E-0.14780
G1 X117.926 Y46.312 E-0.21506
G1 X118.646 Y46.230 E-0.16730
G1 E-0.04000 F2100.00000
G1 Z0.800 F10800.000
G1 X161.942 Y85.019
G1 Z0.200
G1 E0.80000 F2100.00000
G1 F1200
G1 X162.428 Y84.580 E0.01930
G1 X162.710 Y84.383 E0.01013
G1 X163.219 Y84.107 E0.01706
G1 X163.823 Y83.891 E0.01890
G1 X164.478 Y83.774 E0.01962
G1 X165.058 Y83.763 E0.01709
G1 X165.399 Y83.794 E0.01010
G1 X166.016 Y83.929 E0.01862
G1 X166.634 Y84.176 E0.01962
G1 X167.133 Y84.473 E0.01711
G1 X167.425 Y84.696 E0.01083
G1 X167.850 Y85.112 E0.01752
G1 X168.066 Y85.379 E0.01014
G1 X168.399 Y85.915 E0.01858
G1 X168.646 Y86.506 E0.01890
G1 X168.789 Y87.094 E0.01782
G1 X168.831 Y87.435 E0.01014
G1 X168.831 Y88.054 E0.01823
G1 X168.789 Y88.395 E0.01014
G1 X168.646 Y88.984 E0.01787
G1 X168.387 Y89.596 E0.01958
G1 X168.080 Y90.089 E0.01711
G1 X167.851 Y90.376 E0.01083
G1 X167.426 Y90.792 E0.01752
G1 X167.154 Y91.003 E0.01014
G1 X166.623 Y91.319 E0.01823
G1 X166.308 Y91.458 E0.01014
G1 X165.730 Y91.636 E0.01782
G1 X165.096 Y91.726 E0.01890
G1 X164.465 Y91.713 E0.01858
G1 X164.125 Y91.665 E0.01014
G1 X163.550 Y91.513 E0.01752
G1 X163.209 Y91.376 E0.01083
G1 X162.699 Y91.100 E0.01711
G1 X162.171 Y90.696 E0.01958
G1 X161.756 Y90.254 E0.01787
G1 X161.551 Y89.978 E0.01014
G1 X161.245 Y89.440 E0.01823
G1 X161.112 Y89.123 E0.01014
G1 X160.946 Y88.542 E0.01782
G1 X160.869 Y87.905 E0.01890
G1 X160.894 Y87.275 E0.01858
G1 X160.950 Y86.936 E0.01013
G1 X161.116 Y86.354 E0.01782
G1 X161.382 Y85.784 E0.01855
G1 X161.564 Y85.492 E0.01014
G1 X161.905 Y85.066 E0.01609
G1 X162.199 Y85.301 F10800.000
G1 F1200
G1 X162.663 Y84.876 E0.01857
G1 X162.908 Y84.705 E0.00881
G1 X163.373 Y84.452 E0.01558
G1 X163.920 Y84.257 E0.01712
G1 X164.515 Y84.150 E0.01782
G1 X165.044 Y84.140 E0.01559
G1 X165.341 Y84.168 E0.00880
G1 X165.906 Y84.290 E0.01702
G1 X166.467 Y84.515 E0.01782
G1 X166.922 Y84.785 E0.01560
G1 X167.178 Y84.981 E0.00950
G1 X167.570 Y85.366 E0.01619
G1 X167.758 Y85.598 E0.00881
G1 X168.063 Y86.088 E0.01701
G1 X168.287 Y86.624 E0.01712
G1 X168.417 Y87.161 E0.01629
G1 X168.453 Y87.458 E0.00881
G1 X168.453 Y88.031 E0.01688
G1 X168.417 Y88.328 E0.00881
G1 X168.287 Y88.865 E0.01631
G1 X168.051 Y89.422 E0.01780
G1 X167.771 Y89.871 E0.01560
G1 X167.570 Y90.123 E0.00950
G1 X167.178 Y90.507 E0.01619
G1 X166.942 Y90.690 E0.00881
G1 X166.450 Y90.983 E0.01688
G1 X166.176 Y91.104 E0.00881
G1 X165.648 Y91.267 E0.01629
G1 X165.073 Y91.349 E0.01712
G1 X164.496 Y91.337 E0.01701
G1 X164.200 Y91.295 E0.00881
G1 X163.669 Y91.154 E0.01619
G1 X163.370 Y91.035 E0.00950
G1 X162.904 Y90.782 E0.01560
G1 X162.425 Y90.415 E0.01781
G1 X162.045 Y90.012 E0.01631
G1 X161.867 Y89.772 E0.00881
G1 X161.584 Y89.274 E0.01688
G1 X161.469 Y88.998 E0.00881
G1 X161.317 Y88.467 E0.01629
G1 X161.247 Y87.890 E0.01712
G1 X161.270 Y87.313 E0.01701
G1 X161.318 Y87.018 E0.00881
G1 X161.470 Y86.487 E0.01629
G1 X161.714 Y85.964 E0.01700
G1 X161.872 Y85.710 E0.00881
G1 X162.162 Y85.348 E0.01367
G1 X162.087 Y84.917 F10800.000
G1 F8640
G1 X162.663 Y84.876 E-0.15915
G1 X162.908 Y84.705 E-0.06900
G1 X163.373 Y84.452 E-0.12205
G1 X163.920 Y84.257 E-0.13414
G1 X164.515 Y84.150 E-0.13962
G1 X165.044 Y84.140 E-0.12213
G1 X165.104 Y84.146 E-0.01391
G1 E-0.04000 F2100.00000
G1 Z0.800 F10800.000
G1 X153.646 Y86.506
G1 Z0.200
G1 E0.80000 F2100.00000
G1 F1200
G1 X153.789 Y87.094 E0.01782
G1 X153.831 Y87.435 E0.01014
G1 X153.831 Y88.054 E0.01823
G1 X153.789 Y88.395 E0.01014
G1 X153.646 Y88.984 E0.01787
G1 X153.387 Y89.596 E0.01958
G1 X153.080 Y90.089 E0.01711
G1 X152.851 Y90.376 E0.01083
G1 X152.426 Y90.792 E0.01752
G1 X152.154 Y91.003 E0.01014
G1 X151.623 Y91.319 E0.01823
G1 X151.308 Y91.458 E0.01014
G1 X150.730 Y91.636 E0.01782
G1 X150.096 Y91.726 E0.01890
G1 X149.465 Y91.713 E0.01858
G1 X149.125 Y91.665 E0.01014
G1 X148.550 Y91.513 E0.01752
G1 X148.209 Y91.376 E0.01083
G1 X147.699 Y91.100 E0.01711
G1 X147.171 Y90.696 E0.01958
G1 X146.756 Y90.254 E0.01787
G1 X146.551 Y89.978 E0.01014
G1 X146.245 Y89.440 E0.01823
G1 X146.112 Y89.123 E0.01014
G1 X145.946 Y88.542 E0.01782
G1 X145.869 Y87.905 E0.01890
G1 X145.894 Y87.275 E0.01858
G1 X145.950 Y86.936 E0.01013
G1 X146.116 Y86.354 E0.01782
G1 X146.382 Y85.784 E0.01855
G1 X146.564 Y85.492 E0.01014
G1 X146.942 Y85.019 E0.01786
G1 X147.428 Y84.580 E0.01930
G1 X147.710 Y84.383 E0.01013
G1 X148.219 Y84.107 E0.01706
G1 X148.823 Y83.891 E0.01890
G1 X149.478 Y83.774 E0.01962
G1 X150.058 Y83.763 E0.01709
G1 X150.399 Y83.794 E0.01010
G1 X151.016 Y83.929 E0.01862
G1 X151.634 Y84.176 E0.01962
G1 X152.133 Y84.473 E0.01711
G1 X152.425 Y84.696 E0.01083
G1 X152.850 Y85.112 E0.01752
G1 X153.066 Y85.379 E0.01014
G1 X153.399 Y85.915 E0.01858
G1 X153.623 Y86.451 E0.01713
G1 X153.275 Y86.596 F10800.000
G1 F1200
G1 X153.417 Y87.161 E0.01718
G1 X153.453 Y87.458 E0.00881
G1 X153.453 Y88.031 E0.01688
G1 X153.417 Y88.328 E0.00881
G1 X153.287 Y88.865 E0.01631
G1 X153.051 Y89.422 E0.01781
G1 X152.771 Y89.871 E0.01560
G1 X152.570 Y90.123 E0.00950
G1 X152.178 Y90.507 E0.01619
G1 X151.942 Y90.690 E0.00881
G1 X151.450 Y90.983 E0.01688
G1 X151.176 Y91.104 E0.00881
G1 X150.648 Y91.267 E0.01629
G1 X150.073 Y91.349 E0.01712
G1 X149.496 Y91.337 E0.01701
G1 X149.200 Y91.295 E0.00881
G1 X148.669 Y91.154 E0.01619
G1 X148.370 Y91.035 E0.00950
G1 X147.904 Y90.782 E0.01560
G1 X147.425 Y90.415 E0.01781
G1 X147.045 Y90.012 E0.01631
G1 X146.867 Y89.772 E0.00881
G1 X146.584 Y89.274 E0.01688
G1 X146.469 Y88.998 E0.00881
G1 X146.317 Y88.467 E0.01629
G1 X146.247 Y87.890 E0.01712
G1 X146.270 Y87.313 E0.01701
G1 X146.318 Y87.018 E0.00881
G1 X146.470 Y86.487 E0.01629
G1 X146.714 Y85.964 E0.01700
G1 X146.872 Y85.710 E0.00881
G1 X147.218 Y85.278 E0.01631
G1 X147.663 Y84.876 E0.01770
G1 X147.908 Y84.705 E0.00881
G1 X148.373 Y84.452 E0.01558
G1 X148.920 Y84.257 E0.01712
G1 X149.515 Y84.150 E0.01782
G1 X150.044 Y84.140 E0.01559
G1 X150.341 Y84.168 E0.00880
G1 X150.906 Y84.290 E0.01702
G1 X151.467 Y84.515 E0.01782
G1 X151.922 Y84.785 E0.01560
G1 X152.178 Y84.981 E0.00950
G1 X152.570 Y85.366 E0.01619
G1 X152.758 Y85.598 E0.00881
G1 X153.063 Y86.088 E0.01701
G1 X153.252 Y86.541 E0.01446
G1 X153.667 Y86.675 F10800.000
G1 F8640
G1 X153.417 Y87.161 E-0.14828
G1 X153.453 Y87.458 E-0.06903
G1 X153.453 Y88.031 E-0.13227
G1 X153.417 Y88.328 E-0.06903
G1 X153.287 Y88.865 E-0.12778
G1 X153.051 Y89.422 E-0.13949
G1 X152.881 Y89.694 E-0.07412
G1 E-0.04000 F2100.00000
G1 Z0.800 F10800.000
G1 X138.831 Y87.435
G1 Z0.200
G1 E0.80000 F2100.00000
G1 F1200
G1 X138.831 Y88.054 E0.01823
G1 X138.789 Y88.395 E0.01014
G1 X138.646 Y88.984 E0.01787
G1 X138.387 Y89.596 E0.01958
G1 X138.080 Y90.089 E0.01711
G1 X137.851 Y90.376 E0.01083
G1 X137.426 Y90.792 E0.01752
G1 X137.154 Y91.003 E0.01014
G1 X136.623 Y91.319 E0.01823
G1 X136.308 Y91.458 E0.01014
G1 X135.730 Y91.636 E0.01782
G1 X135.096 Y91.726 E0.01890
G1 X134.465 Y91.713 E0.01858
G1 X134.125 Y91.665 E0.01014
G1 X133.550 Y91.513 E0.01752
G1 X133.209 Y91.376 E0.01083
G1 X132.699 Y91.100 E0.01711
G1 X132.171 Y90.696 E0.01958
G1 X131.756 Y90.254 E0.01787
G1 X131.551 Y89.978 E0.01014
G1 X131.245 Y89.440 E0.01823
G1 X131.112 Y89.123 E0.01014
G1 X130.946 Y88.542 E0.01782
G1 X130.869 Y87.905 E0.01890
G1 X130.894 Y87.275 E0.01858
G1 X130.950 Y86.936 E0.01013
G1 X131.116 Y86.354 E0.01782
G1 X131.382 Y85.784 E0.01855
G1 X131.564 Y85.492 E0.01014
G1 X131.942 Y85.019 E0.01786
G1 X132.428 Y84.580 E0.01930
G1 X132.710 Y84.383 E0.01013
G1 X133.219 Y84.107 E0.01706
G1 X133.823 Y83.891 E0.01890
G1 X134.478 Y83.774 E0.01962
G1 X135.058 Y83.763 E0.01709
G1 X135.399 Y83.794 E0.01010
G1 X136.016 Y83.929 E0.01862
G1 X136.634 Y84.176 E0.01962
G1 X137.133 Y84.473 E0.01711
G1 X137.425 Y84.696 E0.01083
G1 X137.850 Y85.112 E0.01752
G1 X138.066 Y85.379 E0.01014
G1 X138.399 Y85.915 E0.01858
G1 X138.646 Y86.506 E0.01890
G1 X138.789 Y87.094 E0.01782
G1 X138.823 Y87.376 E0.00837
G1 X138.449 Y87.421 F10800.000
G1 F1200
G1 X138.453 Y88.031 E0.01797
G1 X138.417 Y88.328 E0.00881
G1 X138.287 Y88.865 E0.01631
G1 X138.051 Y89.422 E0.01781
G1 X137.771 Y89.871 E0.01560
G1 X137.570 Y90.123 E0.00950
G1 X137.178 Y90.507 E0.01619
G1 X136.942 Y90.690 E0.00881
G1 X136.450 Y90.983 E0.01688
G1 X136.176 Y91.104 E0.00881
G1 X135.648 Y91.267 E0.01629
G1 X135.073 Y91.349 E0.01712
G1 X134.496 Y91.337 E0.01701
G1 X134.200 Y91.295 E0.00881
G1 X133.669 Y91.154 E0.01619
G1 X133.370 Y91.035 E0.00950
G1 X132.904 Y90.782 E0.01560
G1 X132.425 Y90.415 E0.01781
G1 X132.045 Y90.012 E0.01631
G1 X131.867 Y89.772 E0.00881
G1 X131.584 Y89.274 E0.01688
G1 X131.469 Y88.998 E0.00881
G1 X131.317 Y88.467 E0.01629
G1 X131.247 Y87.890 E0.01712
G1 X131.270 Y87.313 E0.01701
G1 X131.318 Y87.018 E0.00881
G1 X131.470 Y86.487 E0.01629
G1 X131.714 Y85.964 E0.01700
G1 X131.872 Y85.710 E0.00881
G1 X132.218 Y85.278 E0.01631
G1 X132.663 Y84.876 E0.01770
G1 X132.908 Y84.705 E0.00881
G1 X133.373 Y84.452 E0.01558
G1 X133.920 Y84.257 E0.01712
G1 X134.515 Y84.150 E0.01782
G1 X135.044 Y84.140 E0.01559
G1 X135.341 Y84.168 E0.00880
G1 X135.906 Y84.290 E0.01702
G1 X136.467 Y84.515 E0.01782
G1 X136.922 Y84.785 E0.01560
G1 X137.178 Y84.981 E0.00950
G1 X137.570 Y85.366 E0.01619
G1 X137.758 Y85.598 E0.00881
G1 X138.063 Y86.088 E0.01701
G1 X138.287 Y86.624 E0.01712
G1 X138.417 Y87.161 E0.01629
G1 X138.442 Y87.362 E0.00595
G1 X138.809 Y87.596 F10800.000
G1 F8640
G1 X138.453 Y88.031 E-0.15456
G1 X138.417 Y88.328 E-0.06903
G1 X138.287 Y88.865 E-0.12777
G1 X138.051 Y89.422 E-0.13949
G1 X137.771 Y89.871 E-0.12219
G1 X137.570 Y90.123 E-0.07444
G1 X137.346 Y90.343 E-0.07252
G1 E-0.04000 F2100.00000
G1 Z0.800 F10800.000
G1 X123.831 Y87.435
G1 Z0.200
G1 E0.80000 F2100.00000
G1 F1200
G1 X123.831 Y88.054 E0.01823
G1 X123.789 Y88.395 E0.01014
G1 X123.646 Y88.984 E0.01787
G1 X123.387 Y89.596 E0.01958
G1 X123.080 Y90.089 E0.01711
G1 X122.851 Y90.376 E0.01083
G1 X122.426 Y90.792 E0.01752
G1 X122.154 Y91.003 E0.01014
G1 X121.623 Y91.319 E0.01823
G1 X121.308 Y91.458 E0.01014
G1 X120.730 Y91.636 E0.01782
G1 X120.096 Y91.726 E0.01890
G1 X119.465 Y91.713 E0.01858
G1 X119.125 Y91.665 E0.01014
G1 X118.550 Y91.513 E0.01752
G1 X118.209 Y91.376 E0.01083
