; generated by Slic3r Prusa Edition 1.41.0+win64 on 2018-11-04 at 11:38:00

; 

; external perimeters extrusion width = 0.45mm
; perimeters extrusion width = 0.45mm
; infill extrusion width = 0.45mm
; solid infill extrusion width = 0.45mm
; top infill extrusion width = 0.40mm
; first layer extrusion width = 0.42mm

M201 X1000 Y1000 Z1000 E5000 ; sets maximum accelerations, mm/sec^2
M203 X200 Y200 Z12 E120 ; sets maximum feedrates, mm/sec
M204 P1250 R1250 T1250 ; sets acceleration (P, T) and retract acceleration (R), mm/sec^2
M205 X8.00 Y8.00 Z0.40 E1.50 ; sets the jerk limits, mm/sec
M205 S0 T0 ; sets the minimum extruding and travel feed rate, mm/sec
M107
M115 U3.4.1 ; tell printer latest fw version
M83  ; extruder relative mode
M104 S215 ; set extruder temp
M140 S60 ; set bed temp
M190 S60 ; wait for bed temp
M109 S215 ; wait for extruder temp
G28 W ; home all without mesh bed level
G80 ; mesh bed leveling
G1 Y-3.0 F1000.0 ; go outside print area
G92 E0.0
G1 X60.0 E9.0  F1000.0 ; intro line
M73 Q0 S100
M73 P0 R98
G1 X100.0 E12.5  F1000.0 ; intro line
G92 E0.0
M221 S95
M900 K30; Filament gcode
G21 ; set units to millimeters
G90 ; use absolute coordinates
M83 ; use relative distances for extrusion
;BEFORE_LAYER_CHANGE
G92 E0.0
;0.2


G1 E-0.80000 F2100.00000
G1 Z0.600 F10800.000
;AFTER_LAYER_CHANGE
;0.2
G1 X30.003 Y20.520
G1 Z0.200
G1 E0.80000 F2100.00000
M204 S1000
G1 F1200
G1 X31.252 Y20.203 E0.04043
G1 X116.215 Y14.204 E2.67057
G1 X117.651 Y14.322 E0.04517
G1 X119.124 Y14.744 E0.04805
G1 X120.454 Y15.437 E0.04700
G1 X121.698 Y16.457 E0.05045
G1 X122.544 Y17.478 E0.04157
G1 X123.164 Y18.573 E0.03945
G1 X125.245 Y22.696 E0.14482
G1 X125.508 Y23.415 E0.02399
G1 X125.639 Y24.170 E0.02404
G1 X129.879 Y82.853 E1.84474
G1 X129.888 Y85.957 E0.09733
G1 X129.786 Y86.779 E0.02597
G1 X129.509 Y87.560 E0.02597
G1 X126.582 Y92.800 E0.18820
G1 X125.728 Y94.013 E0.04652
G1 X124.594 Y95.113 E0.04954
G1 X123.574 Y95.815 E0.03883
G1 X122.493 Y96.336 E0.03762
G1 X120.711 Y96.829 E0.05795
G1 X119.467 Y96.931 E0.03914
G1 X111.118 Y96.934 E0.26179
G1 X56.637 Y93.191 E1.71225
G1 X30.703 Y89.309 E0.82218
G1 X29.752 Y88.985 E0.03150
G1 X28.817 Y88.457 E0.03368
G1 X25.161 Y85.882 E0.14021
G1 X24.268 Y85.104 E0.03714
G1 X23.723 Y84.462 E0.02640
G1 X23.171 Y83.679 E0.03005
G1 X22.585 Y82.460 E0.04240
G1 X22.230 Y81.156 E0.04239
G1 X22.125 Y80.208 E0.02990
G1 X22.089 Y29.891 E1.57765
G1 X22.229 Y28.359 E0.04823
G1 X22.526 Y27.256 E0.03581
G1 X22.911 Y26.390 E0.02972
G1 X23.303 Y25.691 E0.02513
G1 X24.006 Y24.772 E0.03627
G1 X25.178 Y23.706 E0.04968
G1 X29.054 Y20.992 E0.14834
G1 X29.949 Y20.547 E0.03136
G1 X30.116 Y20.881 F10800.000
G1 F1200
G1 X31.299 Y20.577 E0.03827
G1 X116.214 Y14.581 E2.66908
G1 X117.580 Y14.692 E0.04296
G1 X118.980 Y15.093 E0.04566
G1 X120.243 Y15.750 E0.04466
G1 X121.433 Y16.725 E0.04822
G1 X122.236 Y17.696 E0.03951
G1 X122.827 Y18.740 E0.03764
G1 X124.897 Y22.841 E0.14402
G1 X125.143 Y23.509 E0.02232
G1 X125.265 Y24.219 E0.02259
G1 X129.502 Y82.879 E1.84404
G1 X129.512 Y85.945 E0.09612
G1 X129.419 Y86.694 E0.02365
G1 X129.164 Y87.408 E0.02380
G1 X126.252 Y92.617 E0.18710
G1 X125.439 Y93.770 E0.04425
G1 X124.349 Y94.825 E0.04754
G1 X123.378 Y95.492 E0.03695
G1 X122.337 Y95.993 E0.03623
G1 X120.647 Y96.457 E0.05495
G1 X119.463 Y96.554 E0.03724
G1 X111.123 Y96.557 E0.26148
G1 X56.665 Y92.815 E1.71153
G1 X30.780 Y88.939 E0.82064
G1 X29.955 Y88.662 E0.02730
G1 X29.182 Y88.246 E0.02753
G1 X25.503 Y85.667 E0.14085
G1 X24.486 Y84.789 E0.04215
G1 X23.737 Y83.855 E0.03752
G1 X23.276 Y83.067 E0.02863
G1 X22.866 Y82.114 E0.03254
G1 X22.571 Y80.926 E0.03838
G1 X22.490 Y79.723 E0.03780
G1 X22.477 Y29.433 E1.57680
G1 X22.564 Y28.596 E0.02639
G1 X22.835 Y27.529 E0.03452
G1 X23.438 Y26.193 E0.04596
G1 X24.367 Y24.932 E0.04911
G1 X25.426 Y23.992 E0.04441
G1 X29.233 Y21.324 E0.14573
G1 X30.063 Y20.907 E0.02913
; PURGING FINISHED
G1 F8640
G1 X31.299 Y20.577 E-0.29536
G1 X33.306 Y20.435 E-0.46464
G1 E-0.04000 F2100.00000
G1 Z0.800 F10800.000
G1 X45.752 Y41.210
G1 Z0.200
G1 E0.80000 F2100.00000
G1 F1200
G1 X46.019 Y41.244 E0.00844
G1 X46.263 Y41.338 E0.00821
G1 X46.476 Y41.474 E0.00793
G1 X46.673 Y41.652 E0.00830
G1 X46.973 Y42.042 E0.01542
G1 X47.241 Y42.541 E0.01777
G1 X47.483 Y43.136 E0.02014
G1 X47.706 Y43.829 E0.02282
G1 X47.911 Y44.617 E0.02555
G1 X48.098 Y45.497 E0.02821
G1 X48.267 Y46.462 E0.03071
G1 X48.416 Y47.503 E0.03299
G1 X48.544 Y48.612 E0.03501
G1 X48.651 Y49.779 E0.03673
G1 X48.735 Y50.993 E0.03814
G1 X48.796 Y52.245 E0.03931
G1 X48.846 Y54.801 E0.08015
G1 X48.798 Y57.357 E0.08015
G1 X48.739 Y58.609 E0.03930
G1 X48.656 Y59.822 E0.03814
G1 X48.550 Y60.989 E0.03673
G1 X48.423 Y62.098 E0.03501
G1 X48.275 Y63.140 E0.03299
G1 X48.107 Y64.105 E0.03071
G1 X47.921 Y64.985 E0.02821
G1 X47.717 Y65.774 E0.02555
G1 X47.495 Y66.467 E0.02282
G1 X47.253 Y67.062 E0.02014
G1 X46.985 Y67.562 E0.01778
G1 X46.686 Y67.952 E0.01542
G1 X46.489 Y68.129 E0.00830
G1 X46.276 Y68.266 E0.00793
G1 X46.032 Y68.360 E0.00821
G1 X45.765 Y68.394 E0.00843
G1 X45.498 Y68.360 E0.00844
G1 X45.254 Y68.266 E0.00821
G1 X45.041 Y68.130 E0.00793
G1 X44.844 Y67.953 E0.00830
G1 X44.544 Y67.563 E0.01542
G1 X44.276 Y67.064 E0.01777
G1 X44.033 Y66.469 E0.02014
G1 X43.811 Y65.776 E0.02282
G1 X43.606 Y64.987 E0.02555
G1 X43.419 Y64.107 E0.02821
G1 X43.250 Y63.142 E0.03071
G1 X43.101 Y62.101 E0.03299
G1 X42.973 Y60.992 E0.03501
G1 X42.866 Y59.825 E0.03673
G1 X42.782 Y58.612 E0.03814
G1 X42.721 Y57.360 E0.03930
G1 X42.671 Y54.804 E0.08015
G1 X42.718 Y52.248 E0.08015
G1 X42.778 Y50.996 E0.03931
G1 X42.861 Y49.782 E0.03814
G1 X42.967 Y48.615 E0.03673
G1 X43.094 Y47.506 E0.03501
G1 X43.242 Y46.464 E0.03299
G1 X43.410 Y45.500 E0.03071
G1 X43.596 Y44.619 E0.02821
G1 X43.800 Y43.831 E0.02555
G1 X44.022 Y43.138 E0.02282
G1 X44.264 Y42.542 E0.02014
G1 X44.532 Y42.043 E0.01777
G1 X44.831 Y41.652 E0.01542
G1 X45.028 Y41.475 E0.00830
G1 X45.241 Y41.338 E0.00793
G1 X45.485 Y41.245 E0.00821
G1 X45.692 Y41.218 E0.00655
G1 X45.752 Y41.590 F10800.000
G1 F1200
G1 X45.926 Y41.613 E0.00551
G1 X46.092 Y41.676 E0.00557
G1 X46.247 Y41.775 E0.00575
G1 X46.395 Y41.909 E0.00625
G1 X46.655 Y42.247 E0.01339
G1 X46.900 Y42.702 E0.01618
G1 X47.129 Y43.265 E0.01906
G1 X47.344 Y43.934 E0.02203
G1 X47.544 Y44.704 E0.02495
G1 X47.728 Y45.569 E0.02773
G1 X47.894 Y46.521 E0.03031
G1 X48.042 Y47.552 E0.03264
G1 X48.169 Y48.651 E0.03470
G1 X48.275 Y49.809 E0.03646
G1 X48.359 Y51.015 E0.03789
G1 X48.419 Y52.258 E0.03901
G1 X48.468 Y54.801 E0.07976
G1 X48.422 Y57.344 E0.07976
G1 X48.362 Y58.587 E0.03901
G1 X48.280 Y59.793 E0.03789
G1 X48.175 Y60.951 E0.03646
G1 X48.049 Y62.050 E0.03470
G1 X47.902 Y63.081 E0.03264
G1 X47.737 Y64.033 E0.03031
G1 X47.554 Y64.899 E0.02773
G1 X47.354 Y65.669 E0.02495
G1 X47.140 Y66.338 E0.02203
G1 X46.911 Y66.902 E0.01906
G1 X46.667 Y67.356 E0.01618
G1 X46.407 Y67.695 E0.01339
G1 X46.260 Y67.829 E0.00625
G1 X46.105 Y67.928 E0.00575
G1 X45.939 Y67.992 E0.00558
G1 X45.765 Y68.014 E0.00550
G1 X45.591 Y67.992 E0.00551
G1 X45.425 Y67.928 E0.00558
G1 X45.270 Y67.829 E0.00575
G1 X45.122 Y67.696 E0.00625
G1 X44.862 Y67.357 E0.01339
G1 X44.617 Y66.903 E0.01618
G1 X44.388 Y66.340 E0.01906
G1 X44.173 Y65.671 E0.02203
G1 X43.973 Y64.900 E0.02495
G1 X43.789 Y64.035 E0.02773
G1 X43.623 Y63.083 E0.03031
G1 X43.475 Y62.053 E0.03264
G1 X43.348 Y60.953 E0.03470
G1 X43.242 Y59.795 E0.03646
G1 X43.158 Y58.589 E0.03789
G1 X43.098 Y57.347 E0.03901
G1 X43.048 Y54.804 E0.07976
G1 X43.095 Y52.260 E0.07975
G1 X43.155 Y51.017 E0.03901
G1 X43.237 Y49.812 E0.03789
G1 X43.342 Y48.654 E0.03646
G1 X43.468 Y47.554 E0.03470
G1 X43.614 Y46.523 E0.03264
G1 X43.780 Y45.571 E0.03031
G1 X43.963 Y44.706 E0.02773
G1 X44.162 Y43.935 E0.02495
G1 X44.377 Y43.266 E0.02203
G1 X44.606 Y42.703 E0.01906
G1 X44.850 Y42.248 E0.01618
G1 X45.110 Y41.909 E0.01339
G1 X45.257 Y41.776 E0.00625
G1 X45.412 Y41.677 E0.00575
G1 X45.578 Y41.613 E0.00558
G1 X45.693 Y41.598 E0.00362
G1 X45.840 Y41.438 F10800.000
G1 F8640
G1 X45.926 Y41.613 E-0.05410
G1 X46.092 Y41.676 E-0.04106
G1 X46.247 Y41.775 E-0.04235
G1 X46.395 Y41.909 E-0.04600
G1 X46.655 Y42.247 E-0.09859
G1 X46.900 Y42.702 E-0.11919
G1 X47.129 Y43.265 E-0.14039
G1 X47.344 Y43.934 E-0.16226
G1 X47.405 Y44.169 E-0.05606
G1 E-0.04000 F2100.00000
G1 Z0.800 F10800.000
G1 X54.952 Y41.206
G1 Z0.200
G1 E0.80000 F2100.00000
G1 F1200
G1 X55.219 Y41.240 E0.00844
G1 X55.463 Y41.333 E0.00821
G1 X55.676 Y41.470 E0.00793
G1 X55.873 Y41.647 E0.00830
G1 X56.173 Y42.037 E0.01542
G1 X56.441 Y42.536 E0.01777
G1 X56.683 Y43.131 E0.02014
G1 X56.906 Y43.824 E0.02282
G1 X57.111 Y44.613 E0.02555
G1 X57.298 Y45.493 E0.02821
G1 X57.467 Y46.457 E0.03071
G1 X57.616 Y47.499 E0.03299
G1 X57.744 Y48.608 E0.03501
G1 X57.851 Y49.775 E0.03673
G1 X57.935 Y50.988 E0.03814
G1 X57.996 Y52.240 E0.03930
G1 X58.046 Y54.796 E0.08015
G1 X57.998 Y57.352 E0.08015
G1 X57.939 Y58.604 E0.03930
G1 X57.856 Y59.818 E0.03814
G1 X57.750 Y60.985 E0.03673
G1 X57.623 Y62.094 E0.03501
G1 X57.475 Y63.135 E0.03299
G1 X57.307 Y64.100 E0.03071
G1 X57.121 Y64.980 E0.02821
G1 X56.917 Y65.769 E0.02555
G1 X56.695 Y66.462 E0.02282
G1 X56.453 Y67.058 E0.02014
G1 X56.185 Y67.557 E0.01777
G1 X55.886 Y67.947 E0.01542
G1 X55.689 Y68.125 E0.00830
G1 X55.476 Y68.262 E0.00793
G1 X55.232 Y68.355 E0.00821
G1 X54.965 Y68.390 E0.00843
G1 X54.698 Y68.356 E0.00844
G1 X54.454 Y68.262 E0.00821
G1 X54.241 Y68.126 E0.00793
G1 X54.044 Y67.948 E0.00830
G1 X53.744 Y67.558 E0.01542
G1 X53.476 Y67.059 E0.01777
G1 X53.233 Y66.464 E0.02014
G1 X53.011 Y65.771 E0.02282
G1 X52.806 Y64.983 E0.02555
G1 X52.619 Y64.103 E0.02821
G1 X52.450 Y63.138 E0.03071
G1 X52.301 Y62.096 E0.03299
G1 X52.173 Y60.987 E0.03501
G1 X52.066 Y59.821 E0.03673
G1 X51.982 Y58.607 E0.03814
G1 X51.921 Y57.355 E0.03930
G1 X51.871 Y54.799 E0.08015
G1 X51.918 Y52.243 E0.08015
G1 X51.978 Y50.991 E0.03930
G1 X52.061 Y49.777 E0.03814
G1 X52.167 Y48.611 E0.03673
G1 X52.294 Y47.502 E0.03501
G1 X52.442 Y46.460 E0.03299
G1 X52.610 Y45.495 E0.03071
G1 X52.796 Y44.615 E0.02821
G1 X53.000 Y43.826 E0.02555
G1 X53.222 Y43.133 E0.02282
G1 X53.464 Y42.538 E0.02014
G1 X53.732 Y42.038 E0.01777
G1 X54.031 Y41.648 E0.01542
G1 X54.228 Y41.471 E0.00830
G1 X54.441 Y41.334 E0.00793
G1 X54.685 Y41.240 E0.00821
G1 X54.892 Y41.213 E0.00655
G1 X54.952 Y41.586 F10800.000
G1 F1200
G1 X55.126 Y41.608 E0.00551
G1 X55.292 Y41.672 E0.00558
G1 X55.447 Y41.771 E0.00575
G1 X55.595 Y41.904 E0.00625
G1 X55.855 Y42.243 E0.01339
G1 X56.100 Y42.697 E0.01618
G1 X56.329 Y43.260 E0.01906
G1 X56.544 Y43.929 E0.02203
G1 X56.744 Y44.700 E0.02495
G1 X56.928 Y45.565 E0.02773
G1 X57.094 Y46.517 E0.03031
G1 X57.242 Y47.547 E0.03264
G1 X57.369 Y48.647 E0.03470
G1 X57.475 Y49.805 E0.03646
G1 X57.559 Y51.010 E0.03789
G1 X57.619 Y52.253 E0.03901
G1 X57.668 Y54.796 E0.07976
G1 X57.622 Y57.340 E0.07976
G1 X57.562 Y58.582 E0.03901
G1 X57.480 Y59.788 E0.03789
G1 X57.375 Y60.946 E0.03646
G1 X57.249 Y62.046 E0.03470
G1 X57.102 Y63.077 E0.03264
G1 X56.937 Y64.029 E0.03031
G1 X56.754 Y64.894 E0.02773
G1 X56.554 Y65.665 E0.02495
G1 X56.340 Y66.334 E0.02203
G1 X56.111 Y66.897 E0.01906
G1 X55.867 Y67.352 E0.01618
G1 X55.607 Y67.691 E0.01339
G1 X55.459 Y67.824 E0.00625
G1 X55.305 Y67.923 E0.00575
G1 X55.139 Y67.987 E0.00558
G1 X54.965 Y68.009 E0.00550
G1 X54.791 Y67.987 E0.00551
G1 X54.625 Y67.924 E0.00557
G1 X54.470 Y67.825 E0.00575
G1 X54.322 Y67.691 E0.00625
G1 X54.062 Y67.353 E0.01339
G1 X53.817 Y66.898 E0.01618
G1 X53.588 Y66.335 E0.01906
G1 X53.373 Y65.666 E0.02203
G1 X53.173 Y64.896 E0.02495
G1 X52.989 Y64.031 E0.02773
G1 X52.823 Y63.079 E0.03031
G1 X52.675 Y62.048 E0.03264
G1 X52.548 Y60.949 E0.03470
G1 X52.442 Y59.791 E0.03646
G1 X52.358 Y58.585 E0.03789
G1 X52.298 Y57.342 E0.03901
G1 X52.248 Y54.799 E0.07976
G1 X52.295 Y52.256 E0.07976
G1 X52.355 Y51.013 E0.03901
G1 X52.437 Y49.807 E0.03789
G1 X52.542 Y48.649 E0.03646
G1 X52.668 Y47.550 E0.03470
G1 X52.814 Y46.519 E0.03264
G1 X52.980 Y45.566 E0.03031
G1 X53.163 Y44.701 E0.02773
G1 X53.362 Y43.931 E0.02495
G1 X53.577 Y43.262 E0.02203
G1 X53.806 Y42.698 E0.01906
G1 X54.050 Y42.244 E0.01618
G1 X54.310 Y41.905 E0.01339
G1 X54.457 Y41.771 E0.00625
G1 X54.612 Y41.672 E0.00575
G1 X54.778 Y41.608 E0.00558
G1 X54.892 Y41.594 E0.00362
G1 X55.040 Y41.434 F10800.000
G1 F8640
G1 X55.126 Y41.608 E-0.05410
G1 X55.292 Y41.672 E-0.04106
G1 X55.447 Y41.771 E-0.04235
G1 X55.595 Y41.904 E-0.04600
G1 X55.855 Y42.243 E-0.09859
G1 X56.100 Y42.697 E-0.11919
G1 X56.329 Y43.260 E-0.14039
G1 X56.544 Y43.929 E-0.16226
G1 X56.605 Y44.164 E-0.05606
G1 E-0.04000 F2100.00000
G1 Z0.800 F10800.000
G1 X64.152 Y41.201
G1 Z0.200
G1 E0.80000 F2100.00000
G1 F1200
G1 X64.419 Y41.235 E0.00844
G1 X64.663 Y41.329 E0.00821
G1 X64.876 Y41.465 E0.00793
G1 X65.073 Y41.643 E0.00830
G1 X65.373 Y42.033 E0.01542
G1 X65.641 Y42.532 E0.01777
G1 X65.883 Y43.127 E0.02014
G1 X66.106 Y43.820 E0.02282
G1 X66.311 Y44.608 E0.02555
G1 X66.498 Y45.488 E0.02821
G1 X66.667 Y46.453 E0.03071
G1 X66.816 Y47.494 E0.03299
G1 X66.944 Y48.603 E0.03501
G1 X67.051 Y49.770 E0.03673
G1 X67.135 Y50.984 E0.03814
G1 X67.196 Y52.236 E0.03931
G1 X67.246 Y54.792 E0.08015
G1 X67.198 Y57.348 E0.08015
G1 X67.139 Y58.600 E0.03930
G1 X67.056 Y59.813 E0.03814
G1 X66.950 Y60.980 E0.03673
G1 X66.823 Y62.089 E0.03501
G1 X66.675 Y63.131 E0.03299
G1 X66.507 Y64.096 E0.03071
G1 X66.321 Y64.976 E0.02821
G1 X66.117 Y65.765 E0.02555
G1 X65.895 Y66.458 E0.02282
G1 X65.653 Y67.053 E0.02015
G1 X65.385 Y67.553 E0.01777
G1 X65.086 Y67.943 E0.01542
G1 X64.889 Y68.120 E0.00830
G1 X64.676 Y68.257 E0.00793
G1 X64.432 Y68.351 E0.00821
G1 X64.165 Y68.385 E0.00843
G1 X63.898 Y68.351 E0.00844
G1 X63.654 Y68.257 E0.00821
G1 X63.441 Y68.121 E0.00793
G1 X63.244 Y67.944 E0.00830
G1 X62.944 Y67.554 E0.01542
G1 X62.676 Y67.055 E0.01777
G1 X62.433 Y66.460 E0.02014
G1 X62.211 Y65.767 E0.02282
G1 X62.006 Y64.978 E0.02555
G1 X61.819 Y64.098 E0.02821
G1 X61.650 Y63.133 E0.03071
G1 X61.501 Y62.092 E0.03299
G1 X61.373 Y60.983 E0.03501
G1 X61.266 Y59.816 E0.03673
G1 X61.182 Y58.603 E0.03814
G1 X61.121 Y57.351 E0.03930
G1 X61.071 Y54.795 E0.08015
G1 X61.118 Y52.239 E0.08015
G1 X61.178 Y50.987 E0.03931
G1 X61.261 Y49.773 E0.03814
G1 X61.367 Y48.606 E0.03673
G1 X61.494 Y47.497 E0.03501
G1 X61.642 Y46.455 E0.03299
G1 X61.810 Y45.491 E0.03071
G1 X61.996 Y44.610 E0.02821
G1 X62.200 Y43.822 E0.02555
G1 X62.422 Y43.129 E0.02282
G1 X62.664 Y42.533 E0.02015
G1 X62.932 Y42.034 E0.01777
G1 X63.231 Y41.643 E0.01542
G1 X63.428 Y41.466 E0.00830
G1 X63.641 Y41.329 E0.00793
G1 X63.885 Y41.236 E0.00821
G1 X64.092 Y41.209 E0.00655
G1 X64.152 Y41.581 F10800.000
G1 F1200
G1 X64.326 Y41.604 E0.00551
G1 X64.492 Y41.667 E0.00557
G1 X64.647 Y41.766 E0.00575
G1 X64.795 Y41.900 E0.00625
G1 X65.055 Y42.238 E0.01339
G1 X65.300 Y42.693 E0.01618
G1 X65.529 Y43.256 E0.01906
G1 X65.744 Y43.925 E0.02203
G1 X65.944 Y44.695 E0.02495
G1 X66.128 Y45.560 E0.02773
G1 X66.294 Y46.512 E0.03031
G1 X66.442 Y47.543 E0.03264
G1 X66.569 Y48.642 E0.03470
G1 X66.675 Y49.800 E0.03646
G1 X66.759 Y51.006 E0.03789
G1 X66.819 Y52.249 E0.03901
G1 X66.868 Y54.792 E0.07976
G1 X66.822 Y57.335 E0.07976
G1 X66.762 Y58.578 E0.03901
G1 X66.680 Y59.784 E0.03789
G1 X66.575 Y60.942 E0.03646
G1 X66.449 Y62.041 E0.03470
G1 X66.302 Y63.072 E0.03264
G1 X66.137 Y64.024 E0.03031
G1 X65.954 Y64.890 E0.02773
G1 X65.754 Y65.660 E0.02495
G1 X65.540 Y66.329 E0.02203
G1 X65.311 Y66.893 E0.01906
G1 X65.067 Y67.347 E0.01618
G1 X64.807 Y67.686 E0.01339
G1 X64.659 Y67.820 E0.00625
G1 X64.505 Y67.919 E0.00575
G1 X64.339 Y67.983 E0.00558
G1 X64.165 Y68.005 E0.00550
G1 X63.991 Y67.983 E0.00551
G1 X63.824 Y67.919 E0.00558
G1 X63.670 Y67.820 E0.00575
G1 X63.522 Y67.687 E0.00625
G1 X63.262 Y67.348 E0.01339
G1 X63.017 Y66.894 E0.01618
G1 X62.788 Y66.331 E0.01906
G1 X62.573 Y65.662 E0.02203
G1 X62.373 Y64.891 E0.02495
G1 X62.189 Y64.026 E0.02773
G1 X62.022 Y63.074 E0.03031
G1 X61.875 Y62.044 E0.03264
G1 X61.748 Y60.944 E0.03470
G1 X61.642 Y59.786 E0.03646
G1 X61.558 Y58.580 E0.03789
G1 X61.498 Y57.338 E0.03901
G1 X61.448 Y54.795 E0.07976
G1 X61.495 Y52.251 E0.07976
G1 X61.555 Y51.009 E0.03901
